; HEADER_BLOCK_START
; generated by OrcaSlicer-WaveOverhangs 2.4.0-dev on 2026-05-28 at 14:34:40
; WAVE_OVERHANG_BUILD wave_overhangs_version=dev orca_base=2.4.0-dev
; WAVE_OVERHANG_CONFIG region=0 algo=andersons outer_perim=1 spacing=0.360 flow_mm3_per_mm=0.180 speed=2.0 travel=40.0 fan=100 floor_layers=2 min_angle=0.0 min_length=0.00 max_iterations=0 ring_overlap=0.15 pattern=zigzag spacing_mode=uniform seam_mode=alternating perimeter_overlap=0.20 minimum_wave_width=0.70 min_new_area=0.0100 corner_enable=0 corner_spacing=0.420 corner_taper=10.00 corner_angle=91 end_retract=0.00 nozzle_temp_override=0 min_wave_time=4.00 min_layer_time=0.00 wall_loops=3 top_shell_layers=2 bottom_shell_layers=4 infill_density=15 infill_pattern=rectilinear support_remainder=1 instead_of_bridges=1
; total layer number: 43
; filament_density: 1.24
; filament_diameter: 1.75
; max_z_height: 10.28
; filament: 1
; HEADER_BLOCK_END

; THUMBNAIL_BLOCK_START

;
; THUMBNAIL_BLOCK_END

; external perimeters extrusion width = 0.42mm
; perimeters extrusion width = 0.45mm
; infill extrusion width = 0.44mm
; solid infill extrusion width = 0.44mm
; top infill extrusion width = 0.38mm
; first layer extrusion width = 0.42mm

; EXECUTABLE_BLOCK_START
EXCLUDE_OBJECT_DEFINE NAME=WaveOverhangPreliminaryTesting.stl_id_0_copy_0 CENTER=125,125 POLYGON=[[110,107.5],[125,107.5],[140,127.5],[140,142.5],[110,142.5],[110,107.5]]
M73 P0 R15
M106 S0
M106 P2 S0
;TYPE:Custom
G9111 bedTemp=60 extruderTemp=220
M117
M106 P3 S255
G90
G21
M83 ; use relative distances for extrusion
; Filament gcode
M106 S0
M106 P2 S0
;LAYER_CHANGE
;Z:0.2
;HEIGHT:0.2
 ; PURGE LINE
M204 P500
SET_VELOCITY_LIMIT SQUARE_CORNER_VELOCITY=9
G1 Z0.50 F900 ; for object exclusion
G1 X89.365 Y255 F18000
G1 Z.25 F900
G1 E0.8 F2400
G1 E0.6
G1 F3000
G1 X158.835 Y255 E3.72454
G1 X158.835 Y255.45 E.0252
G1 X89.365 Y255.45 E3.72454
G1 X89.365 Y255.02 E.02305
G1 Z0.5 F600

G1 E-.8 F2400
; AFTER_LAYER_CHANGE 0 @ 0.2mm
;_SET_FAN_SPEED_CHANGING_LAYER
SET_VELOCITY_LIMIT ACCEL=2000 ACCEL_TO_DECEL=1000
; printing object WaveOverhangPreliminaryTesting.stl id:0 copy 0
EXCLUDE_OBJECT_START NAME=WaveOverhangPreliminaryTesting.stl_id_0_copy_0
G1 X106.935 Y104.297 F24000
G1 Z.56
G1 Z.16
G1 E.8 F2400
;TYPE:Brim
;WIDTH:0.42
G1 F4800
G1 X107.43 Y103.885 E.01919
G1 X107.979 Y103.552 E.01913
G1 X108.751 Y103.248 E.02472
G1 X109.434 Y103.101 E.02079
G1 X110.006 Y103.064 E.01709
G1 X124.993 Y103.064 E.44641
G1 X125.642 Y103.112 E.0194
G1 X126.268 Y103.254 E.0191
G1 X127.102 Y103.608 E.027
G1 X127.723 Y104.006 E.02198
G1 X128.203 Y104.435 E.01916
G1 X128.615 Y104.93 E.01919
G1 X128.948 Y105.479 E.01913
G1 X129.252 Y106.251 E.02472
G1 X129.399 Y106.934 E.02079
G1 X129.436 Y107.506 E.01709
G1 X129.436 Y122.493 E.4464
G1 X129.388 Y123.142 E.0194
G1 X129.246 Y123.768 E.0191
G1 X128.892 Y124.602 E.027
G1 X128.494 Y125.223 E.02198
G1 X128.065 Y125.703 E.01916
G1 X127.57 Y126.115 E.01919
G1 X127.022 Y126.448 E.01911
G1 X126.197 Y126.767 E.02634
G1 X125.567 Y126.899 E.01917
G1 X124.994 Y126.936 E.01711
G1 X110.007 Y126.936 E.4464
G1 X109.358 Y126.888 E.0194
G1 X108.732 Y126.746 E.0191
G1 X107.898 Y126.392 E.027
G1 X107.277 Y125.994 E.02198
G1 X106.797 Y125.565 E.01916
G1 X106.385 Y125.07 E.01919
G1 X106.052 Y124.522 E.01911
G1 X105.733 Y123.697 E.02634
G1 X105.601 Y123.067 E.01917
G1 X105.564 Y122.494 E.01711
G1 X105.564 Y107.507 E.44641
G1 X105.612 Y106.858 E.0194
G1 X105.754 Y106.232 E.0191
G1 X106.108 Y105.398 E.027
G1 X106.506 Y104.777 E.02198
G1 X106.908 Y104.326 E.01797
G1 X107.19 Y104.579 F24000
G1 F4800
G1 X107.204 Y104.563 E.00063
G1 X107.643 Y104.198 E.01701
G1 X108.139 Y103.896 E.0173
G1 X108.852 Y103.613 E.02284
G1 X109.494 Y103.475 E.01957
G1 X110.022 Y103.441 E.01577
G1 X124.983 Y103.441 E.44563
G1 X125.595 Y103.488 E.01826
G1 X126.161 Y103.618 E.01731
G1 X126.917 Y103.939 E.02446
G1 X127.501 Y104.314 E.02068
G1 X127.937 Y104.704 E.01742
G1 X128.302 Y105.143 E.01701
G1 X128.604 Y105.639 E.0173
G1 X128.887 Y106.352 E.02284
G1 X129.023 Y106.978 E.01908
G1 X129.059 Y107.522 E.01626
G1 X129.059 Y122.483 E.44563
G1 X129.012 Y123.095 E.01826
G1 X128.882 Y123.661 E.01731
G1 X128.561 Y124.417 E.02446
G1 X128.186 Y125.001 E.02068
G1 X127.796 Y125.437 E.01742
G1 X127.357 Y125.802 E.01701
G1 X126.845 Y126.112 E.01783
G1 X126.081 Y126.406 E.02441
G1 X125.524 Y126.523 E.01694
G1 X124.985 Y126.559 E.01608
G1 X110.017 Y126.559 E.44585
G1 X109.405 Y126.512 E.01826
G1 X108.839 Y126.382 E.01731
G1 X108.083 Y126.061 E.02446
G1 X107.499 Y125.686 E.02068
G1 X107.063 Y125.296 E.01742
G1 X106.698 Y124.857 E.01701
G1 X106.388 Y124.345 E.01783
G1 X106.094 Y123.581 E.02441
G1 X105.977 Y123.024 E.01694
G1 X105.941 Y122.485 E.01608
G1 X105.941 Y107.517 E.44585
G1 X105.988 Y106.905 E.01826
G1 X106.118 Y106.339 E.01731
G1 X106.439 Y105.583 E.02446
G1 X106.814 Y104.999 E.02068
G1 X107.163 Y104.609 E.0156
G1 X107.444 Y104.862 F24000
G1 F4800
G1 X107.473 Y104.83 E.00126
G1 X107.87 Y104.501 E.01536
G1 X108.299 Y104.24 E.01498
G1 X108.953 Y103.979 E.02096
G1 X109.554 Y103.849 E.01833
G1 X110.038 Y103.818 E.01444
G1 X124.964 Y103.818 E.4446
G1 X125.529 Y103.861 E.01687
G1 X126.053 Y103.982 E.01602
G1 X126.731 Y104.27 E.02194
G1 X127.279 Y104.621 E.01938
G1 X127.67 Y104.973 E.01566
G1 X127.999 Y105.37 E.01536
G1 X128.26 Y105.799 E.01498
G1 X128.521 Y106.453 E.02097
G1 X128.649 Y107.039 E.01785
G1 X128.682 Y107.539 E.01492
G1 X128.682 Y122.473 E.44484
G1 X128.639 Y123.029 E.01661
G1 X128.518 Y123.553 E.01602
G1 X128.23 Y124.231 E.02194
G1 X127.879 Y124.779 E.01938
G1 X127.539 Y125.158 E.01517
G1 X127.144 Y125.489 E.01534
G1 X126.669 Y125.776 E.01654
G1 X125.965 Y126.045 E.02247
G1 X125.464 Y126.149 E.01521
G1 X124.969 Y126.182 E.0148
G1 X110.027 Y126.182 E.44506
G1 X109.471 Y126.139 E.01661
G1 X108.947 Y126.018 E.01602
G1 X108.269 Y125.73 E.02194
G1 X107.721 Y125.379 E.01938
G1 X107.342 Y125.039 E.01517
G1 X107.011 Y124.644 E.01534
G1 X106.724 Y124.169 E.01654
G1 X106.455 Y123.465 E.02247
G1 X106.351 Y122.964 E.01521
G1 X106.318 Y122.469 E.0148
G1 X106.318 Y107.527 E.44506
G1 X106.361 Y106.971 E.01661
G1 X106.482 Y106.447 E.01602
G1 X106.77 Y105.769 E.02194
G1 X107.121 Y105.221 E.01938
G1 X107.417 Y104.891 E.01321
G1 X107.698 Y105.145 F24000
G1 F4800
G1 X107.741 Y105.098 E.00191
G1 X108.083 Y104.814 E.01323
G1 X108.46 Y104.583 E.01319
G1 X109.054 Y104.344 E.01907
G1 X109.615 Y104.223 E.01708
G1 X110.054 Y104.195 E.01311
G1 X124.946 Y104.195 E.44357
G1 X125.464 Y104.234 E.01546
G1 X125.945 Y104.346 E.01473
G1 X126.546 Y104.601 E.01943
G1 X127.057 Y104.928 E.01807
G1 X127.402 Y105.241 E.01389
G1 X127.686 Y105.583 E.01323
G1 X127.917 Y105.96 E.01319
G1 X128.156 Y106.555 E.0191
G1 X128.275 Y107.1 E.01661
G1 X128.305 Y107.555 E.01358
G1 X128.304 Y122.463 E.44405
G1 X128.266 Y122.963 E.01495
G1 X128.154 Y123.445 E.01473
G1 X127.899 Y124.046 E.01943
G1 X127.572 Y124.557 E.01808
G1 X127.27 Y124.892 E.01342
G1 X126.931 Y125.175 E.01317
G1 X126.493 Y125.439 E.01523
G1 X125.849 Y125.684 E.02053
G1 X125.406 Y125.775 E.01349
G1 X124.952 Y125.805 E.01354
G1 X110.037 Y125.804 E.44427
G1 X109.537 Y125.766 E.01495
G1 X109.055 Y125.654 E.01473
G1 X108.454 Y125.399 E.01943
G1 X107.943 Y125.072 E.01808
G1 X107.608 Y124.77 E.01342
G1 X107.325 Y124.431 E.01317
G1 X107.061 Y123.993 E.01523
G1 X106.816 Y123.349 E.02053
G1 X106.725 Y122.906 E.01349
G1 X106.695 Y122.452 E.01354
G1 X106.696 Y107.537 E.44427
G1 X106.734 Y107.037 E.01495
M73 P1 R15
G1 X106.846 Y106.555 E.01473
G1 X107.101 Y105.954 E.01943
G1 X107.428 Y105.443 E.01807
G1 X107.671 Y105.175 E.01079
G1 X107.95 Y105.429 F24000
G1 F4800
G1 X108.008 Y105.366 E.00256
G1 X108.31 Y105.118 E.01162
G1 X108.639 Y104.918 E.01149
G1 X109.175 Y104.704 E.01717
G1 X109.659 Y104.599 E.01476
G1 X110.063 Y104.572 E.01205
G1 X124.927 Y104.572 E.44277
G1 X125.398 Y104.607 E.01405
G1 X125.837 Y104.71 E.01344
G1 X126.36 Y104.932 E.01693
G1 X126.834 Y105.235 E.01674
G1 X127.134 Y105.508 E.01211
G1 X127.373 Y105.797 E.01114
G1 X127.574 Y106.122 E.0114
G1 X127.791 Y106.658 E.01721
G1 X127.901 Y107.162 E.01536
G1 X127.928 Y107.571 E.01224
G1 X127.927 Y122.444 E.44301
G1 X127.893 Y122.898 E.01354
G1 X127.79 Y123.337 E.01344
G1 X127.568 Y123.86 E.01693
G1 X127.265 Y124.334 E.01676
G1 X127.014 Y124.614 E.01119
G1 X126.718 Y124.862 E.01148
G1 X126.318 Y125.102 E.01391
G1 X125.735 Y125.323 E.01858
G1 X125.348 Y125.401 E.01177
G1 X124.936 Y125.428 E.01229
G1 X110.047 Y125.427 E.44348
G1 X109.585 Y125.39 E.01379
G1 X109.163 Y125.29 E.01294
G1 X108.64 Y125.068 E.01693
G1 X108.166 Y124.765 E.01676
G1 X107.886 Y124.514 E.01119
G1 X107.638 Y124.218 E.01148
G1 X107.398 Y123.818 E.01391
G1 X107.177 Y123.235 E.01858
G1 X107.099 Y122.848 E.01177
G1 X107.072 Y122.436 E.01229
G1 X107.073 Y107.547 E.44348
G1 X107.11 Y107.085 E.01379
G1 X107.21 Y106.663 E.01294
G1 X107.432 Y106.14 E.01693
G1 X107.735 Y105.666 E.01674
G1 X107.924 Y105.459 E.00835
G1 X108.202 Y105.713 F24000
G1 F4800
G1 X108.263 Y105.646 E.0027
G1 X108.522 Y105.431 E.01001
G1 X108.817 Y105.253 E.01027
G1 X109.294 Y105.064 E.0153
G1 X109.704 Y104.975 E.01247
G1 X110.071 Y104.949 E.01098
G1 X124.909 Y104.949 E.44196
G1 X125.332 Y104.981 E.01263
G1 X125.729 Y105.073 E.01214
G1 X126.192 Y105.272 E.015
G1 X126.611 Y105.542 E.01484
G1 X126.866 Y105.775 E.01031
G1 X127.07 Y106.024 E.00957
G1 X127.231 Y106.285 E.00916
G1 X127.426 Y106.761 E.0153
G1 X127.527 Y107.223 E.0141
G1 X127.551 Y107.588 E.01088
G1 X127.55 Y122.426 E.44198
G1 X127.517 Y122.849 E.01264
G1 X127.427 Y123.229 E.01164
G1 X127.228 Y123.692 E.015
G1 X126.958 Y124.112 E.01488
G1 X126.745 Y124.347 E.00944
G1 X126.505 Y124.548 E.00931
G1 X126.144 Y124.765 E.01257
G1 X125.621 Y124.961 E.01662
G1 X125.29 Y125.027 E.01005
G1 X124.92 Y125.051 E.01106
G1 X110.067 Y125.05 E.44242
G1 X109.653 Y125.017 E.01237
G1 X109.272 Y124.927 E.01166
G1 X108.808 Y124.728 E.01503
G1 X108.388 Y124.458 E.01488
G1 X108.153 Y124.245 E.00944
G1 X107.952 Y124.005 E.00931
G1 X107.735 Y123.644 E.01257
G1 X107.539 Y123.121 E.01662
G1 X107.473 Y122.79 E.01005
G1 X107.449 Y122.42 E.01106
G1 X107.45 Y107.567 E.44242
G1 X107.483 Y107.153 E.01237
G1 X107.573 Y106.772 E.01166
G1 X107.772 Y106.308 E.01503
G1 X108.042 Y105.889 E.01484
G1 X108.176 Y105.742 E.00593
G1 X108.473 Y105.997 F24000
G1 F4800
G1 X108.539 Y105.919 E.00304
G1 X108.87 Y105.666 E.01243
G1 X109.202 Y105.496 E.0111
G1 X109.572 Y105.383 E.01152
G1 X110.038 Y105.326 E.01398
G1 X124.958 Y105.326 E.44442
G1 X125.426 Y105.388 E.01407
G1 X125.859 Y105.535 E.01362
G1 X126.359 Y105.84 E.01745
G1 X126.653 Y106.12 E.01209
G1 X126.884 Y106.454 E.01208
G1 X127.039 Y106.793 E.01112
G1 X127.134 Y107.157 E.0112
G1 X127.174 Y107.536 E.01134
G1 X127.174 Y122.458 E.44448
G1 X127.112 Y122.926 E.01407
G1 X126.965 Y123.36 E.01362
G1 X126.66 Y123.859 E.01745
G1 X126.38 Y124.153 E.01209
G1 X126.046 Y124.384 E.01208
G1 X125.707 Y124.539 E.01112
G1 X125.343 Y124.634 E.0112
G1 X124.964 Y124.674 E.01134
G1 X110.042 Y124.674 E.44448
G1 X109.574 Y124.612 E.01407
G1 X109.141 Y124.465 E.01362
G1 X108.641 Y124.16 E.01745
G1 X108.347 Y123.88 E.01209
G1 X108.116 Y123.546 E.01208
G1 X107.961 Y123.207 E.01112
G1 X107.866 Y122.843 E.0112
G1 X107.826 Y122.464 E.01134
G1 X107.837 Y107.402 E.44864
G1 X107.91 Y106.983 E.01266
G1 X108.034 Y106.642 E.01083
G1 X108.285 Y106.216 E.01472
G1 X108.447 Y106.027 E.00742
G1 X108.728 Y106.265 F24000
G1 F4800
G1 X108.765 Y106.221 E.00171
G1 X109.042 Y106.002 E.01052
G1 X109.312 Y105.856 E.00914
G1 X109.612 Y105.758 E.0094
G1 X110.031 Y105.703 E.01259
G1 X124.966 Y105.703 E.44485
G1 X125.308 Y105.746 E.01028
G1 X125.659 Y105.854 E.01092
G1 X126.099 Y106.113 E.01523
G1 X126.341 Y106.333 E.00973
G1 X126.541 Y106.61 E.01016
G1 X126.674 Y106.887 E.00917
G1 X126.759 Y107.191 E.0094
G1 X126.797 Y107.53 E.01015
G1 X126.797 Y122.466 E.44488
G1 X126.754 Y122.808 E.01028
G1 X126.646 Y123.159 E.01092
G1 X126.387 Y123.599 E.01523
G1 X126.167 Y123.841 E.00973
G1 X125.89 Y124.041 E.01016
G1 X125.613 Y124.174 E.00917
G1 X125.309 Y124.259 E.0094
G1 X124.97 Y124.297 E.01015
G1 X110.034 Y124.297 E.44488
G1 X109.692 Y124.254 E.01028
G1 X109.341 Y124.146 E.01092
G1 X108.901 Y123.887 E.01523
G1 X108.659 Y123.667 E.00973
G1 X108.459 Y123.39 E.01016
G1 X108.326 Y123.113 E.00917
G1 X108.241 Y122.809 E.0094
G1 X108.203 Y122.47 E.01015
G1 X108.208 Y107.469 E.44682
G1 X108.265 Y107.108 E.0109
G1 X108.353 Y106.842 E.00833
G1 X108.614 Y106.399 E.01533
G1 X108.702 Y106.295 E.00405
G1 X108.981 Y106.544 F24000
G1 F4800
G1 X109.052 Y106.466 E.00314
G1 X109.274 Y106.299 E.00829
G1 X109.49 Y106.189 E.00721
G1 X109.729 Y106.116 E.00746
G1 X110.024 Y106.08 E.00884
G1 X124.973 Y106.08 E.44528
G1 X125.265 Y106.121 E.00879
G1 X125.551 Y106.215 E.00897
G1 X125.907 Y106.437 E.0125
G1 X126.034 Y106.552 E.0051
G1 X126.201 Y106.774 E.00829
G1 X126.311 Y106.99 E.00721
G1 X126.384 Y107.229 E.00746
G1 X126.42 Y107.524 E.00884
G1 X126.42 Y122.473 E.44528
G1 X126.379 Y122.765 E.00879
G1 X126.285 Y123.051 E.00897
G1 X126.063 Y123.407 E.0125
G1 X125.948 Y123.534 E.0051
G1 X125.726 Y123.701 E.00829
G1 X125.51 Y123.811 E.00721
G1 X125.271 Y123.884 E.00746
G1 X124.976 Y123.92 E.00884
G1 X110.027 Y123.92 E.44528
G1 X109.735 Y123.879 E.00879
G1 X109.449 Y123.785 E.00897
G1 X109.093 Y123.563 E.0125
G1 X108.966 Y123.448 E.0051
G1 X108.799 Y123.226 E.00829
G1 X108.689 Y123.01 E.00721
G1 X108.616 Y122.771 E.00746
G1 X108.58 Y122.476 E.00884
G1 X108.58 Y107.527 E.44528
G1 X108.621 Y107.235 E.00879
G1 X108.715 Y106.949 E.00897
G1 X108.937 Y106.593 E.0125
G1 X108.955 Y106.574 E.00076
G1 X109.253 Y106.799 F24000
G1 F4800
G1 X109.327 Y106.723 E.00315
G1 X109.497 Y106.602 E.00621
G1 X109.657 Y106.527 E.00527
G1 X109.772 Y106.491 E.00359
G1 X110.017 Y106.457 E.00735
G1 X124.98 Y106.457 E.44571
G1 X125.215 Y106.494 E.00706
G1 X125.433 Y106.573 E.00692
G1 X125.701 Y106.753 E.00963
G1 X125.777 Y106.827 E.00315
G1 X125.898 Y106.997 E.00621
G1 X125.973 Y107.157 E.00527
G1 X126.009 Y107.272 E.00359
G1 X126.043 Y107.517 E.00735
G1 X126.043 Y122.48 E.44571
G1 X126.006 Y122.715 E.00706
G1 X125.927 Y122.933 E.00692
G1 X125.747 Y123.201 E.00963
G1 X125.673 Y123.277 E.00315
G1 X125.503 Y123.398 E.00621
G1 X125.343 Y123.473 E.00527
G1 X125.228 Y123.509 E.00359
G1 X124.983 Y123.543 E.00735
G1 X110.02 Y123.543 E.44571
G1 X109.785 Y123.506 E.00706
G1 X109.567 Y123.427 E.00692
G1 X109.299 Y123.247 E.00963
G1 X109.223 Y123.173 E.00315
G1 X109.102 Y123.003 E.00621
G1 X109.027 Y122.843 E.00527
G1 X108.991 Y122.728 E.00359
G1 X108.957 Y122.483 E.00735
G1 X108.957 Y107.52 E.44571
G1 X108.994 Y107.285 E.00706
G1 X109.073 Y107.067 E.00692
G1 X109.231 Y106.832 E.00843
G1 X109.532 Y107.056 F24000
G1 F4800
G1 X109.558 Y107.02 E.00133
G1 X109.65 Y106.947 E.00347
G1 X109.826 Y106.864 E.0058
G1 X110.009 Y106.834 E.00553
G1 X124.989 Y106.834 E.44621
G1 X125.15 Y106.865 E.00488
G1 X125.302 Y106.926 E.00489
G1 X125.48 Y107.058 E.00659
G1 X125.553 Y107.15 E.00347
G1 X125.636 Y107.326 E.0058
G1 X125.666 Y107.509 E.00553
G1 X125.666 Y122.489 E.44621
G1 X125.635 Y122.65 E.00488
G1 X125.574 Y122.802 E.00489
G1 X125.442 Y122.98 E.00659
G1 X125.35 Y123.053 E.00347
G1 X125.174 Y123.136 E.0058
G1 X124.991 Y123.166 E.00553
G1 X110.011 Y123.166 E.44621
G1 X109.85 Y123.135 E.00488
G1 X109.698 Y123.074 E.00489
G1 X109.52 Y122.942 E.00659
G1 X109.447 Y122.85 E.00347
G1 X109.364 Y122.674 E.0058
G1 X109.334 Y122.491 E.00553
G1 X109.334 Y107.511 E.44621
G1 X109.365 Y107.35 E.00488
G1 X109.426 Y107.198 E.00489
G1 X109.508 Y107.088 E.00407
G1 X109.782 Y107.324 F24000
G1 F4800
G1 X109.895 Y107.234 E.0043
G1 X110 Y107.211 E.00321
G1 X125 Y107.211 E.4468
G1 X125.176 Y107.282 E.00565
G1 X125.266 Y107.395 E.0043
G1 X125.289 Y107.5 E.00321
G1 X125.289 Y122.5 E.4468
G1 X125.218 Y122.676 E.00565
G1 X125.105 Y122.766 E.0043
G1 X125 Y122.789 E.00321
G1 X110 Y122.789 E.4468
G1 X109.824 Y122.718 E.00565
G1 X109.734 Y122.605 E.0043
G1 X109.711 Y122.5 E.00321
G1 X109.711 Y107.5 E.4468
G1 X109.767 Y107.361 E.00446
G1 E-.3 F2400
;WIPE_START
G1 F4800
G1 X109.895 Y107.234 E-.09008
G1 X110 Y107.211 E-.05382
