; HEADER_BLOCK_START
; generated by OrcaSlicer-WaveOverhangs 2.4.0-dev on 2026-05-28 at 13:55:14
; WAVE_OVERHANG_BUILD wave_overhangs_version=dev orca_base=2.4.0-dev
; WAVE_OVERHANG_CONFIG region=0 algo=andersons outer_perim=1 spacing=0.360 flow_mm3_per_mm=0.180 speed=2.0 travel=40.0 fan=100 floor_layers=2 min_angle=0.0 min_length=0.00 max_iterations=0 ring_overlap=0.15 pattern=zigzag spacing_mode=uniform seam_mode=alternating perimeter_overlap=0.20 minimum_wave_width=0.70 min_new_area=0.0100 corner_enable=0 corner_spacing=0.420 corner_taper=10.00 corner_angle=91 end_retract=0.00 nozzle_temp_override=0 min_wave_time=0.00 min_layer_time=0.00 wall_loops=3 top_shell_layers=2 bottom_shell_layers=4 infill_density=15 infill_pattern=rectilinear support_remainder=1 instead_of_bridges=1
; total layer number: 88
; filament_density: 1.24
; filament_diameter: 1.75
; max_z_height: 21.08
; filament: 1
; HEADER_BLOCK_END

; THUMBNAIL_BLOCK_START

;
; THUMBNAIL_BLOCK_END

; external perimeters extrusion width = 0.42mm
; perimeters extrusion width = 0.45mm
; infill extrusion width = 0.44mm
; solid infill extrusion width = 0.44mm
; top infill extrusion width = 0.38mm
; first layer extrusion width = 0.42mm

; EXECUTABLE_BLOCK_START
EXCLUDE_OBJECT_DEFINE NAME=FTS_Curved_Incline.stl_id_0_copy_0 CENTER=125,125 POLYGON=[[99.2947,104.647],[114.295,104.647],[150.705,119.647],[150.534,122.232],[150.111,124.783],[149.442,127.276],[148.532,129.687],[147.392,131.993],[146.034,134.173],[144.472,136.206],[142.72,138.073],[140.798,139.756],[138.723,141.24],[136.516,142.512],[134.199,143.559],[131.795,144.372],[129.327,144.945],[126.819,145.273],[124.295,145.353],[121.779,145.185],[119.297,144.772],[116.871,144.119],[114.525,143.233],[112.281,142.123],[110.161,140.801],[108.183,139.279],[106.368,137.574],[104.731,135.703],[103.288,133.684],[102.052,131.536],[101.035,129.282],[100.245,126.943],[99.6886,124.542],[99.3712,122.102],[99.2947,119.647],[99.2947,104.647]]
M73 P0 R33
M106 S0
M106 P2 S0
;TYPE:Custom
G9111 bedTemp=60 extruderTemp=220
M117
M106 P3 S255
G90
G21
M83 ; use relative distances for extrusion
; Filament gcode
M106 S0
M106 P2 S0
;LAYER_CHANGE
;Z:0.2
;HEIGHT:0.2
 ; PURGE LINE
M204 P500
SET_VELOCITY_LIMIT SQUARE_CORNER_VELOCITY=9
G1 Z0.50 F900 ; for object exclusion
G1 X89.365 Y255 F18000
G1 Z.25 F900
G1 E0.8 F2400
G1 E0.6
G1 F3000
G1 X158.835 Y255 E3.72454
G1 X158.835 Y255.45 E.0252
M73 P0 R32
G1 X89.365 Y255.45 E3.72454
G1 X89.365 Y255.02 E.02305
G1 Z0.5 F600

G1 E-.8 F2400
; AFTER_LAYER_CHANGE 0 @ 0.2mm
;_SET_FAN_SPEED_CHANGING_LAYER
SET_VELOCITY_LIMIT ACCEL=2000 ACCEL_TO_DECEL=1000
; printing object FTS_Curved_Incline.stl id:0 copy 0
EXCLUDE_OBJECT_START NAME=FTS_Curved_Incline.stl_id_0_copy_0
G1 X97.192 Y123.539 F24000
G1 Z.56
G1 Z.16
G1 E.8 F2400
;TYPE:Brim
;WIDTH:0.42
G1 F4800
G1 X96.571 Y123.141 E.02198
G1 X96.091 Y122.713 E.01916
G1 X95.679 Y122.218 E.01919
G1 X95.347 Y121.669 E.01911
G1 X95.027 Y120.844 E.02634
G1 X94.896 Y120.214 E.01917
G1 X94.858 Y119.641 E.01711
G1 X94.858 Y104.654 E.44641
G1 X94.907 Y104.005 E.0194
G1 X95.049 Y103.38 E.0191
G1 X95.403 Y102.545 E.027
G1 X95.801 Y101.924 E.02198
G1 X96.229 Y101.444 E.01916
G1 X96.725 Y101.032 E.01919
G1 X97.274 Y100.699 E.01913
G1 X98.046 Y100.395 E.02472
G1 X98.728 Y100.249 E.02079
G1 X99.301 Y100.211 E.01709
G1 X114.288 Y100.211 E.44641
G1 X114.937 Y100.259 E.0194
G1 X115.562 Y100.401 E.0191
G1 X116.397 Y100.755 E.027
G1 X117.018 Y101.154 E.02198
G1 X117.498 Y101.582 E.01916
G1 X117.91 Y102.077 E.01919
G1 X118.243 Y102.626 E.01913
G1 X118.547 Y103.398 E.02472
G1 X118.693 Y104.081 E.02079
G1 X118.731 Y104.654 E.01709
G1 X118.731 Y119.64 E.4464
G1 X118.683 Y120.29 E.0194
G1 X118.541 Y120.915 E.0191
G1 X118.187 Y121.75 E.027
G1 X117.788 Y122.371 E.02198
G1 X117.36 Y122.851 E.01916
G1 X116.865 Y123.263 E.01919
G1 X116.316 Y123.595 E.01911
G1 X115.492 Y123.915 E.02634
G1 X114.862 Y124.046 E.01917
G1 X114.288 Y124.084 E.01711
G1 X99.302 Y124.084 E.4464
G1 X98.652 Y124.035 E.0194
G1 X98.027 Y123.894 E.0191
G1 X97.229 Y123.555 E.02581
G1 X97.378 Y123.208 F24000
G1 F4800
G1 X96.793 Y122.834 E.02068
G1 X96.358 Y122.444 E.01742
G1 X95.993 Y122.004 E.01701
G1 X95.683 Y121.492 E.01783
G1 X95.388 Y120.728 E.02441
G1 X95.272 Y120.171 E.01694
G1 X95.236 Y119.632 E.01608
G1 X95.236 Y104.664 E.44585
G1 X95.282 Y104.053 E.01826
G1 X95.413 Y103.487 E.01731
G1 X95.734 Y102.731 E.02446
G1 X96.108 Y102.146 E.02068
G1 X96.498 Y101.711 E.01742
G1 X96.938 Y101.345 E.01701
G1 X97.433 Y101.043 E.0173
G1 X98.146 Y100.761 E.02284
G1 X98.789 Y100.623 E.01957
G1 X99.317 Y100.588 E.01577
G1 X114.278 Y100.588 E.44563
G1 X114.889 Y100.635 E.01826
G1 X115.455 Y100.765 E.01731
G1 X116.211 Y101.086 E.02446
G1 X116.796 Y101.461 E.02068
G1 X117.231 Y101.851 E.01742
G1 X117.597 Y102.29 E.01701
G1 X117.899 Y102.786 E.0173
G1 X118.181 Y103.499 E.02284
G1 X118.317 Y104.125 E.01908
G1 X118.354 Y104.67 E.01626
G1 X118.354 Y119.63 E.44563
G1 X118.307 Y120.242 E.01826
G1 X118.177 Y120.808 E.01731
G1 X117.856 Y121.564 E.02446
G1 X117.481 Y122.149 E.02068
G1 X117.091 Y122.584 E.01742
G1 X116.652 Y122.949 E.01701
G1 X116.14 Y123.259 E.01783
G1 X115.375 Y123.554 E.02441
G1 X114.818 Y123.67 E.01694
G1 X114.28 Y123.706 E.01608
G1 X99.312 Y123.706 E.44585
G1 X98.7 Y123.66 E.01826
G1 X98.134 Y123.529 E.01731
G1 X97.415 Y123.224 E.02327
G1 X97.563 Y122.878 F24000
G1 F4800
G1 X97.016 Y122.527 E.01938
G1 X96.636 Y122.187 E.01517
G1 X96.306 Y121.792 E.01534
G1 X96.019 Y121.316 E.01654
G1 X95.749 Y120.612 E.02247
G1 X95.646 Y120.112 E.01521
G1 X95.613 Y119.616 E.0148
G1 X95.613 Y104.674 E.44506
G1 X95.656 Y104.118 E.01661
G1 X95.777 Y103.594 E.01602
G1 X96.064 Y102.916 E.02194
G1 X96.415 Y102.368 E.01938
G1 X96.767 Y101.977 E.01566
G1 X97.164 Y101.649 E.01536
G1 X97.594 Y101.387 E.01498
G1 X98.248 Y101.126 E.02096
G1 X98.849 Y100.996 E.01833
G1 X99.333 Y100.965 E.01444
G1 X114.259 Y100.965 E.4446
G1 X114.824 Y101.008 E.01687
G1 X115.348 Y101.129 E.01602
G1 X116.026 Y101.417 E.02194
G1 X116.574 Y101.768 E.01938
G1 X116.965 Y102.12 E.01566
G1 X117.293 Y102.517 E.01536
G1 X117.555 Y102.947 E.01498
G1 X117.816 Y103.601 E.02097
G1 X117.943 Y104.186 E.01785
G1 X117.977 Y104.686 E.01492
G1 X117.976 Y119.62 E.44484
G1 X117.934 Y120.176 E.01661
G1 X117.813 Y120.7 E.01602
G1 X117.525 Y121.379 E.02194
G1 X117.174 Y121.926 E.01938
G1 X116.834 Y122.306 E.01517
G1 X116.439 Y122.636 E.01534
G1 X115.964 Y122.923 E.01654
G1 X115.259 Y123.193 E.02247
G1 X114.759 Y123.296 E.01521
G1 X114.263 Y123.329 E.0148
G1 X99.322 Y123.329 E.44506
G1 X98.766 Y123.286 E.01661
G1 X98.242 Y123.165 E.01602
G1 X97.6 Y122.893 E.02075
G1 X97.749 Y122.547 F24000
G1 F4800
G1 X97.238 Y122.219 E.01808
G1 X96.903 Y121.918 E.01342
G1 X96.62 Y121.579 E.01317
G1 X96.356 Y121.141 E.01523
G1 X96.111 Y120.497 E.02053
G1 X96.02 Y120.053 E.01349
G1 X95.99 Y119.599 E.01354
G1 X95.99 Y104.684 E.44427
G1 X96.029 Y104.184 E.01495
G1 X96.141 Y103.702 E.01473
G1 X96.395 Y103.102 E.01943
G1 X96.723 Y102.591 E.01807
G1 X97.035 Y102.245 E.01389
G1 X97.378 Y101.962 E.01323
G1 X97.755 Y101.73 E.01319
G1 X98.349 Y101.492 E.01907
G1 X98.91 Y101.37 E.01708
G1 X99.349 Y101.342 E.01311
G1 X114.241 Y101.342 E.44357
G1 X114.758 Y101.381 E.01546
G1 X115.24 Y101.493 E.01473
G1 X115.841 Y101.748 E.01943
G1 X116.351 Y102.075 E.01807
G1 X116.697 Y102.388 E.01389
G1 X116.98 Y102.73 E.01323
G1 X117.212 Y103.108 E.01319
G1 X117.451 Y103.703 E.0191
G1 X117.57 Y104.248 E.01661
G1 X117.6 Y104.703 E.01358
G1 X117.599 Y119.61 E.44405
G1 X117.561 Y120.111 E.01495
G1 X117.449 Y120.593 E.01473
G1 X117.194 Y121.193 E.01943
G1 X116.867 Y121.704 E.01808
G1 X116.565 Y122.039 E.01342
G1 X116.226 Y122.322 E.01317
G1 X115.788 Y122.586 E.01523
G1 X115.144 Y122.831 E.02053
G1 X114.7 Y122.922 E.01349
G1 X114.247 Y122.952 E.01354
G1 X99.332 Y122.952 E.44427
G1 X98.831 Y122.913 E.01495
G1 X98.349 Y122.802 E.01473
G1 X97.786 Y122.562 E.01824
G1 X97.934 Y122.216 F24000
G1 F4800
G1 X97.46 Y121.912 E.01676
G1 X97.181 Y121.661 E.01119
G1 X96.933 Y121.366 E.01148
G1 X96.692 Y120.966 E.01391
G1 X96.472 Y120.382 E.01858
G1 X96.394 Y119.995 E.01177
G1 X96.367 Y119.583 E.01229
G1 X96.368 Y104.694 E.44348
G1 X96.405 Y104.233 E.01379
G1 X96.504 Y103.81 E.01294
G1 X96.726 Y103.287 E.01693
G1 X97.029 Y102.814 E.01674
G1 X97.303 Y102.513 E.01211
G1 X97.604 Y102.265 E.01162
G1 X97.934 Y102.065 E.01149
G1 X98.469 Y101.851 E.01717
G1 X98.954 Y101.747 E.01476
G1 X99.357 Y101.719 E.01205
G1 X114.222 Y101.72 E.44277
G1 X114.693 Y101.755 E.01405
G1 X115.132 Y101.857 E.01344
G1 X115.655 Y102.079 E.01693
G1 X116.128 Y102.382 E.01674
G1 X116.429 Y102.656 E.01211
G1 X116.668 Y102.944 E.01114
G1 X116.869 Y103.27 E.0114
G1 X117.086 Y103.805 E.01721
G1 X117.196 Y104.309 E.01536
G1 X117.223 Y104.719 E.01224
G1 X117.222 Y119.592 E.44301
G1 X117.187 Y120.045 E.01354
G1 X117.085 Y120.485 E.01344
G1 X116.863 Y121.008 E.01693
G1 X116.56 Y121.482 E.01676
G1 X116.308 Y121.761 E.01119
G1 X116.013 Y122.009 E.01148
G1 X115.613 Y122.25 E.01391
G1 X115.03 Y122.47 E.01858
G1 X114.642 Y122.548 E.01177
G1 X114.23 Y122.575 E.01229
G1 X99.342 Y122.574 E.44348
G1 X98.88 Y122.538 E.01379
G1 X98.458 Y122.438 E.01294
G1 X97.971 Y122.231 E.01574
G1 X98.12 Y121.883 F24000
G1 F4800
G1 X98.103 Y121.876 E.00056
G1 X97.683 Y121.605 E.01488
G1 X97.448 Y121.392 E.00944
G1 X97.247 Y121.153 E.00931
G1 X97.03 Y120.791 E.01257
G1 X96.834 Y120.269 E.01662
G1 X96.768 Y119.938 E.01005
G1 X96.744 Y119.567 E.01106
G1 X96.745 Y104.714 E.44242
G1 X96.777 Y104.3 E.01237
G1 X96.868 Y103.919 E.01166
G1 X97.066 Y103.455 E.01503
G1 X97.336 Y103.037 E.01484
G1 X97.558 Y102.793 E.00982
G1 X97.817 Y102.579 E.01001
G1 X98.112 Y102.4 E.01027
G1 X98.589 Y102.211 E.0153
G1 X98.998 Y102.123 E.01247
G1 X99.366 Y102.097 E.01098
G1 X114.204 Y102.097 E.44196
G1 X114.627 Y102.128 E.01263
G1 X115.024 Y102.221 E.01214
G1 X115.487 Y102.419 E.015
G1 X115.905 Y102.689 E.01484
G1 X116.161 Y102.923 E.01031
G1 X116.365 Y103.171 E.00957
G1 X116.526 Y103.433 E.00916
G1 X116.72 Y103.908 E.0153
G1 X116.822 Y104.37 E.0141
G1 X116.846 Y104.735 E.01088
G1 X116.845 Y119.573 E.44198
G1 X116.812 Y119.996 E.01264
G1 X116.721 Y120.376 E.01164
G1 X116.523 Y120.839 E.015
G1 X116.253 Y121.259 E.01488
G1 X116.04 Y121.494 E.00944
G1 X115.8 Y121.695 E.00931
G1 X115.438 Y121.912 E.01257
G1 X114.916 Y122.108 E.01662
G1 X114.585 Y122.174 E.01005
G1 X114.214 Y122.198 E.01106
G1 X99.361 Y122.197 E.44242
G1 X98.947 Y122.165 E.01237
G1 X98.566 Y122.074 E.01166
G1 X98.157 Y121.899 E.01327
G1 X98.36 Y121.567 F24000
G1 F4800
G1 X97.936 Y121.307 E.01483
G1 X97.642 Y121.027 E.01209
G1 X97.411 Y120.694 E.01208
G1 X97.256 Y120.354 E.01112
G1 X97.16 Y119.99 E.0112
G1 X97.121 Y119.611 E.01134
G1 X97.131 Y104.549 E.44864
G1 X97.204 Y104.131 E.01266
G1 X97.328 Y103.789 E.01083
G1 X97.579 Y103.363 E.01472
G1 X97.834 Y103.066 E.01165
G1 X98.165 Y102.813 E.01243
G1 X98.497 Y102.643 E.0111
G1 X98.867 Y102.53 E.01152
G1 X99.333 Y102.473 E.01398
G1 X114.253 Y102.473 E.44442
G1 X114.721 Y102.535 E.01407
G1 X115.154 Y102.682 E.01362
G1 X115.654 Y102.988 E.01745
G1 X115.948 Y103.268 E.01209
G1 X116.179 Y103.601 E.01208
G1 X116.334 Y103.941 E.01112
G1 X116.429 Y104.304 E.0112
G1 X116.469 Y104.683 E.01134
G1 X116.469 Y119.605 E.44448
G1 X116.407 Y120.074 E.01407
G1 X116.26 Y120.507 E.01362
G1 X115.954 Y121.006 E.01745
G1 X115.674 Y121.3 E.01209
G1 X115.341 Y121.531 E.01208
G1 X115.001 Y121.686 E.01112
G1 X114.638 Y121.782 E.0112
G1 X114.259 Y121.821 E.01134
G1 X99.337 Y121.821 E.44448
G1 X98.868 Y121.759 E.01407
G1 X98.435 Y121.613 E.01362
G1 X98.394 Y121.588 E.00143
G1 X98.585 Y121.264 F24000
G1 F4800
G1 X98.195 Y121.034 E.01348
G1 X97.953 Y120.814 E.00973
G1 X97.754 Y120.538 E.01016
G1 X97.621 Y120.26 E.00917
G1 X97.536 Y119.956 E.0094
G1 X97.498 Y119.617 E.01015
G1 X97.502 Y104.617 E.44682
G1 X97.56 Y104.255 E.0109
G1 X97.648 Y103.99 E.00833
G1 X97.909 Y103.546 E.01533
G1 X98.06 Y103.368 E.00695
G1 X98.337 Y103.149 E.01052
G1 X98.607 Y103.004 E.00914
G1 X98.907 Y102.905 E.0094
G1 X99.326 Y102.85 E.01259
G1 X114.26 Y102.85 E.44485
G1 X114.603 Y102.893 E.01028
G1 X114.953 Y103.001 E.01092
G1 X115.394 Y103.261 E.01523
G1 X115.636 Y103.48 E.00973
G1 X115.835 Y103.757 E.01016
G1 X115.969 Y104.035 E.00917
G1 X116.054 Y104.339 E.0094
G1 X116.092 Y104.677 E.01015
G1 X116.092 Y119.613 E.44488
G1 X116.049 Y119.956 E.01028
G1 X115.941 Y120.306 E.01092
G1 X115.681 Y120.747 E.01523
G1 X115.462 Y120.989 E.00973
G1 X115.185 Y121.188 E.01016
G1 X114.907 Y121.321 E.00917
G1 X114.603 Y121.406 E.0094
G1 X114.265 Y121.444 E.01015
G1 X99.329 Y121.444 E.44488
G1 X98.987 Y121.401 E.01028
G1 X98.636 Y121.294 E.01092
G1 X98.62 Y121.284 E.00056
G1 X98.744 Y120.932 F24000
G1 F4800
G1 X98.388 Y120.71 E.0125
G1 X98.26 Y120.596 E.0051
G1 X98.093 Y120.373 E.00829
G1 X97.984 Y120.158 E.00721
G1 X97.911 Y119.918 E.00746
G1 X97.875 Y119.624 E.00884
G1 X97.875 Y104.675 E.44528
G1 X97.915 Y104.382 E.00879
G1 X98.01 Y104.096 E.00897
G1 X98.232 Y103.741 E.0125
G1 X98.346 Y103.613 E.0051
G1 X98.569 Y103.446 E.00829
G1 X98.784 Y103.336 E.00721
G1 X99.024 Y103.264 E.00746
G1 X99.318 Y103.228 E.00884
G1 X114.267 Y103.228 E.44528
G1 X114.56 Y103.268 E.00879
G1 X114.846 Y103.362 E.00897
G1 X115.201 Y103.585 E.0125
G1 X115.329 Y103.699 E.0051
G1 X115.496 Y103.921 E.00829
G1 X115.606 Y104.137 E.00721
G1 X115.678 Y104.376 E.00746
G1 X115.714 Y104.671 E.00884
G1 X115.714 Y119.62 E.44528
G1 X115.674 Y119.912 E.00879
G1 X115.58 Y120.198 E.00897
G1 X115.357 Y120.554 E.0125
G1 X115.243 Y120.682 E.0051
G1 X115.021 Y120.849 E.00829
G1 X114.805 Y120.958 E.00721
G1 X114.566 Y121.031 E.00746
G1 X114.271 Y121.067 E.00884
G1 X99.322 Y121.067 E.44528
G1 X99.03 Y121.027 E.00879
G1 X98.782 Y120.945 E.00778
G1 X98.909 Y120.592 F24000
G1 F4800
G1 X98.862 Y120.574 E.00151
G1 X98.594 Y120.394 E.00963
G1 X98.517 Y120.32 E.00315
G1 X98.397 Y120.15 E.00621
G1 X98.321 Y119.99 E.00527
G1 X98.285 Y119.875 E.00359
G1 X98.252 Y119.631 E.00735
G1 X98.252 Y104.667 E.44571
G1 X98.289 Y104.433 E.00706
G1 X98.368 Y104.214 E.00692
G1 X98.548 Y103.946 E.00963
G1 X98.622 Y103.87 E.00315
G1 X98.792 Y103.75 E.00621
G1 X98.952 Y103.674 E.00527
G1 X99.067 Y103.638 E.00359
G1 X99.311 Y103.605 E.00735
G1 X114.275 Y103.605 E.44571
G1 X114.509 Y103.641 E.00706
G1 X114.728 Y103.72 E.00692
G1 X114.996 Y103.901 E.00963
G1 X115.072 Y103.974 E.00315
G1 X115.192 Y104.144 E.00621
G1 X115.268 Y104.304 E.00527
G1 X115.304 Y104.42 E.00359
G1 X115.337 Y104.664 E.00735
G1 X115.337 Y119.628 E.44571
G1 X115.301 Y119.862 E.00706
G1 X115.222 Y120.08 E.00692
G1 X115.041 Y120.348 E.00963
G1 X114.968 Y120.425 E.00315
G1 X114.798 Y120.545 E.00621
G1 X114.638 Y120.621 E.00527
G1 X114.522 Y120.657 E.00359
G1 X114.278 Y120.69 E.00735
G1 X99.314 Y120.69 E.44571
G1 X99.08 Y120.653 E.00706
G1 X98.947 Y120.605 E.00422
G1 X99.086 Y120.258 F24000
G1 F4800
G1 X98.992 Y120.221 E.003
G1 X98.815 Y120.089 E.00659
G1 X98.742 Y119.998 E.00347
G1 X98.659 Y119.822 E.0058
G1 X98.629 Y119.638 E.00553
G1 X98.629 Y104.658 E.44621
G1 X98.66 Y104.497 E.00488
G1 X98.721 Y104.345 E.00489
G1 X98.853 Y104.167 E.00659
G1 X98.944 Y104.095 E.00347
G1 X99.12 Y104.011 E.0058
G1 X99.304 Y103.982 E.00553
G1 X114.284 Y103.982 E.44621
G1 X114.445 Y104.013 E.00488
G1 X114.597 Y104.074 E.00489
G1 X114.775 Y104.206 E.00659
G1 X114.847 Y104.297 E.00347
G1 X114.931 Y104.473 E.0058
G1 X114.96 Y104.656 E.00553
G1 X114.96 Y119.637 E.44621
G1 X114.929 Y119.797 E.00488
G1 X114.868 Y119.95 E.00489
G1 X114.736 Y120.127 E.00659
G1 X114.645 Y120.2 E.00347
G1 X114.469 Y120.283 E.0058
G1 X114.286 Y120.313 E.00553
G1 X99.305 Y120.313 E.44621
G1 X99.145 Y120.282 E.00488
G1 X99.123 Y120.273 E.0007
G1 X99.263 Y119.923 F24000
G1 F4800
G1 X99.119 Y119.865 E.00463
G1 X99.029 Y119.753 E.0043
G1 X99.006 Y119.647 E.00321
G1 X99.006 Y104.647 E.4468
G1 X99.077 Y104.471 E.00565
G1 X99.189 Y104.381 E.0043
G1 X99.295 Y104.359 E.00321
G1 X114.295 Y104.359 E.4468
G1 X114.471 Y104.429 E.00565
G1 X114.561 Y104.542 E.0043
G1 X114.583 Y104.647 E.00321
G1 X114.583 Y119.647 E.4468
G1 X114.513 Y119.823 E.00565
