; HEADER_BLOCK_START
; generated by OrcaSlicer-WaveOverhangs 2.4.0-dev on 2026-05-28 at 14:54:28
; WAVE_OVERHANG_BUILD wave_overhangs_version=dev orca_base=2.4.0-dev
; WAVE_OVERHANG_CONFIG region=0 algo=andersons outer_perim=1 spacing=0.360 flow_mm3_per_mm=0.180 speed=2.0 travel=40.0 fan=100 floor_layers=2 min_angle=0.0 min_length=0.00 max_iterations=0 ring_overlap=0.15 pattern=zigzag spacing_mode=uniform seam_mode=alternating perimeter_overlap=0.20 minimum_wave_width=0.70 min_new_area=0.0100 corner_enable=0 corner_spacing=0.420 corner_taper=10.00 corner_angle=91 end_retract=0.00 nozzle_temp_override=0 min_wave_time=4.00 min_layer_time=0.00 wall_loops=3 top_shell_layers=2 bottom_shell_layers=4 infill_density=15 infill_pattern=rectilinear support_remainder=1 instead_of_bridges=1
; total layer number: 54
; filament_density: 1.24
; filament_diameter: 1.75
; max_z_height: 12.92
; filament: 1
; HEADER_BLOCK_END

; THUMBNAIL_BLOCK_START

;
; THUMBNAIL_BLOCK_END

; external perimeters extrusion width = 0.42mm
; perimeters extrusion width = 0.45mm
; infill extrusion width = 0.44mm
; solid infill extrusion width = 0.44mm
; top infill extrusion width = 0.38mm
; first layer extrusion width = 0.42mm

; EXECUTABLE_BLOCK_START
EXCLUDE_OBJECT_DEFINE NAME=FTS_Loop_Narrow.STL_id_0_copy_0 CENTER=125,125 POLYGON=[[97.587,122.5],[118.072,113],[131.928,113],[152.413,122.5],[152.413,127.5],[131.928,137],[118.072,137],[97.587,127.5],[97.587,122.5]]
M73 P0 R12
M106 S0
M106 P2 S0
;TYPE:Custom
G9111 bedTemp=60 extruderTemp=220
M117
M106 P3 S255
G90
G21
M83 ; use relative distances for extrusion
; Filament gcode
M106 S0
M106 P2 S0
;LAYER_CHANGE
;Z:0.2
;HEIGHT:0.2
 ; PURGE LINE
M204 P500
SET_VELOCITY_LIMIT SQUARE_CORNER_VELOCITY=9
G1 Z0.50 F900 ; for object exclusion
G1 X89.365 Y255 F18000
G1 Z.25 F900
G1 E0.8 F2400
G1 E0.6
G1 F3000
G1 X158.835 Y255 E3.72454
G1 X158.835 Y255.45 E.0252
G1 X89.365 Y255.45 E3.72454
G1 X89.365 Y255.02 E.02305
G1 Z0.5 F600

G1 E-.8 F2400
; AFTER_LAYER_CHANGE 0 @ 0.2mm
;_SET_FAN_SPEED_CHANGING_LAYER
SET_VELOCITY_LIMIT ACCEL=2000 ACCEL_TO_DECEL=1000
; printing object FTS_Loop_Narrow.STL id:0 copy 0
EXCLUDE_OBJECT_START NAME=FTS_Loop_Narrow.STL_id_0_copy_0
G1 X109.332 Y126.638 F24000
G1 Z.56
G1 Z.16
G1 E.8 F2400
;TYPE:Brim
;WIDTH:0.42
G1 F4800
G1 X109.141 Y126.022 E.01919
G1 X109.043 Y125.382 E.01929
G1 X109.03 Y125.052 E.00984
G1 X109.079 Y124.307 E.02226
G1 X109.221 Y123.679 E.01916
G1 X109.456 Y123.076 E.01929
G1 X109.613 Y122.779 E.01002
G1 X115.381 Y112.788 E.34363
G1 X115.748 Y112.25 E.0194
G1 X116.185 Y111.777 E.01919
G1 X116.69 Y111.373 E.01926
G1 X117.055 Y111.147 E.01279
G1 X117.639 Y110.865 E.01931
G1 X118.254 Y110.675 E.01919
G1 X118.894 Y110.577 E.01929
G1 X119.23 Y110.564 E.01002
G1 X130.766 Y110.564 E.34363
G1 X131.416 Y110.612 E.0194
G1 X132.044 Y110.754 E.01919
G1 X132.647 Y110.989 E.01926
G1 X133.025 Y111.193 E.01279
G1 X133.56 Y111.558 E.01931
G1 X134.033 Y111.995 E.01919
G1 X134.438 Y112.5 E.01929
G1 X134.617 Y112.785 E.01002
G1 X140.386 Y122.776 E.34363
G1 X140.668 Y123.362 E.0194
G1 X140.859 Y123.978 E.01919
G1 X140.957 Y124.618 E.01929
G1 X140.97 Y124.948 E.00984
G1 X140.921 Y125.693 E.02226
G1 X140.779 Y126.321 E.01916
G1 X140.544 Y126.924 E.01929
G1 X140.387 Y127.221 E.01002
G1 X134.619 Y137.212 E.34363
G1 X134.252 Y137.75 E.0194
G1 X133.815 Y138.223 E.01919
G1 X133.31 Y138.627 E.01926
G1 X132.945 Y138.853 E.01279
G1 X132.361 Y139.135 E.01931
G1 X131.746 Y139.325 E.01919
G1 X131.106 Y139.423 E.01929
G1 X130.77 Y139.436 E.01002
G1 X119.234 Y139.436 E.34363
G1 X118.584 Y139.388 E.0194
G1 X117.956 Y139.246 E.01919
G1 X117.353 Y139.011 E.01926
G1 X116.975 Y138.807 E.01279
G1 X116.44 Y138.442 E.01931
G1 X115.967 Y138.005 E.01919
G1 X115.562 Y137.5 E.01929
G1 X115.383 Y137.215 E.01002
G1 X109.614 Y127.224 E.34363
G1 X109.349 Y126.674 E.0182
G1 X109.689 Y126.51 F24000
G1 F4800
G1 X109.687 Y126.507 E.0001
G1 X109.512 Y125.946 E.01751
G1 X109.419 Y125.34 E.01825
G1 X109.408 Y125.052 E.0086
G1 X109.455 Y124.352 E.02087
G1 X109.585 Y123.782 E.01741
G1 X109.797 Y123.239 E.01737
G1 X115.703 Y112.985 E.35246
G1 X116.039 Y112.492 E.01777
G1 X116.437 Y112.06 E.01751
G1 X116.902 Y111.686 E.01778
G1 X117.231 Y111.481 E.01154
G1 X117.785 Y111.215 E.01831
G1 X118.347 Y111.042 E.01751
G1 X118.936 Y110.952 E.01775
G1 X130.757 Y110.941 E.35209
G1 X131.351 Y110.985 E.01777
G1 X131.925 Y111.114 E.01751
G1 X132.494 Y111.336 E.01819
G1 X132.833 Y111.519 E.01148
G1 X133.331 Y111.859 E.01796
G1 X133.762 Y112.259 E.01751
G1 X134.136 Y112.729 E.01788
G1 X140.05 Y122.948 E.3517
G1 X140.313 Y123.493 E.01802
G1 X140.492 Y124.071 E.01801
G1 X140.58 Y124.647 E.01737
G1 X140.592 Y124.948 E.00898
G1 X140.545 Y125.648 E.02087
G1 X140.415 Y126.218 E.01741
G1 X140.203 Y126.761 E.01737
G1 X134.297 Y137.015 E.35246
G1 X133.961 Y137.508 E.01777
G1 X133.563 Y137.94 E.01751
G1 X133.098 Y138.314 E.01778
G1 X132.758 Y138.525 E.01189
G1 X132.23 Y138.779 E.01746
G1 X131.669 Y138.954 E.01751
G1 X131.076 Y139.046 E.01787
G1 X130.76 Y139.059 E.00942
G1 X119.252 Y139.059 E.3428
G1 X118.632 Y139.012 E.01852
G1 X118.059 Y138.881 E.01751
G1 X117.506 Y138.664 E.01769
G1 X117.167 Y138.481 E.01148
G1 X116.669 Y138.141 E.01796
G1 X116.238 Y137.741 E.01751
G1 X115.864 Y137.271 E.01788
G1 X109.946 Y127.044 E.35196
G1 X109.706 Y126.546 E.01647
G1 X110.046 Y126.382 F24000
G1 F4800
G1 X110.042 Y126.376 E.00022
G1 X109.883 Y125.868 E.01583
G1 X109.795 Y125.298 E.0172
G1 X109.786 Y125.051 E.00735
G1 X109.831 Y124.399 E.01949
G1 X109.95 Y123.886 E.01567
G1 X110.143 Y123.395 E.0157
G1 X116.025 Y113.182 E.35106
G1 X116.33 Y112.734 E.01614
G1 X116.69 Y112.342 E.01584
G1 X117.115 Y111.998 E.01631
G1 X117.408 Y111.815 E.01028
G1 X117.931 Y111.564 E.01729
G1 X118.44 Y111.409 E.01583
G1 X118.974 Y111.329 E.01608
G1 X130.747 Y111.318 E.35069
G1 X131.288 Y111.359 E.01614
M73 P1 R12
G1 X131.806 Y111.474 E.01583
G1 X132.342 Y111.682 E.01711
G1 X132.642 Y111.844 E.01016
G1 X133.101 Y112.16 E.0166
G1 X133.49 Y112.523 E.01583
G1 X133.828 Y112.949 E.0162
G1 X139.714 Y123.121 E.35007
G1 X139.957 Y123.624 E.01663
G1 X140.125 Y124.164 E.01683
G1 X140.203 Y124.677 E.01546
G1 X140.214 Y124.949 E.00812
G1 X140.169 Y125.601 E.01947
G1 X140.05 Y126.114 E.01567
G1 X139.857 Y126.605 E.0157
G1 X133.975 Y136.818 E.35106
G1 X133.67 Y137.266 E.01614
G1 X133.31 Y137.658 E.01584
G1 X132.885 Y138.002 E.0163
G1 X132.571 Y138.196 E.01099
G1 X132.099 Y138.424 E.01562
G1 X131.592 Y138.584 E.01584
G1 X131.046 Y138.67 E.01646
G1 X130.75 Y138.682 E.00881
G1 X119.27 Y138.682 E.34195
G1 X118.68 Y138.636 E.01763
G1 X118.163 Y138.517 E.01583
G1 X117.659 Y138.318 E.01613
G1 X117.358 Y138.156 E.01018
G1 X116.899 Y137.84 E.0166
G1 X116.51 Y137.477 E.01583
G1 X116.172 Y137.051 E.0162
G1 X110.278 Y126.864 E.35057
G1 X110.063 Y126.418 E.01473
G1 X110.403 Y126.255 F24000
G1 F4800
G1 X110.398 Y126.244 E.00036
G1 X110.254 Y125.791 E.01416
G1 X110.17 Y125.256 E.01613
G1 X110.164 Y125.052 E.00607
G1 X110.207 Y124.446 E.01811
G1 X110.314 Y123.99 E.01393
G1 X110.487 Y123.552 E.01404
G1 X116.342 Y113.386 E.34943
G1 X116.622 Y112.976 E.01479
G1 X116.943 Y112.624 E.01418
G1 X117.329 Y112.31 E.01483
G1 X117.584 Y112.15 E.00898
G1 X118.077 Y111.914 E.01626
G1 X118.531 Y111.777 E.01414
G1 X119.01 Y111.706 E.01442
G1 X130.737 Y111.696 E.34932
G1 X131.224 Y111.732 E.01454
G1 X131.688 Y111.834 E.01415
G1 X132.189 Y112.028 E.01601
G1 X132.45 Y112.17 E.00882
G1 X132.871 Y112.461 E.01524
G1 X133.217 Y112.786 E.01416
G1 X133.52 Y113.169 E.01454
G1 X139.379 Y123.294 E.34846
G1 X139.602 Y123.755 E.01524
G1 X139.757 Y124.257 E.01565
G1 X139.826 Y124.707 E.01355
G1 X139.836 Y124.95 E.00725
G1 X139.793 Y125.554 E.01805
G1 X139.686 Y126.01 E.01393
G1 X139.513 Y126.448 E.01404
G1 X133.658 Y136.614 E.34943
G1 X133.378 Y137.024 E.01479
G1 X133.057 Y137.376 E.01418
G1 X132.672 Y137.689 E.01479
G1 X132.384 Y137.868 E.01008
G1 X131.967 Y138.069 E.01379
G1 X131.513 Y138.213 E.01418
G1 X131.015 Y138.293 E.01504
G1 X130.74 Y138.305 E.0082
G1 X119.289 Y138.305 E.34107
G1 X118.73 Y138.261 E.01673
G1 X118.267 Y138.152 E.01415
G1 X117.812 Y137.973 E.01457
G1 X117.55 Y137.83 E.00887
G1 X117.129 Y137.539 E.01524
G1 X116.783 Y137.214 E.01416
G1 X116.48 Y136.831 E.01454
G1 X110.609 Y126.683 E.34921
G1 X110.42 Y126.291 E.01299
G1 X110.76 Y126.127 F24000
G1 F4800
G1 X110.752 Y126.111 E.00051
G1 X110.624 Y125.712 E.01248
G1 X110.546 Y125.205 E.01531
G1 X110.583 Y124.494 E.0212
G1 X110.678 Y124.095 E.01219
G1 X110.832 Y123.709 E.01239
G1 X116.66 Y113.59 E.34782
G1 X116.914 Y113.217 E.01345
G1 X117.197 Y112.905 E.01253
G1 X117.544 Y112.621 E.01336
G1 X117.761 Y112.484 E.00766
G1 X118.222 Y112.264 E.0152
G1 X118.622 Y112.145 E.01244
G1 X119.046 Y112.083 E.01276
G1 X130.728 Y112.073 E.34796
G1 X131.161 Y112.106 E.01295
G1 X131.571 Y112.194 E.01247
G1 X132.037 Y112.374 E.01489
G1 X132.256 Y112.495 E.00746
G1 X132.639 Y112.761 E.01388
G1 X132.944 Y113.048 E.01248
G1 X133.211 Y113.389 E.01288
G1 X139.043 Y123.468 E.34687
G1 X139.246 Y123.886 E.01386
G1 X139.39 Y124.35 E.01447
G1 X139.449 Y124.737 E.01164
G1 X139.458 Y124.95 E.00637
G1 X139.417 Y125.506 E.01661
G1 X139.322 Y125.905 E.01219
G1 X139.168 Y126.291 E.01239
G1 X133.34 Y136.41 E.34782
G1 X133.086 Y136.783 E.01345
G1 X132.803 Y137.095 E.01253
G1 X132.458 Y137.377 E.01328
G1 X132.197 Y137.539 E.00916
G1 X131.82 Y137.72 E.01245
G1 X131.434 Y137.843 E.01206
G1 X130.983 Y137.916 E.01362
G1 X130.729 Y137.928 E.00757
G1 X119.309 Y137.928 E.34016
G1 X118.779 Y137.885 E.01582
G1 X118.372 Y137.789 E.01247
G1 X117.966 Y137.627 E.01302
G1 X117.744 Y137.505 E.00756
G1 X117.361 Y137.239 E.01388
G1 X117.056 Y136.952 E.01248
G1 X116.789 Y136.612 E.01288
G1 X110.941 Y126.503 E.34786
G1 X110.777 Y126.163 E.01125
G1 X111.117 Y125.999 F24000
G1 F4800
G1 X111.107 Y125.978 E.00069
G1 X110.995 Y125.634 E.01077
G1 X110.926 Y125.174 E.01387
G1 X110.96 Y124.537 E.01899
G1 X111.041 Y124.202 E.01028
G1 X111.176 Y123.867 E.01076
G1 X116.978 Y113.794 E.34623
G1 X117.206 Y113.457 E.01214
G1 X117.451 Y113.186 E.01089
G1 X117.759 Y112.932 E.01188
G1 X117.938 Y112.818 E.00631
G1 X118.366 Y112.615 E.01412
G1 X118.712 Y112.513 E.01073
G1 X119.081 Y112.461 E.01112
G1 X130.718 Y112.451 E.34663
G1 X131.099 Y112.479 E.01139
G1 X131.453 Y112.555 E.01078
G1 X131.884 Y112.721 E.01375
G1 X132.063 Y112.819 E.00607
G1 X132.407 Y113.06 E.01252
G1 X132.67 Y113.31 E.0108
G1 X132.902 Y113.607 E.01124
G1 X138.708 Y123.641 E.3453
G1 X138.891 Y124.017 E.01246
G1 X139.023 Y124.443 E.01328
G1 X139.072 Y124.766 E.00974
G1 X139.08 Y124.95 E.00548
G1 X139.041 Y125.457 E.01515
G1 X138.959 Y125.798 E.01045
G1 X138.824 Y126.133 E.01076
G1 X133.022 Y136.206 E.34623
G1 X132.794 Y136.543 E.01214
G1 X132.549 Y136.814 E.01089
G1 X132.244 Y137.065 E.01175
G1 X132.01 Y137.211 E.00822
G1 X131.688 Y137.365 E.01063
G1 X131.354 Y137.472 E.01044
G1 X130.95 Y137.539 E.01221
G1 X130.717 Y137.551 E.00693
G1 X119.329 Y137.551 E.33923
G1 X118.83 Y137.51 E.0149
G1 X118.478 Y137.425 E.01078
G1 X118.121 Y137.282 E.01147
G1 X117.937 Y137.181 E.00624
G1 X117.593 Y136.94 E.01252
G1 X117.33 Y136.69 E.0108
G1 X117.098 Y136.393 E.01124
G1 X111.273 Y126.323 E.34653
G1 X111.134 Y126.035 E.0095
G1 X111.499 Y125.89 F24000
G1 F4800
G1 X111.395 Y125.629 E.00837
G1 X111.308 Y125.057 E.01723
G1 X111.368 Y124.474 E.01745
G1 X111.592 Y123.876 E.01903
G1 X117.365 Y113.889 E.34361
G1 X117.733 Y113.454 E.01698
G1 X118.203 Y113.113 E.01729
G1 X118.742 Y112.903 E.01723
G1 X119.271 Y112.826 E.01592
G1 X130.729 Y112.826 E.34129
G1 X131.258 Y112.903 E.01592
G1 X131.797 Y113.113 E.01723
G1 X132.271 Y113.458 E.01745
G1 X132.678 Y113.95 E.01903
G1 X138.407 Y123.874 E.34134
G1 X138.632 Y124.475 E.0191
G1 X138.693 Y125.056 E.01741
G1 X138.61 Y125.609 E.01664
G1 X138.406 Y126.128 E.01661
G1 X132.68 Y136.046 E.34114
G1 X132.249 Y136.563 E.02006
G1 X131.775 Y136.898 E.01727
G1 X131.238 Y137.103 E.01713
G1 X130.733 Y137.174 E.01518
G1 X119.267 Y137.174 E.34155
G1 X118.762 Y137.103 E.01518
G1 X118.225 Y136.898 E.01713
G1 X117.751 Y136.563 E.01727
G1 X117.32 Y136.046 E.02006
G1 X111.593 Y126.126 E.34121
G1 X111.514 Y125.927 E.00636
G1 X111.862 Y125.793 F24000
G1 F4800
G1 X111.742 Y125.482 E.00991
G1 X111.681 Y125.003 E.01438
G1 X111.743 Y124.516 E.01464
G1 X111.914 Y124.072 E.01418
G1 X117.653 Y114.132 E.34188
G1 X117.952 Y113.761 E.01418
G1 X118.343 Y113.463 E.01464
G1 X118.789 Y113.277 E.01438
G1 X119.263 Y113.203 E.0143
G1 X130.737 Y113.203 E.34178
G1 X131.211 Y113.277 E.0143
G1 X131.657 Y113.463 E.01438
G1 X132.048 Y113.761 E.01464
G1 X132.347 Y114.132 E.01418
G1 X138.085 Y124.07 E.34183
G1 X138.258 Y124.518 E.01431
G1 X138.32 Y124.998 E.01442
G1 X138.262 Y125.464 E.01397
G1 X138.084 Y125.932 E.01492
G1 X132.349 Y135.865 E.34165
G1 X132.029 Y136.257 E.01506
G1 X131.639 Y136.547 E.01448
G1 X131.193 Y136.728 E.01436
G1 X130.741 Y136.797 E.0136
G1 X119.259 Y136.797 E.34202
G1 X118.807 Y136.728 E.0136
G1 X118.361 Y136.547 E.01436
G1 X117.971 Y136.257 E.01448
G1 X117.651 Y135.865 E.01506
G1 X111.915 Y125.93 E.34171
G1 X111.876 Y125.83 E.00319
G1 X112.22 Y125.691 F24000
G1 F4800
G1 X112.116 Y125.432 E.00831
G1 X112.054 Y125.051 E.01151
G1 X112.093 Y124.657 E.01178
G1 X112.236 Y124.268 E.01237
G1 X117.984 Y114.312 E.34241
G1 X118.25 Y113.993 E.01237
G1 X118.571 Y113.763 E.01178
G1 X118.932 Y113.626 E.01151
G1 X119.254 Y113.58 E.00968
G1 X130.746 Y113.58 E.34231
G1 X131.068 Y113.626 E.00968
G1 X131.429 Y113.763 E.01151
G1 X131.75 Y113.993 E.01178
G1 X132.016 Y114.312 E.01237
G1 X137.763 Y124.266 E.34236
G1 X137.884 Y124.568 E.00968
G1 X137.946 Y124.953 E.01164
G1 X137.912 Y125.323 E.01107
G1 X137.762 Y125.735 E.01306
G1 X132.018 Y135.684 E.34219
G1 X131.736 Y136.019 E.01303
G1 X131.413 Y136.245 E.01175
G1 X131.053 Y136.378 E.01145
M73 P2 R12
G1 X130.75 Y136.42 E.0091
G1 X119.25 Y136.42 E.34253
G1 X118.947 Y136.378 E.0091
G1 X118.587 Y136.245 E.01145
G1 X118.264 Y136.019 E.01175
G1 X117.982 Y135.684 E.01303
G1 X112.237 Y125.734 E.34225
G1 X112.235 Y125.728 E.00017
G1 X112.561 Y125.54 F24000
G1 F4800
G1 X112.56 Y125.538 E.00007
G1 X112.464 Y125.288 E.008
G1 X112.427 Y124.993 E.00884
G1 X112.467 Y124.699 E.00886
G1 X112.558 Y124.465 E.00747
G1 X118.315 Y114.493 E.34299
G1 X118.473 Y114.297 E.00747
G1 X118.707 Y114.115 E.00886
G1 X118.981 Y114 E.00884
G1 X119.246 Y113.957 E.00799
G1 X130.754 Y113.957 E.34278
G1 X131.019 Y114 E.00799
G1 X131.293 Y114.115 E.00884
G1 X131.527 Y114.297 E.00886
G1 X131.685 Y114.493 E.00747
G1 X137.44 Y124.462 E.34288
G1 X137.536 Y124.712 E.00799
G1 X137.574 Y125.01 E.00895
G1 X137.537 Y125.284 E.00823
G1 X137.44 Y125.538 E.0081
G1 X131.686 Y135.504 E.34278
G1 X131.517 Y135.713 E.008
G1 X131.281 Y135.892 E.00884
G1 X131.005 Y136.004 E.00886
G1 X130.757 Y136.043 E.00747
G1 X119.243 Y136.043 E.34299
G1 X118.995 Y136.004 E.00747
G1 X118.719 Y135.892 E.00886
G1 X118.483 Y135.713 E.00884
G1 X118.314 Y135.504 E.008
G1 X112.581 Y125.575 E.34152
G1 X112.907 Y125.386 F24000
G1 F4800
G1 X112.882 Y125.342 E.00152
G1 X112.816 Y125.154 E.00594
G1 X112.802 Y124.957 E.00589
G1 X112.839 Y124.761 E.00592
G1 X112.88 Y124.661 E.00324
G1 X118.646 Y114.674 E.3435
G1 X118.713 Y114.587 E.00324
G1 X118.863 Y114.458 E.00592
G1 X119.041 Y114.372 E.00589
G1 X119.237 Y114.334 E.00594
G1 X130.763 Y114.334 E.34331
G1 X130.959 Y114.372 E.00594
G1 X131.137 Y114.458 E.00589
G1 X131.287 Y114.587 E.00592
G1 X131.354 Y114.674 E.00324
G1 X137.118 Y124.658 E.34341
G1 X137.184 Y124.846 E.00594
G1 X137.199 Y125.047 E.00599
G1 X137.185 Y125.151 E.00312
G1 X137.118 Y125.342 E.00604
G1 X131.355 Y135.324 E.34331
G1 X131.225 Y135.475 E.00594
G1 X131.062 Y135.586 E.00589
G1 X130.874 Y135.651 E.00592
G1 X130.766 Y135.666 E.00324
G1 X119.234 Y135.666 E.3435
G1 X119.126 Y135.651 E.00324
G1 X118.938 Y135.586 E.00592
G1 X118.775 Y135.475 E.00589
G1 X118.645 Y135.324 E.00594
G1 X112.927 Y125.421 E.3406
G1 X113.254 Y125.232 F24000
G1 F4800
G1 X113.203 Y125.144 E.00303
G1 X113.178 Y125.05 E.00291
G1 X113.178 Y124.95 E.00298
G1 X113.203 Y124.856 E.00291
G1 X118.977 Y114.856 E.34395
G1 X119.046 Y114.787 E.00291
