; HEADER_BLOCK_START
; generated by OrcaSlicer-WaveOverhangs 2.4.0-dev on 2026-05-28 at 15:11:56
; WAVE_OVERHANG_BUILD wave_overhangs_version=dev orca_base=2.4.0-dev
; WAVE_OVERHANG_CONFIG region=0 algo=andersons outer_perim=1 spacing=0.360 flow_mm3_per_mm=0.180 speed=2.0 travel=40.0 fan=100 floor_layers=2 min_angle=0.0 min_length=0.00 max_iterations=0 ring_overlap=0.15 pattern=zigzag spacing_mode=uniform seam_mode=alternating perimeter_overlap=0.20 minimum_wave_width=0.70 min_new_area=0.0100 corner_enable=0 corner_spacing=0.420 corner_taper=10.00 corner_angle=91 end_retract=0.00 nozzle_temp_override=0 min_wave_time=4.00 min_layer_time=0.00 wall_loops=3 top_shell_layers=2 bottom_shell_layers=4 infill_density=15 infill_pattern=rectilinear support_remainder=1 instead_of_bridges=1
; total layer number: 84
; filament_density: 1.24
; filament_diameter: 1.75
; max_z_height: 20.12
; filament: 1
; HEADER_BLOCK_END

; THUMBNAIL_BLOCK_START

;
; THUMBNAIL_BLOCK_END

; external perimeters extrusion width = 0.42mm
; perimeters extrusion width = 0.45mm
; infill extrusion width = 0.44mm
; solid infill extrusion width = 0.44mm
; top infill extrusion width = 0.38mm
; first layer extrusion width = 0.42mm

; EXECUTABLE_BLOCK_START
EXCLUDE_OBJECT_DEFINE NAME=FTS_Loop_Holes.STL_id_0_copy_0 CENTER=125,125 POLYGON=[[107.516,124.053],[107.721,122.169],[108.128,120.318],[108.733,118.523],[109.529,116.803],[110.505,115.179],[111.652,113.671],[112.955,112.295],[114.049,111.342],[114.399,111.068],[115.105,110.559],[115.968,110.005],[117.642,109.117],[119.402,108.416],[121.228,107.909],[123.098,107.603],[124.99,107.5],[126.882,107.603],[128.752,107.909],[130.578,108.416],[132.338,109.117],[134.012,110.005],[135.58,111.068],[137.025,112.295],[138.328,113.671],[139.475,115.179],[140.451,116.803],[141.247,118.523],[141.852,120.318],[142.259,122.169],[142.464,124.053],[142.468,124.125],[142.484,125.444],[142.464,125.947],[142.259,127.831],[141.852,129.682],[141.247,131.477],[140.451,133.197],[139.475,134.821],[138.328,136.329],[137.025,137.705],[135.581,138.932],[134.012,139.995],[132.338,140.883],[130.578,141.584],[128.752,142.091],[126.882,142.397],[124.99,142.5],[123.098,142.397],[121.228,142.091],[119.402,141.584],[117.642,140.883],[115.968,139.995],[114.399,138.932],[112.955,137.705],[111.652,136.329],[110.505,134.821],[109.529,133.197],[108.733,131.477],[108.128,129.682],[107.721,127.831],[107.516,125.947],[107.516,124.053]]
M73 P0 R26
M106 S0
M106 P2 S0
;TYPE:Custom
G9111 bedTemp=60 extruderTemp=220
M117
M106 P3 S255
G90
G21
M83 ; use relative distances for extrusion
; Filament gcode
M106 S0
M106 P2 S0
;LAYER_CHANGE
;Z:0.2
;HEIGHT:0.2
 ; PURGE LINE
M204 P500
SET_VELOCITY_LIMIT SQUARE_CORNER_VELOCITY=9
G1 Z0.50 F900 ; for object exclusion
G1 X89.365 Y255 F18000
G1 Z.25 F900
G1 E0.8 F2400
G1 E0.6
G1 F3000
G1 X158.835 Y255 E3.72454
G1 X158.835 Y255.45 E.0252
G1 X89.365 Y255.45 E3.72454
G1 X89.365 Y255.02 E.02305
G1 Z0.5 F600

G1 E-.8 F2400
; AFTER_LAYER_CHANGE 0 @ 0.2mm
;_SET_FAN_SPEED_CHANGING_LAYER
SET_VELOCITY_LIMIT ACCEL=2000 ACCEL_TO_DECEL=1000
; printing object FTS_Loop_Holes.STL id:0 copy 0
EXCLUDE_OBJECT_START NAME=FTS_Loop_Holes.STL_id_0_copy_0
G1 X110.863 Y127.934 F24000
G1 Z.56
G1 Z.16
G1 E.8 F2400
;TYPE:Brim
;WIDTH:0.42
G1 F4800
G1 X110.748 Y127.313 E.01883
G1 X110.59 Y125.894 E.04252
G1 X110.564 Y125.262 E.01883
G1 X110.609 Y123.836 E.04252
G1 X110.674 Y123.207 E.01883
G1 X110.921 Y121.801 E.04252
G1 X111.075 Y121.188 E.01883
G1 X111.52 Y119.831 E.04252
G1 X111.76 Y119.244 E.0189
G1 X112.397 Y117.959 E.04273
G1 X112.717 Y117.415 E.01879
G1 X113.522 Y116.245 E.04232
G1 X113.916 Y115.752 E.01881
G1 X114.884 Y114.702 E.04252
G1 X115.345 Y114.27 E.01883
G1 X116.452 Y113.369 E.04252
G1 X116.97 Y113.006 E.01883
G1 X118.182 Y112.28 E.0421
G1 X118.741 Y111.997 E.01865
G1 X120.069 Y111.437 E.04294
G1 X120.674 Y111.233 E.01901
G1 X122.056 Y110.873 E.04252
G1 X122.677 Y110.758 E.01883
G1 X124.096 Y110.6 E.04252
G1 X124.727 Y110.574 E.01883
G1 X126.14 Y110.619 E.0421
G1 X126.763 Y110.682 E.01865
G1 X128.183 Y110.93 E.04294
G1 X128.802 Y111.085 E.01901
G1 X130.159 Y111.53 E.04252
G1 X130.744 Y111.769 E.01883
G1 X132.023 Y112.402 E.04252
G1 X132.568 Y112.722 E.01883
G1 X133.744 Y113.531 E.04252
G1 X134.238 Y113.926 E.01883
G1 X135.288 Y114.894 E.04252
G1 X135.72 Y115.355 E.01883
G1 X136.621 Y116.462 E.04252
G1 X136.984 Y116.98 E.01883
G1 X137.718 Y118.205 E.04252
G1 X138.003 Y118.769 E.01883
G1 X138.555 Y120.085 E.04252
G1 X138.757 Y120.684 E.01883
G1 X139.117 Y122.066 E.04252
G1 X139.231 Y122.687 E.01883
G1 X139.39 Y124.106 E.04252
G1 X139.416 Y124.738 E.01883
G1 X139.371 Y126.164 E.04252
G1 X139.306 Y126.796 E.0189
G1 X139.056 Y128.209 E.04274
G1 X138.903 Y128.82 E.01878
G1 X138.46 Y130.17 E.0423
G1 X138.221 Y130.754 E.01881
G1 X137.588 Y132.033 E.04252
G1 X137.268 Y132.578 E.01883
G1 X136.459 Y133.755 E.04252
G1 X136.064 Y134.248 E.01883
G1 X135.096 Y135.298 E.04252
G1 X134.635 Y135.73 E.01883
G1 X133.528 Y136.631 E.04252
G1 X133.01 Y136.994 E.01883
G1 X131.798 Y137.72 E.0421
G1 X131.239 Y138.003 E.01865
G1 X129.911 Y138.563 E.04294
G1 X129.306 Y138.767 E.01901
G1 X127.924 Y139.127 E.04252
G1 X127.303 Y139.242 E.01883
G1 X125.884 Y139.4 E.04252
G1 X125.252 Y139.426 E.01883
G1 X123.826 Y139.381 E.04252
G1 X123.197 Y139.316 E.01883
G1 X121.791 Y139.069 E.04252
G1 X121.178 Y138.915 E.01883
G1 X119.821 Y138.47 E.04252
G1 X119.236 Y138.231 E.01883
G1 X117.957 Y137.598 E.04252
G1 X117.412 Y137.278 E.01883
G1 X116.235 Y136.469 E.04252
G1 X115.742 Y136.074 E.01883
G1 X114.692 Y135.106 E.04252
G1 X114.26 Y134.645 E.01883
G1 X113.359 Y133.538 E.04252
G1 X112.996 Y133.02 E.01883
G1 X112.262 Y131.795 E.04252
G1 X111.977 Y131.231 E.01883
G1 X111.425 Y129.915 E.04252
G1 X111.223 Y129.316 E.01883
G1 X110.874 Y127.973 E.04133
G1 X111.238 Y127.878 F24000
G1 F4800
G1 X111.233 Y127.856 E.00067
G1 X111.121 Y127.253 E.01827
G1 X110.966 Y125.87 E.04148
G1 X110.942 Y125.265 E.01803
G1 X110.986 Y123.857 E.04196
G1 X111.048 Y123.255 E.01803
G1 X111.289 Y121.883 E.04148
G1 X111.436 Y121.296 E.01803
G1 X111.872 Y119.965 E.04172
G1 X112.105 Y119.396 E.01833
G1 X112.731 Y118.135 E.04192
G1 X113.037 Y117.615 E.01799
G1 X113.823 Y116.473 E.04128
G1 X114.205 Y115.994 E.01824
G1 X115.149 Y114.971 E.04148
G1 X115.596 Y114.551 E.01827
G1 X116.683 Y113.668 E.04172
G1 X117.179 Y113.321 E.01803
G1 X118.361 Y112.612 E.04106
G1 X118.903 Y112.337 E.01809
G1 X120.199 Y111.792 E.0419
G1 X120.778 Y111.595 E.0182
G1 X122.133 Y111.243 E.04172
G1 X122.737 Y111.131 E.01827
G1 X124.128 Y110.976 E.04172
G1 X124.733 Y110.952 E.01803
G1 X126.111 Y110.995 E.04106
G1 X126.715 Y111.057 E.01809
G1 X128.101 Y111.298 E.0419
G1 X128.694 Y111.446 E.0182
G1 X130.025 Y111.882 E.04172
G1 X130.592 Y112.115 E.01827
G1 X131.84 Y112.732 E.04148
G1 X132.362 Y113.039 E.01803
G1 X133.516 Y113.832 E.04172
G1 X133.996 Y114.215 E.01827
G1 X135.019 Y115.159 E.04148
G1 X135.439 Y115.606 E.01827
G1 X136.322 Y116.693 E.04172
G1 X136.669 Y117.189 E.01803
G1 X137.385 Y118.383 E.04148
G1 X137.662 Y118.931 E.01827
G1 X138.201 Y120.215 E.04148
G1 X138.395 Y120.788 E.01803
G1 X138.747 Y122.144 E.04172
G1 X138.859 Y122.747 E.01827
G1 X139.014 Y124.13 E.04148
G1 X139.038 Y124.735 E.01803
G1 X138.994 Y126.143 E.04196
G1 X138.931 Y126.747 E.0181
G1 X138.688 Y128.126 E.0417
G1 X138.539 Y128.719 E.01822
G1 X138.107 Y130.035 E.04126
G1 X137.879 Y130.595 E.018
G1 X137.258 Y131.85 E.04172
G1 X136.947 Y132.379 E.01827
G1 X136.153 Y133.533 E.04172
G1 X135.775 Y134.006 E.01803
G1 X134.831 Y135.029 E.04148
G1 X134.384 Y135.449 E.01827
G1 X133.297 Y136.332 E.04172
G1 X132.801 Y136.679 E.01803
G1 X131.619 Y137.388 E.04106
G1 X131.077 Y137.663 E.01809
G1 X129.781 Y138.208 E.0419
G1 X129.202 Y138.405 E.0182
G1 X127.847 Y138.757 E.04172
G1 X127.243 Y138.869 E.01827
G1 X125.86 Y139.024 E.04148
G1 X125.255 Y139.048 E.01803
G1 X123.847 Y139.004 E.04196
G1 X123.245 Y138.942 E.01803
G1 X121.873 Y138.701 E.04148
G1 X121.279 Y138.552 E.01827
G1 X119.948 Y138.115 E.04172
G1 X119.388 Y137.885 E.01803
G1 X118.14 Y137.268 E.04148
G1 X117.611 Y136.957 E.01827
G1 X116.464 Y136.168 E.04148
G1 X115.991 Y135.79 E.01803
G1 X114.961 Y134.841 E.04172
G1 X114.541 Y134.394 E.01827
G1 X113.658 Y133.307 E.04172
G1 X113.311 Y132.811 E.01803
G1 X112.595 Y131.617 E.04148
G1 X112.318 Y131.069 E.01827
G1 X111.779 Y129.785 E.04148
G1 X111.585 Y129.212 E.01803
G1 X111.249 Y127.917 E.03986
G1 X111.614 Y127.822 F24000
G1 F4800
G1 X111.6 Y127.771 E.00158
G1 X111.494 Y127.194 E.01746
G1 X111.343 Y125.845 E.04044
G1 X111.319 Y125.259 E.01746
G1 X111.363 Y123.878 E.04115
G1 X111.423 Y123.303 E.01722
G1 X111.658 Y121.966 E.04044
G1 X111.798 Y121.405 E.01722
G1 X112.225 Y120.1 E.04091
G1 X112.451 Y119.548 E.01777
G1 X113.065 Y118.311 E.04112
G1 X113.358 Y117.814 E.01719
G1 X114.123 Y116.701 E.04024
G1 X114.494 Y116.237 E.01768
G1 X115.415 Y115.24 E.04044
G1 X115.848 Y114.833 E.0177
G1 X116.914 Y113.967 E.04091
G1 X117.388 Y113.635 E.01722
G1 X118.54 Y112.944 E.04003
G1 X119.065 Y112.678 E.01753
G1 X120.329 Y112.146 E.04086
G1 X120.882 Y111.958 E.01739
G1 X122.211 Y111.612 E.04091
G1 X122.796 Y111.504 E.01771
G1 X124.161 Y111.352 E.04091
G1 X124.739 Y111.329 E.01722
G1 X126.082 Y111.371 E.04003
G1 X126.667 Y111.431 E.01753
G1 X128.019 Y111.667 E.04086
G1 X128.585 Y111.808 E.01739
G1 X129.89 Y112.235 E.04091
G1 X130.441 Y112.46 E.01771
G1 X131.657 Y113.063 E.04044
G1 X132.156 Y113.355 E.01722
G1 X133.288 Y114.133 E.04091
G1 X133.753 Y114.504 E.0177
G1 X134.75 Y115.425 E.04044
G1 X135.157 Y115.858 E.0177
G1 X136.023 Y116.924 E.04091
G1 X136.355 Y117.398 E.01722
G1 X137.053 Y118.562 E.04044
G1 X137.321 Y119.093 E.01771
G1 X137.846 Y120.345 E.04044
G1 X138.032 Y120.892 E.01722
G1 X138.38 Y122.229 E.04115
G1 X138.486 Y122.806 E.01746
G1 X138.637 Y124.155 E.04044
G1 X138.661 Y124.741 E.01746
G1 X138.617 Y126.122 E.04115
G1 X138.557 Y126.699 E.01729
G1 X138.32 Y128.043 E.04066
G1 X138.176 Y128.618 E.01766
G1 X137.754 Y129.901 E.04022
G1 X137.536 Y130.436 E.0172
G1 X136.927 Y131.667 E.04092
G1 X136.626 Y132.18 E.0177
G1 X135.847 Y133.311 E.04091
G1 X135.486 Y133.763 E.01722
G1 X134.565 Y134.76 E.04044
G1 X134.132 Y135.167 E.0177
G1 X133.066 Y136.033 E.04091
G1 X132.592 Y136.365 E.01722
G1 X131.44 Y137.056 E.04003
G1 X130.915 Y137.322 E.01753
G1 X129.651 Y137.854 E.04086
G1 X129.098 Y138.042 E.01739
G1 X127.769 Y138.388 E.04091
G1 X127.184 Y138.496 E.01771
G1 X125.835 Y138.647 E.04044
G1 X125.257 Y138.671 E.01722
G1 X123.868 Y138.627 E.04139
G1 X123.293 Y138.567 E.01722
G1 X121.956 Y138.332 E.04044
G1 X121.379 Y138.188 E.0177
G1 X120.074 Y137.759 E.04091
G1 X119.539 Y137.54 E.01722
G1 X118.323 Y136.937 E.04044
G1 X117.81 Y136.636 E.0177
G1 X116.692 Y135.867 E.04044
G1 X116.239 Y135.507 E.01722
G1 X115.23 Y134.575 E.04091
G1 X114.823 Y134.142 E.0177
G1 X113.957 Y133.076 E.04091
G1 X113.625 Y132.602 E.01722
G1 X112.927 Y131.438 E.04044
G1 X112.659 Y130.907 E.01771
G1 X112.134 Y129.655 E.04044
G1 X111.948 Y129.108 E.01722
G1 X111.624 Y127.861 E.03839
G1 X111.989 Y127.766 F24000
G1 F4800
G1 X111.968 Y127.685 E.00249
G1 X111.867 Y127.135 E.01666
G1 X111.72 Y125.82 E.0394
G1 X111.697 Y125.253 E.0169
G1 X111.74 Y123.9 E.04034
G1 X111.797 Y123.351 E.01642
G1 X112.026 Y122.048 E.03941
G1 X112.162 Y121.505 E.01666
G1 X112.578 Y120.234 E.03986
G1 X112.793 Y119.707 E.01696
G1 X113.395 Y118.495 E.04031
G1 X113.678 Y118.014 E.01663
G1 X114.424 Y116.929 E.03921
G1 X114.778 Y116.486 E.01688
G1 X115.68 Y115.508 E.03964
G1 X116.099 Y115.114 E.01714
G1 X117.144 Y114.265 E.04011
G1 X117.596 Y113.95 E.01642
G1 X118.719 Y113.277 E.039
G1 X119.228 Y113.019 E.01698
G1 X120.46 Y112.5 E.03982
G1 X120.987 Y112.321 E.01658
G1 X122.289 Y111.982 E.0401
G1 X122.855 Y111.877 E.01714
G1 X124.193 Y111.728 E.04011
G1 X124.744 Y111.707 E.01642
G1 X126.053 Y111.748 E.039
G1 X126.62 Y111.806 E.01698
G1 X127.937 Y112.035 E.03982
G1 X128.477 Y112.169 E.01658
G1 X129.756 Y112.588 E.0401
G1 X130.289 Y112.806 E.01714
G1 X131.475 Y113.393 E.0394
G1 X131.95 Y113.671 E.01642
G1 X133.06 Y114.434 E.04011
G1 X133.51 Y114.793 E.01714
G1 X134.482 Y115.69 E.03939
G1 X134.876 Y116.109 E.01714
G1 X135.724 Y117.154 E.04011
G1 X136.04 Y117.606 E.01642
G1 X136.72 Y118.741 E.0394
G1 X136.98 Y119.255 E.01714
G1 X137.492 Y120.474 E.0394
G1 X137.669 Y120.996 E.01642
G1 X138.01 Y122.307 E.04034
G1 X138.113 Y122.865 E.0169
G1 X138.26 Y124.18 E.0394
G1 X138.283 Y124.739 E.01666
G1 X138.24 Y126.1 E.04058
G1 X138.183 Y126.651 E.01648
G1 X137.951 Y127.961 E.03962
G1 X137.812 Y128.517 E.0171
G1 X137.402 Y129.767 E.03919
G1 X137.194 Y130.277 E.0164
G1 X136.597 Y131.484 E.04011
G1 X136.306 Y131.98 E.01714
G1 X135.542 Y133.089 E.04011
G1 X135.197 Y133.52 E.01642
G1 X134.3 Y134.492 E.0394
G1 X133.881 Y134.886 E.01714
G1 X132.836 Y135.735 E.04011
G1 X132.384 Y136.05 E.01642
G1 X131.261 Y136.723 E.03899
G1 X130.752 Y136.981 E.01698
G1 X129.52 Y137.5 E.03982
G1 X128.993 Y137.679 E.01658
G1 X127.683 Y138.02 E.04034
G1 X127.125 Y138.123 E.0169
G1 X125.81 Y138.27 E.0394
G1 X125.251 Y138.293 E.01666
G1 X123.89 Y138.25 E.04058
G1 X123.341 Y138.193 E.01642
G1 X122.039 Y137.964 E.0394
G1 X121.48 Y137.824 E.01714
G1 X120.201 Y137.404 E.04011
G1 X119.691 Y137.194 E.01642
G1 X118.506 Y136.607 E.0394
G1 X118.009 Y136.316 E.01714
G1 X116.92 Y135.566 E.0394
G1 X116.488 Y135.223 E.01642
G1 X115.498 Y134.31 E.04011
G1 X115.104 Y133.891 E.01714
G1 X114.255 Y132.846 E.04011
G1 X113.94 Y132.394 E.01642
G1 X113.26 Y131.259 E.0394
G1 X113 Y130.745 E.01714
G1 X112.488 Y129.526 E.0394
G1 X112.311 Y129.004 E.01642
G1 X111.999 Y127.804 E.03691
G1 X112.364 Y127.709 F24000
G1 F4800
G1 X112.337 Y127.607 E.00314
G1 X112.24 Y127.076 E.01609
G1 X112.096 Y125.796 E.03837
G1 X112.074 Y125.256 E.01609
G1 X112.116 Y123.921 E.03977
G1 X112.171 Y123.4 E.01561
G1 X112.395 Y122.131 E.03839
G1 X112.525 Y121.606 E.0161
G1 X112.931 Y120.368 E.03881
G1 X113.136 Y119.866 E.01615
G1 X113.725 Y118.678 E.0395
G1 X113.998 Y118.213 E.01607
G1 X114.725 Y117.157 E.03817
G1 X115.061 Y116.735 E.01608
G1 X115.945 Y115.777 E.03883
G1 X116.351 Y115.396 E.01657
G1 X117.375 Y114.564 E.0393
G1 X117.805 Y114.264 E.01562
G1 X118.898 Y113.609 E.03797
G1 X119.39 Y113.36 E.01642
G1 X120.59 Y112.855 E.03879
G1 X121.091 Y112.684 E.01577
G1 X122.367 Y112.351 E.03929
G1 X122.914 Y112.25 E.01657
G1 X124.226 Y112.104 E.0393
G1 X124.75 Y112.084 E.01562
G1 X126.024 Y112.124 E.03797
G1 X126.572 Y112.18 E.01642
G1 X127.855 Y112.404 E.03879
G1 X128.369 Y112.531 E.01577
G1 X129.622 Y112.941 E.03929
G1 X130.137 Y113.152 E.01658
G1 X131.292 Y113.723 E.03837
G1 X131.745 Y113.988 E.01562
G1 X132.832 Y114.735 E.0393
G1 X133.267 Y115.082 E.01657
G1 X134.213 Y115.955 E.03835
G1 X134.594 Y116.361 E.01658
G1 X135.426 Y117.385 E.0393
G1 X135.726 Y117.815 E.01562
G1 X136.388 Y118.92 E.03837
G1 X136.639 Y119.417 E.01658
G1 X137.137 Y120.604 E.03837
G1 X137.306 Y121.101 E.01562
G1 X137.643 Y122.393 E.03977
G1 X137.74 Y122.924 E.01609
G1 X137.884 Y124.205 E.03837
G1 X137.906 Y124.744 E.01609
G1 X137.863 Y126.079 E.03976
G1 X137.808 Y126.602 E.01567
G1 X137.583 Y127.878 E.03859
G1 X137.448 Y128.416 E.01654
G1 X137.049 Y129.634 E.03816
G1 X136.851 Y130.119 E.0156
G1 X136.267 Y131.301 E.0393
G1 X135.985 Y131.781 E.01657
G1 X135.237 Y132.867 E.0393
G1 X134.909 Y133.276 E.01562
G1 X134.035 Y134.223 E.03837
G1 X133.629 Y134.604 E.01658
G1 X132.605 Y135.436 E.0393
G1 X132.175 Y135.736 E.01562
G1 X131.082 Y136.391 E.03797
G1 X130.59 Y136.64 E.01642
G1 X129.39 Y137.145 E.03879
G1 X128.889 Y137.316 E.01577
G1 X127.597 Y137.653 E.03977
G1 X127.065 Y137.75 E.01609
G1 X125.785 Y137.894 E.03837
G1 X125.245 Y137.916 E.0161
G1 X123.911 Y137.873 E.03976
G1 X123.39 Y137.819 E.01561
G1 X122.121 Y137.596 E.03837
G1 X121.581 Y137.46 E.01658
G1 X120.328 Y137.048 E.0393
G1 X119.843 Y136.849 E.01562
G1 X118.689 Y136.277 E.03837
G1 X118.209 Y135.995 E.01658
G1 X117.147 Y135.265 E.03837
G1 X116.737 Y134.939 E.01562
G1 X115.767 Y134.045 E.0393
G1 X115.386 Y133.639 E.01657
G1 X114.554 Y132.615 E.0393
G1 X114.254 Y132.185 E.01562
