; HEADER_BLOCK_START
; generated by OrcaSlicer-WaveOverhangs 2.4.0-dev on 2026-05-28 at 15:16:58
; WAVE_OVERHANG_BUILD wave_overhangs_version=dev orca_base=2.4.0-dev
; WAVE_OVERHANG_CONFIG region=0 algo=andersons outer_perim=1 spacing=0.360 flow_mm3_per_mm=0.180 speed=2.0 travel=40.0 fan=100 floor_layers=2 min_angle=0.0 min_length=0.00 max_iterations=0 ring_overlap=0.15 pattern=smart spacing_mode=uniform seam_mode=alternating perimeter_overlap=0.20 minimum_wave_width=0.70 min_new_area=0.0100 corner_enable=0 corner_spacing=0.420 corner_taper=10.00 corner_angle=91 end_retract=0.00 nozzle_temp_override=0 min_wave_time=4.00 min_layer_time=0.00 wall_loops=3 top_shell_layers=2 bottom_shell_layers=4 infill_density=15 infill_pattern=rectilinear support_remainder=1 instead_of_bridges=1
; total layer number: 84
; filament_density: 1.24
; filament_diameter: 1.75
; max_z_height: 20.12
; filament: 1
; HEADER_BLOCK_END

; THUMBNAIL_BLOCK_START

;
; THUMBNAIL_BLOCK_END

; external perimeters extrusion width = 0.42mm
; perimeters extrusion width = 0.45mm
; infill extrusion width = 0.44mm
; solid infill extrusion width = 0.44mm
; top infill extrusion width = 0.38mm
; first layer extrusion width = 0.42mm

; EXECUTABLE_BLOCK_START
EXCLUDE_OBJECT_DEFINE NAME=FTS_Bridge.STL_id_0_copy_0 CENTER=125,125 POLYGON=[[110,132.5],[110,97.5],[125,97.5],[140,117.5],[140,152.5],[125,152.5],[110,132.5]]
M73 P0 R26
M106 S0
M106 P2 S0
;TYPE:Custom
G9111 bedTemp=60 extruderTemp=220
M117
M106 P3 S255
G90
G21
M83 ; use relative distances for extrusion
; Filament gcode
M106 S0
M106 P2 S0
;LAYER_CHANGE
;Z:0.2
;HEIGHT:0.2
 ; PURGE LINE
M204 P500
SET_VELOCITY_LIMIT SQUARE_CORNER_VELOCITY=9
G1 Z0.50 F900 ; for object exclusion
G1 X89.365 Y255 F18000
G1 Z.25 F900
G1 E0.8 F2400
G1 E0.6
G1 F3000
G1 X158.835 Y255 E3.72454
G1 X158.835 Y255.45 E.0252
G1 X89.365 Y255.45 E3.72454
G1 X89.365 Y255.02 E.02305
G1 Z0.5 F600

G1 E-.8 F2400
; AFTER_LAYER_CHANGE 0 @ 0.2mm
;_SET_FAN_SPEED_CHANGING_LAYER
SET_VELOCITY_LIMIT ACCEL=2000 ACCEL_TO_DECEL=1000
; printing object FTS_Bridge.STL id:0 copy 0
EXCLUDE_OBJECT_START NAME=FTS_Bridge.STL_id_0_copy_0
G1 X123.732 Y156.746 F24000
G1 Z.56
G1 Z.16
G1 E.8 F2400
;TYPE:Brim
;WIDTH:0.42
G1 F4800
G1 X122.898 Y156.392 E.027
G1 X122.277 Y155.994 E.02198
G1 X121.797 Y155.565 E.01916
G1 X121.385 Y155.07 E.01919
G1 X121.052 Y154.522 E.01911
G1 X120.733 Y153.697 E.02634
G1 X120.601 Y153.067 E.01917
G1 X120.564 Y152.494 E.01711
G1 X120.564 Y137.507 E.44641
G1 X120.612 Y136.858 E.0194
G1 X120.754 Y136.232 E.0191
G1 X121.108 Y135.398 E.027
G1 X121.506 Y134.777 E.02198
G1 X121.935 Y134.297 E.01916
G1 X122.43 Y133.885 E.01919
G1 X122.979 Y133.552 E.01913
G1 X123.751 Y133.248 E.02472
G1 X124.434 Y133.101 E.02079
G1 X125.006 Y133.064 E.01709
G1 X139.993 Y133.064 E.44641
G1 X140.642 Y133.112 E.0194
G1 X141.268 Y133.254 E.0191
G1 X142.102 Y133.608 E.027
G1 X142.723 Y134.006 E.02198
G1 X143.203 Y134.435 E.01916
G1 X143.615 Y134.93 E.01919
G1 X143.948 Y135.479 E.01913
G1 X144.252 Y136.251 E.02472
G1 X144.399 Y136.934 E.02079
G1 X144.436 Y137.506 E.01709
G1 X144.436 Y152.493 E.4464
G1 X144.388 Y153.142 E.0194
G1 X144.246 Y153.768 E.0191
G1 X143.892 Y154.602 E.027
G1 X143.494 Y155.223 E.02198
G1 X143.065 Y155.703 E.01916
G1 X142.57 Y156.115 E.01919
G1 X142.022 Y156.448 E.01911
G1 X141.197 Y156.767 E.02634
G1 X140.567 Y156.899 E.01917
G1 X139.994 Y156.936 E.01711
G1 X125.007 Y156.936 E.4464
G1 X124.358 Y156.888 E.0194
G1 X123.771 Y156.755 E.01791
G1 X123.856 Y156.386 F24000
G1 F4800
G1 X123.839 Y156.382 E.00052
G1 X123.083 Y156.061 E.02446
G1 X122.499 Y155.686 E.02068
G1 X122.063 Y155.296 E.01742
G1 X121.698 Y154.857 E.01701
G1 X121.388 Y154.345 E.01783
G1 X121.094 Y153.581 E.02441
G1 X120.977 Y153.024 E.01694
G1 X120.941 Y152.485 E.01608
G1 X120.941 Y137.517 E.44585
G1 X120.988 Y136.905 E.01826
G1 X121.118 Y136.339 E.01731
G1 X121.439 Y135.583 E.02446
G1 X121.814 Y134.999 E.02068
G1 X122.204 Y134.563 E.01742
G1 X122.643 Y134.198 E.01701
G1 X123.139 Y133.896 E.0173
G1 X123.852 Y133.613 E.02284
G1 X124.494 Y133.475 E.01957
G1 X125.022 Y133.441 E.01577
G1 X139.983 Y133.441 E.44563
G1 X140.595 Y133.488 E.01826
G1 X141.161 Y133.618 E.01731
G1 X141.917 Y133.939 E.02446
G1 X142.501 Y134.314 E.02068
G1 X142.937 Y134.704 E.01742
G1 X143.302 Y135.143 E.01701
G1 X143.604 Y135.639 E.0173
G1 X143.887 Y136.352 E.02284
G1 X144.023 Y136.978 E.01908
G1 X144.059 Y137.522 E.01626
G1 X144.059 Y152.483 E.44563
G1 X144.012 Y153.095 E.01826
G1 X143.882 Y153.661 E.01731
G1 X143.561 Y154.417 E.02446
G1 X143.186 Y155.001 E.02068
G1 X142.796 Y155.437 E.01742
G1 X142.357 Y155.802 E.01701
G1 X141.845 Y156.112 E.01783
G1 X141.081 Y156.406 E.02441
G1 X140.524 Y156.523 E.01694
G1 X139.985 Y156.559 E.01608
G1 X125.017 Y156.559 E.44585
G1 X124.405 Y156.512 E.01826
G1 X123.895 Y156.395 E.0156
G1 X123.98 Y156.026 F24000
G1 F4800
G1 X123.947 Y156.018 E.00102
G1 X123.269 Y155.73 E.02194
G1 X122.721 Y155.379 E.01938
G1 X122.342 Y155.039 E.01517
G1 X122.011 Y154.644 E.01534
G1 X121.724 Y154.169 E.01654
G1 X121.455 Y153.465 E.02247
G1 X121.351 Y152.964 E.01521
G1 X121.318 Y152.469 E.0148
G1 X121.318 Y137.527 E.44506
G1 X121.361 Y136.971 E.01661
G1 X121.482 Y136.447 E.01602
G1 X121.77 Y135.769 E.02194
G1 X122.121 Y135.221 E.01938
G1 X122.473 Y134.83 E.01566
G1 X122.87 Y134.501 E.01536
G1 X123.299 Y134.24 E.01498
G1 X123.953 Y133.979 E.02096
G1 X124.554 Y133.849 E.01833
G1 X125.038 Y133.818 E.01444
G1 X139.964 Y133.818 E.4446
G1 X140.529 Y133.861 E.01687
G1 X141.053 Y133.982 E.01602
G1 X141.731 Y134.27 E.02194
G1 X142.279 Y134.621 E.01938
G1 X142.67 Y134.973 E.01566
G1 X142.999 Y135.37 E.01536
G1 X143.26 Y135.799 E.01498
G1 X143.521 Y136.453 E.02097
G1 X143.649 Y137.039 E.01785
G1 X143.682 Y137.539 E.01492
G1 X143.682 Y152.473 E.44484
G1 X143.639 Y153.029 E.01661
G1 X143.518 Y153.553 E.01602
G1 X143.23 Y154.231 E.02194
G1 X142.879 Y154.779 E.01938
G1 X142.539 Y155.158 E.01517
G1 X142.144 Y155.489 E.01534
G1 X141.669 Y155.776 E.01654
G1 X140.965 Y156.045 E.02247
G1 X140.464 Y156.149 E.01521
G1 X139.969 Y156.182 E.0148
G1 X125.027 Y156.182 E.44506
G1 X124.471 Y156.139 E.01661
G1 X124.019 Y156.035 E.0138
G1 X124.105 Y155.666 F24000
G1 F4800
G1 X124.055 Y155.654 E.00153
G1 X123.454 Y155.399 E.01943
G1 X122.943 Y155.072 E.01808
G1 X122.608 Y154.77 E.01342
G1 X122.325 Y154.431 E.01317
G1 X122.061 Y153.993 E.01523
G1 X121.816 Y153.349 E.02053
G1 X121.725 Y152.906 E.01349
G1 X121.695 Y152.452 E.01354
G1 X121.696 Y137.537 E.44427
G1 X121.734 Y137.037 E.01495
G1 X121.846 Y136.555 E.01473
G1 X122.101 Y135.954 E.01943
G1 X122.428 Y135.443 E.01807
G1 X122.741 Y135.098 E.01389
G1 X123.083 Y134.814 E.01323
G1 X123.46 Y134.583 E.01319
G1 X124.054 Y134.344 E.01907
G1 X124.615 Y134.223 E.01708
G1 X125.054 Y134.195 E.01311
G1 X139.946 Y134.195 E.44357
G1 X140.464 Y134.234 E.01546
G1 X140.945 Y134.346 E.01473
G1 X141.546 Y134.601 E.01943
G1 X142.057 Y134.928 E.01807
G1 X142.402 Y135.241 E.01389
G1 X142.686 Y135.583 E.01323
G1 X142.917 Y135.96 E.01319
G1 X143.156 Y136.555 E.0191
G1 X143.275 Y137.1 E.01661
G1 X143.305 Y137.555 E.01358
G1 X143.304 Y152.463 E.44405
G1 X143.266 Y152.963 E.01495
G1 X143.154 Y153.445 E.01473
G1 X142.899 Y154.046 E.01943
G1 X142.572 Y154.557 E.01808
G1 X142.27 Y154.892 E.01342
G1 X141.931 Y155.175 E.01317
G1 X141.493 Y155.439 E.01523
G1 X140.849 Y155.684 E.02053
G1 X140.406 Y155.775 E.01349
G1 X139.952 Y155.805 E.01354
G1 X125.037 Y155.804 E.44427
G1 X124.537 Y155.766 E.01495
G1 X124.144 Y155.675 E.01201
G1 X124.231 Y155.306 F24000
G1 F4800
G1 X124.163 Y155.29 E.00208
G1 X123.64 Y155.068 E.01693
G1 X123.166 Y154.765 E.01676
G1 X122.886 Y154.514 E.01119
G1 X122.638 Y154.218 E.01148
G1 X122.398 Y153.818 E.01391
G1 X122.177 Y153.235 E.01858
G1 X122.099 Y152.848 E.01177
G1 X122.072 Y152.436 E.01229
G1 X122.073 Y137.547 E.44348
G1 X122.11 Y137.085 E.01379
G1 X122.21 Y136.663 E.01294
G1 X122.432 Y136.14 E.01693
G1 X122.735 Y135.666 E.01674
G1 X123.008 Y135.366 E.01211
G1 X123.31 Y135.118 E.01162
G1 X123.639 Y134.918 E.01149
G1 X124.175 Y134.704 E.01717
G1 X124.659 Y134.599 E.01476
G1 X125.063 Y134.572 E.01205
G1 X139.927 Y134.572 E.44277
G1 X140.398 Y134.607 E.01405
G1 X140.837 Y134.71 E.01344
G1 X141.36 Y134.932 E.01693
G1 X141.834 Y135.235 E.01674
G1 X142.134 Y135.508 E.01211
G1 X142.373 Y135.797 E.01114
G1 X142.574 Y136.122 E.0114
G1 X142.791 Y136.658 E.01721
G1 X142.901 Y137.162 E.01536
G1 X142.928 Y137.571 E.01224
G1 X142.927 Y152.444 E.44301
G1 X142.893 Y152.898 E.01354
G1 X142.79 Y153.337 E.01344
G1 X142.568 Y153.86 E.01693
G1 X142.265 Y154.334 E.01676
G1 X142.014 Y154.614 E.01119
G1 X141.718 Y154.862 E.01148
G1 X141.318 Y155.102 E.01391
G1 X140.735 Y155.323 E.01858
G1 X140.348 Y155.401 E.01177
G1 X139.936 Y155.428 E.01229
G1 X125.047 Y155.427 E.44348
G1 X124.585 Y155.39 E.01379
G1 X124.27 Y155.316 E.00966
G1 X124.357 Y154.947 F24000
G1 F4800
G1 X124.272 Y154.927 E.00261
G1 X123.808 Y154.728 E.01503
G1 X123.388 Y154.458 E.01488
G1 X123.153 Y154.245 E.00944
G1 X122.952 Y154.005 E.00931
G1 X122.735 Y153.644 E.01257
G1 X122.539 Y153.121 E.01662
G1 X122.473 Y152.79 E.01005
G1 X122.449 Y152.42 E.01106
G1 X122.45 Y137.567 E.44242
G1 X122.483 Y137.153 E.01237
G1 X122.573 Y136.772 E.01166
G1 X122.772 Y136.308 E.01503
G1 X123.042 Y135.889 E.01484
G1 X123.263 Y135.646 E.00982
G1 X123.522 Y135.431 E.01001
G1 X123.817 Y135.253 E.01027
G1 X124.294 Y135.064 E.0153
G1 X124.704 Y134.975 E.01247
G1 X125.071 Y134.949 E.01098
G1 X139.909 Y134.949 E.44196
G1 X140.332 Y134.981 E.01263
G1 X140.729 Y135.073 E.01214
G1 X141.192 Y135.272 E.015
G1 X141.611 Y135.542 E.01484
G1 X141.866 Y135.775 E.01031
G1 X142.07 Y136.024 E.00957
G1 X142.231 Y136.285 E.00916
G1 X142.426 Y136.761 E.0153
G1 X142.527 Y137.223 E.0141
G1 X142.551 Y137.588 E.01088
G1 X142.55 Y152.426 E.44198
G1 X142.517 Y152.849 E.01264
G1 X142.427 Y153.229 E.01164
G1 X142.228 Y153.692 E.015
G1 X141.958 Y154.112 E.01488
G1 X141.745 Y154.347 E.00944
G1 X141.505 Y154.548 E.00931
G1 X141.144 Y154.765 E.01257
G1 X140.621 Y154.961 E.01662
G1 X140.29 Y155.027 E.01005
G1 X139.92 Y155.051 E.01106
G1 X125.067 Y155.05 E.44242
G1 X124.653 Y155.017 E.01237
G1 X124.396 Y154.956 E.00786
G1 X124.519 Y154.593 F24000
G1 F4800
G1 X124.141 Y154.465 E.01189
G1 X123.641 Y154.16 E.01745
G1 X123.347 Y153.88 E.01209
G1 X123.116 Y153.546 E.01208
G1 X122.961 Y153.207 E.01112
G1 X122.866 Y152.843 E.0112
G1 X122.826 Y152.464 E.01134
G1 X122.837 Y137.402 E.44864
G1 X122.91 Y136.983 E.01266
G1 X123.034 Y136.642 E.01083
G1 X123.285 Y136.216 E.01472
G1 X123.539 Y135.919 E.01165
G1 X123.87 Y135.666 E.01243
G1 X124.202 Y135.496 E.0111
G1 X124.572 Y135.383 E.01152
G1 X125.038 Y135.326 E.01398
G1 X139.958 Y135.326 E.44442
G1 X140.426 Y135.388 E.01407
G1 X140.859 Y135.535 E.01362
G1 X141.359 Y135.84 E.01745
G1 X141.653 Y136.12 E.01209
G1 X141.884 Y136.454 E.01208
G1 X142.039 Y136.793 E.01112
G1 X142.134 Y137.157 E.0112
G1 X142.174 Y137.536 E.01134
G1 X142.174 Y152.458 E.44448
G1 X142.112 Y152.926 E.01407
G1 X141.965 Y153.36 E.01362
G1 X141.66 Y153.859 E.01745
G1 X141.38 Y154.153 E.01209
G1 X141.046 Y154.384 E.01208
G1 X140.707 Y154.539 E.01112
G1 X140.343 Y154.634 E.0112
G1 X139.964 Y154.674 E.01134
G1 X125.042 Y154.674 E.44448
G1 X124.574 Y154.612 E.01407
G1 X124.557 Y154.606 E.00053
G1 X124.667 Y154.247 F24000
G1 F4800
G1 X124.341 Y154.146 E.01016
G1 X123.901 Y153.887 E.01523
G1 X123.659 Y153.667 E.00973
G1 X123.459 Y153.39 E.01016
G1 X123.326 Y153.113 E.00917
G1 X123.241 Y152.809 E.0094
G1 X123.203 Y152.47 E.01015
G1 X123.208 Y137.469 E.44682
G1 X123.265 Y137.108 E.0109
G1 X123.353 Y136.842 E.00833
G1 X123.614 Y136.399 E.01533
G1 X123.765 Y136.221 E.00695
G1 X124.042 Y136.002 E.01052
G1 X124.312 Y135.856 E.00914
G1 X124.612 Y135.758 E.0094
G1 X125.031 Y135.703 E.01259
G1 X139.966 Y135.703 E.44485
G1 X140.308 Y135.746 E.01028
G1 X140.659 Y135.854 E.01092
G1 X141.099 Y136.113 E.01523
G1 X141.341 Y136.333 E.00973
G1 X141.541 Y136.61 E.01016
G1 X141.674 Y136.887 E.00917
G1 X141.759 Y137.191 E.0094
G1 X141.797 Y137.53 E.01015
G1 X141.797 Y152.466 E.44488
G1 X141.754 Y152.808 E.01028
G1 X141.646 Y153.159 E.01092
G1 X141.387 Y153.599 E.01523
G1 X141.167 Y153.841 E.00973
G1 X140.89 Y154.041 E.01016
G1 X140.613 Y154.174 E.00917
G1 X140.309 Y154.259 E.0094
G1 X139.97 Y154.297 E.01015
G1 X125.034 Y154.297 E.44488
G1 X124.706 Y154.256 E.00986
G1 X124.757 Y153.883 F24000
G1 F4800
G1 X124.735 Y153.879 E.00068
G1 X124.449 Y153.785 E.00897
G1 X124.093 Y153.563 E.0125
G1 X123.966 Y153.448 E.0051
G1 X123.799 Y153.226 E.00829
G1 X123.689 Y153.01 E.00721
G1 X123.616 Y152.771 E.00746
G1 X123.58 Y152.476 E.00884
G1 X123.58 Y137.527 E.44528
G1 X123.621 Y137.235 E.00879
G1 X123.715 Y136.949 E.00897
G1 X123.937 Y136.593 E.0125
G1 X124.052 Y136.466 E.0051
G1 X124.274 Y136.299 E.00829
G1 X124.49 Y136.189 E.00721
G1 X124.729 Y136.116 E.00746
G1 X125.024 Y136.08 E.00884
G1 X139.973 Y136.08 E.44528
G1 X140.265 Y136.121 E.00879
G1 X140.551 Y136.215 E.00897
G1 X140.907 Y136.437 E.0125
G1 X141.034 Y136.552 E.0051
G1 X141.201 Y136.774 E.00829
G1 X141.311 Y136.99 E.00721
G1 X141.384 Y137.229 E.00746
G1 X141.42 Y137.524 E.00884
G1 X141.42 Y152.473 E.44528
G1 X141.379 Y152.765 E.00879
G1 X141.285 Y153.051 E.00897
G1 X141.063 Y153.407 E.0125
G1 X140.948 Y153.534 E.0051
G1 X140.726 Y153.701 E.00829
G1 X140.51 Y153.811 E.00721
G1 X140.271 Y153.884 E.00746
G1 X139.976 Y153.92 E.00884
G1 X125.027 Y153.92 E.44528
G1 X124.797 Y153.888 E.00693
G1 X124.855 Y153.517 F24000
G1 F4800
G1 X124.785 Y153.506 E.00211
G1 X124.567 Y153.427 E.00692
G1 X124.299 Y153.247 E.00963
G1 X124.223 Y153.173 E.00315
G1 X124.102 Y153.003 E.00621
G1 X124.027 Y152.843 E.00527
G1 X123.991 Y152.728 E.00359
G1 X123.957 Y152.483 E.00735
G1 X123.957 Y137.52 E.44571
G1 X123.994 Y137.285 E.00706
G1 X124.073 Y137.067 E.00692
G1 X124.253 Y136.799 E.00963
G1 X124.327 Y136.723 E.00315
G1 X124.497 Y136.602 E.00621
G1 X124.657 Y136.527 E.00527
G1 X124.772 Y136.491 E.00359
G1 X125.017 Y136.457 E.00735
G1 X139.98 Y136.457 E.44571
G1 X140.215 Y136.494 E.00706
G1 X140.433 Y136.573 E.00692
G1 X140.701 Y136.753 E.00963
G1 X140.777 Y136.827 E.00315
G1 X140.898 Y136.997 E.00621
G1 X140.973 Y137.157 E.00527
G1 X141.009 Y137.272 E.00359
G1 X141.043 Y137.517 E.00735
G1 X141.043 Y152.48 E.44571
G1 X141.006 Y152.715 E.00706
G1 X140.927 Y152.933 E.00692
G1 X140.747 Y153.201 E.00963
G1 X140.673 Y153.277 E.00315
G1 X140.503 Y153.398 E.00621
G1 X140.343 Y153.473 E.00527
G1 X140.228 Y153.509 E.00359
G1 X139.983 Y153.543 E.00735
G1 X125.02 Y153.543 E.44571
G1 X124.895 Y153.523 E.00376
G1 X124.965 Y153.157 F24000
G1 F4800
G1 X124.85 Y153.135 E.00351
G1 X124.698 Y153.074 E.00489
G1 X124.52 Y152.942 E.00659
G1 X124.447 Y152.85 E.00347
G1 X124.364 Y152.674 E.0058
G1 X124.334 Y152.491 E.00553
G1 X124.334 Y137.511 E.44621
G1 X124.365 Y137.35 E.00488
M73 P1 R26
G1 X124.426 Y137.198 E.00489
G1 X124.558 Y137.02 E.00659
G1 X124.65 Y136.947 E.00347
G1 X124.826 Y136.864 E.0058
G1 X125.009 Y136.834 E.00553
G1 X139.989 Y136.834 E.44621
G1 X140.15 Y136.865 E.00488
G1 X140.302 Y136.926 E.00489
G1 X140.48 Y137.058 E.00659
G1 X140.553 Y137.15 E.00347
G1 X140.636 Y137.326 E.0058
G1 X140.666 Y137.509 E.00553
G1 X140.666 Y152.489 E.44621
G1 X140.635 Y152.65 E.00488
G1 X140.574 Y152.802 E.00489
G1 X140.442 Y152.98 E.00659
G1 X140.35 Y153.053 E.00347
G1 X140.174 Y153.136 E.0058
G1 X139.991 Y153.166 E.00553
G1 X125.011 Y153.166 E.44621
G1 X125.005 Y153.164 E.00019
G1 X125.005 Y152.789 F24000
G1 F4800
G1 X125 Y152.789 E.00014
G1 X124.824 Y152.718 E.00565
G1 X124.734 Y152.605 E.0043
G1 X124.711 Y152.5 E.00321
G1 X124.711 Y137.5 E.4468
G1 X124.782 Y137.324 E.00565
G1 X124.895 Y137.234 E.0043
G1 X125 Y137.211 E.00321
G1 X140 Y137.211 E.4468
G1 X140.176 Y137.282 E.00565
G1 X140.266 Y137.395 E.0043
G1 X140.289 Y137.5 E.00321
G1 X140.289 Y152.5 E.4468
G1 X140.218 Y152.676 E.00565
G1 X140.105 Y152.766 E.0043
G1 X140 Y152.789 E.00321
G1 X125.045 Y152.789 E.44547
G1 E-.3 F2400
;WIPE_START
G1 F4800
G1 X125 Y152.789 E-.02235
G1 X124.824 Y152.718 E-.09479
G1 X124.734 Y152.605 E-.07215
