; HEADER_BLOCK_START
; generated by OrcaSlicer-WaveOverhangs 2.4.0-dev on 2026-05-22 at 14:49:33
; WAVE_OVERHANG_BUILD wave_overhangs_version=dev orca_base=2.4.0-dev
; WAVE_OVERHANG_CONFIG region=0 algo=andersons outer_perim=1 spacing=0.380 flow_mm3_per_mm=0.180 speed=2.0 travel=40.0 fan=100 floor_layers=2 min_angle=0.0 min_length=0.00 max_iterations=0 ring_overlap=0.15 pattern=zigzag spacing_mode=uniform seam_mode=alternating perimeter_overlap=0.10 minimum_wave_width=0.70 min_new_area=0.0100 corner_enable=0 corner_spacing=0.000 corner_taper=0.00 corner_angle=90 end_retract=0.00 nozzle_temp_override=250 min_wave_time=0.00 min_layer_time=0.00 wall_loops=3 top_shell_layers=5 bottom_shell_layers=4 infill_density=15 infill_pattern=rectilinear support_remainder=1 instead_of_bridges=0
; total layer number: 43
; filament_density: 1.27
; filament_diameter: 1.75
; max_z_height: 10.28
; filament: 1
; HEADER_BLOCK_END

; THUMBNAIL_BLOCK_START

;
; THUMBNAIL_BLOCK_END

; external perimeters extrusion width = 0.42mm
; perimeters extrusion width = 0.45mm
; infill extrusion width = 0.44mm
; solid infill extrusion width = 0.44mm
; top infill extrusion width = 0.38mm
; first layer extrusion width = 0.42mm

; EXECUTABLE_BLOCK_START
EXCLUDE_OBJECT_DEFINE NAME=WaveOverhangPreliminaryTesting.stl_id_0_copy_0 CENTER=125,125 POLYGON=[[110,107.5],[125,107.5],[140,127.5],[140,142.5],[110,142.5],[110,107.5]]
M73 P0 R17
M106 S0
M106 P2 S0
;TYPE:Custom
G9111 bedTemp=80 extruderTemp=255
M117
G90
G21
M83 ; use relative distances for extrusion
; Filament gcode
M106 S0
M106 P2 S0
;LAYER_CHANGE
;Z:0.2
;HEIGHT:0.2
 ; PURGE LINE
M204 P500
SET_VELOCITY_LIMIT SQUARE_CORNER_VELOCITY=9
G1 Z0.50 F900 ; for object exclusion
G1 X89.365 Y255 F18000
G1 Z.25 F900
G1 E0.8 F2400
G1 E0.6
G1 F3000
G1 X158.835 Y255 E3.72454
G1 X158.835 Y255.45 E.0252
G1 X89.365 Y255.45 E3.72454
G1 X89.365 Y255.02 E.02305
G1 Z0.5 F600

G1 E-.8 F2400
; AFTER_LAYER_CHANGE 0 @ 0.2mm
;_SET_FAN_SPEED_CHANGING_LAYER
SET_VELOCITY_LIMIT ACCEL=2000 ACCEL_TO_DECEL=1000
; printing object WaveOverhangPreliminaryTesting.stl id:0 copy 0
EXCLUDE_OBJECT_START NAME=WaveOverhangPreliminaryTesting.stl_id_0_copy_0
G1 X124.59 Y122.09 F24000
G1 Z.56
G1 Z.16
G1 E.8 F2400
;TYPE:Outer wall
;WIDTH:0.419999
G1 F3600
G1 X110.41 Y122.09 E.4446
G1 X110.41 Y107.91 E.4446
G1 X124.59 Y107.91 E.4446
G1 X124.59 Y122.05 E.44335
G1 X124.213 Y121.713 F24000
;TYPE:Inner wall
G1 F3600
G1 X110.787 Y121.713 E.42096
G1 X110.787 Y108.287 E.42096
G1 X124.213 Y108.287 E.42096
G1 X124.213 Y121.673 E.4197
G1 X123.836 Y121.336 F24000
G1 F3600
G1 X111.164 Y121.336 E.39731
G1 X111.164 Y108.664 E.39731
G1 X123.836 Y108.664 E.39731
G1 X123.836 Y121.296 E.39606
G1 E-.13333 F2400
;WIPE_START
G1 F3600
G1 X122.836 Y121.299 E-.66667
;WIPE_END
G1 X123.382 Y113.686 Z.56 F24000
G1 X123.723 Y108.948 Z.56
G1 Z.16
G1 E.8 F2400
;TYPE:Bottom surface
;WIDTH:0.421197
G1 F4744
G1 X111.447 Y108.948 E.38612
G1 X111.447 Y109.326 E.0119
G1 X123.553 Y109.326 E.38078
G1 X123.553 Y109.704 E.0119
G1 X111.447 Y109.704 E.38078
G1 X111.447 Y110.082 E.0119
G1 X123.553 Y110.082 E.38078
G1 X123.553 Y110.461 E.0119
G1 X111.447 Y110.461 E.38078
G1 X111.447 Y110.839 E.0119
G1 X123.553 Y110.839 E.38078
G1 X123.553 Y111.217 E.0119
G1 X111.447 Y111.217 E.38078
G1 X111.447 Y111.596 E.0119
G1 X123.553 Y111.596 E.38078
G1 X123.553 Y111.974 E.0119
G1 X111.447 Y111.974 E.38078
G1 X111.447 Y112.352 E.0119
G1 X123.553 Y112.352 E.38078
G1 X123.553 Y112.73 E.0119
G1 X111.447 Y112.73 E.38078
G1 X111.447 Y113.109 E.0119
G1 X123.553 Y113.109 E.38078
G1 X123.553 Y113.487 E.0119
M73 P1 R17
G1 X111.447 Y113.487 E.38078
G1 X111.447 Y113.865 E.0119
G1 X123.553 Y113.865 E.38078
G1 X123.553 Y114.243 E.0119
G1 X111.447 Y114.243 E.38078
G1 X111.447 Y114.622 E.0119
G1 X123.553 Y114.622 E.38078
G1 X123.553 Y115 E.0119
G1 X111.447 Y115 E.38078
G1 X111.447 Y115.378 E.0119
G1 X123.553 Y115.378 E.38078
G1 X123.553 Y115.757 E.0119
G1 X111.447 Y115.757 E.38078
G1 X111.447 Y116.135 E.0119
G1 X123.553 Y116.135 E.38078
G1 X123.553 Y116.513 E.0119
G1 X111.447 Y116.513 E.38078
G1 X111.447 Y116.891 E.0119
G1 X123.553 Y116.891 E.38078
G1 X123.553 Y117.27 E.0119
G1 X111.447 Y117.27 E.38078
G1 X111.447 Y117.648 E.0119
G1 X123.553 Y117.648 E.38078
G1 X123.553 Y118.026 E.0119
G1 X111.447 Y118.026 E.38078
G1 X111.447 Y118.405 E.0119
G1 X123.553 Y118.405 E.38078
G1 X123.553 Y118.783 E.0119
G1 X111.447 Y118.783 E.38078
G1 X111.447 Y119.161 E.0119
G1 X123.553 Y119.161 E.38078
G1 X123.553 Y119.539 E.0119
G1 X111.447 Y119.539 E.38078
G1 X111.447 Y119.918 E.0119
G1 X123.553 Y119.918 E.38078
G1 X123.553 Y120.296 E.0119
G1 X111.447 Y120.296 E.38078
G1 X111.447 Y120.674 E.0119
G1 X123.553 Y120.674 E.38078
G1 X123.553 Y121.052 E.0119
G1 X111.277 Y121.052 E.38612
; stop printing object WaveOverhangPreliminaryTesting.stl id:0 copy 0
;LAYER_CHANGE
;Z:0.44
;HEIGHT:0.24

G1 E-.4 F2400
;WIPE_START
G1 F6000
G1 X112.277 Y121.052 E-.4
;WIPE_END
EXCLUDE_OBJECT_END NAME=WaveOverhangPreliminaryTesting.stl_id_0_copy_0
; AFTER_LAYER_CHANGE 1 @ 0.44mm
;_SET_FAN_SPEED_CHANGING_LAYER
SET_VELOCITY_LIMIT ACCEL=7000 ACCEL_TO_DECEL=3500
M140 S80 ; set bed temperature
; printing object WaveOverhangPreliminaryTesting.stl id:0 copy 0
EXCLUDE_OBJECT_START NAME=WaveOverhangPreliminaryTesting.stl_id_0_copy_0
G1 X119.873 Y121.804 Z.8 F24000
G1 X124.79 Y122.29 Z.8
G1 Z.4
G1 E.8 F2400
SET_VELOCITY_LIMIT ACCEL=4000 ACCEL_TO_DECEL=2000
;TYPE:Outer wall
;WIDTH:0.419999
G1 F4306
G1 X110.21 Y122.29 E.53609
G1 X110.21 Y107.71 E.53609
G1 X124.79 Y107.71 E.53609
G1 X124.79 Y122.25 E.53462
SET_VELOCITY_LIMIT ACCEL=7000 ACCEL_TO_DECEL=3500
G1 X124.407 Y121.907 F24000
SET_VELOCITY_LIMIT ACCEL=6000 ACCEL_TO_DECEL=3000
;TYPE:Inner wall
;WIDTH:0.449999
G1 F4306
G1 X110.593 Y121.907 E.54923
G1 X110.593 Y108.093 E.54923
G1 X124.407 Y108.093 E.54923
G1 X124.407 Y121.867 E.54764
SET_VELOCITY_LIMIT ACCEL=7000 ACCEL_TO_DECEL=3500
G1 X124.008 Y121.508 F24000
SET_VELOCITY_LIMIT ACCEL=6000 ACCEL_TO_DECEL=3000
G1 F4306
G1 X110.992 Y121.508 E.51754
G1 X110.992 Y108.492 E.51754
G1 X124.008 Y108.492 E.51754
G1 X124.008 Y121.468 E.51595
SET_VELOCITY_LIMIT ACCEL=7000 ACCEL_TO_DECEL=3500
G1 X123.65 Y121.329 F24000
SET_VELOCITY_LIMIT ACCEL=8000 ACCEL_TO_DECEL=4000
;TYPE:Internal solid infill
;WIDTH:0.448292
G1 F4306
G1 X123.65 Y108.846 E.49424
G1 X123.253 Y108.846 E.01571
G1 X123.253 Y121.154 E.48732
G1 X122.857 Y121.154 E.01571
G1 X122.857 Y108.846 E.48732
G1 X122.46 Y108.846 E.01571
G1 X122.46 Y121.154 E.48732
G1 X122.063 Y121.154 E.01571
G1 X122.063 Y108.846 E.48732
G1 X121.666 Y108.846 E.01571
G1 X121.666 Y121.154 E.48732
G1 X121.269 Y121.154 E.01571
G1 X121.269 Y108.846 E.48732
G1 X120.873 Y108.846 E.01571
G1 X120.873 Y121.154 E.48732
G1 X120.476 Y121.154 E.01571
G1 X120.476 Y108.846 E.48732
G1 X120.079 Y108.846 E.01571
G1 X120.079 Y121.154 E.48732
G1 X119.682 Y121.154 E.01571
G1 X119.682 Y108.846 E.48732
G1 X119.286 Y108.846 E.01571
G1 X119.286 Y121.154 E.48732
G1 X118.889 Y121.154 E.01571
G1 X118.889 Y108.846 E.48732
G1 X118.492 Y108.846 E.01571
G1 X118.492 Y121.154 E.48732
G1 X118.095 Y121.154 E.01571
G1 X118.095 Y108.846 E.48732
G1 X117.698 Y108.846 E.01571
G1 X117.698 Y121.154 E.48732
G1 X117.302 Y121.154 E.01571
G1 X117.302 Y108.846 E.48732
G1 X116.905 Y108.846 E.01571
G1 X116.905 Y121.154 E.48732
G1 X116.508 Y121.154 E.01571
M73 P2 R16
G1 X116.508 Y108.846 E.48732
G1 X116.111 Y108.846 E.01571
G1 X116.111 Y121.154 E.48732
G1 X115.714 Y121.154 E.01571
G1 X115.714 Y108.846 E.48732
G1 X115.318 Y108.846 E.01571
G1 X115.318 Y121.154 E.48732
G1 X114.921 Y121.154 E.01571
G1 X114.921 Y108.846 E.48732
G1 X114.524 Y108.846 E.01571
G1 X114.524 Y121.154 E.48732
G1 X114.127 Y121.154 E.01571
G1 X114.127 Y108.846 E.48732
G1 X113.73 Y108.846 E.01571
G1 X113.73 Y121.154 E.48732
G1 X113.334 Y121.154 E.01571
G1 X113.334 Y108.846 E.48732
G1 X112.937 Y108.846 E.01571
G1 X112.937 Y121.154 E.48732
G1 X112.54 Y121.154 E.01571
G1 X112.54 Y108.846 E.48732
G1 X112.143 Y108.846 E.01571
G1 X112.143 Y121.154 E.48732
G1 X111.747 Y121.154 E.01571
G1 X111.747 Y108.846 E.48732
G1 X111.35 Y108.846 E.01571
G1 X111.35 Y121.329 E.49424
; stop printing object WaveOverhangPreliminaryTesting.stl id:0 copy 0
;LAYER_CHANGE
;Z:0.68
;HEIGHT:0.24

G1 E-.46667 F2400
;WIPE_START
G1 F7200
G1 X111.35 Y120.329 E-.33333
;WIPE_END
EXCLUDE_OBJECT_END NAME=WaveOverhangPreliminaryTesting.stl_id_0_copy_0
; AFTER_LAYER_CHANGE 2 @ 0.68mm
;_SET_FAN_SPEED_CHANGING_LAYER
; printing object WaveOverhangPreliminaryTesting.stl id:0 copy 0
SET_VELOCITY_LIMIT ACCEL=7000 ACCEL_TO_DECEL=3500
EXCLUDE_OBJECT_START NAME=WaveOverhangPreliminaryTesting.stl_id_0_copy_0
G1 X118.902 Y121.431 Z1.04 F24000
G1 X124.79 Y122.29 Z1.04
G1 Z.64
G1 E.8 F2400
SET_VELOCITY_LIMIT ACCEL=4000 ACCEL_TO_DECEL=2000
;TYPE:Outer wall
;WIDTH:0.419999
G1 F4340
G1 X110.21 Y122.29 E.53609
G1 X110.21 Y107.71 E.53609
G1 X124.79 Y107.71 E.53609
G1 X124.79 Y122.25 E.53462
SET_VELOCITY_LIMIT ACCEL=7000 ACCEL_TO_DECEL=3500
G1 X124.407 Y121.907 F24000
SET_VELOCITY_LIMIT ACCEL=6000 ACCEL_TO_DECEL=3000
;TYPE:Inner wall
;WIDTH:0.449999
G1 F4340
G1 X110.593 Y121.907 E.54923
G1 X110.593 Y108.093 E.54923
G1 X124.407 Y108.093 E.54923
G1 X124.407 Y121.867 E.54764
SET_VELOCITY_LIMIT ACCEL=7000 ACCEL_TO_DECEL=3500
G1 X124.008 Y121.508 F24000
SET_VELOCITY_LIMIT ACCEL=6000 ACCEL_TO_DECEL=3000
G1 F4340
G1 X110.992 Y121.508 E.51754
G1 X110.992 Y108.492 E.51754
G1 X124.008 Y108.492 E.51754
G1 X124.008 Y121.468 E.51595
SET_VELOCITY_LIMIT ACCEL=7000 ACCEL_TO_DECEL=3500
G1 X123.829 Y108.85 F24000
SET_VELOCITY_LIMIT ACCEL=8000 ACCEL_TO_DECEL=4000
;TYPE:Internal solid infill
;WIDTH:0.448292
G1 F4340
G1 X111.346 Y108.85 E.49424
G1 X111.346 Y109.247 E.01571
G1 X123.654 Y109.247 E.48732
G1 X123.654 Y109.643 E.01571
G1 X111.346 Y109.643 E.48732
G1 X111.346 Y110.04 E.01571
G1 X123.654 Y110.04 E.48732
G1 X123.654 Y110.437 E.01571
G1 X111.346 Y110.437 E.48732
G1 X111.346 Y110.834 E.01571
G1 X123.654 Y110.834 E.48732
G1 X123.654 Y111.231 E.01571
G1 X111.346 Y111.231 E.48732
G1 X111.346 Y111.627 E.01571
G1 X123.654 Y111.627 E.48732
G1 X123.654 Y112.024 E.01571
G1 X111.346 Y112.024 E.48732
G1 X111.346 Y112.421 E.01571
G1 X123.654 Y112.421 E.48732
G1 X123.654 Y112.818 E.01571
G1 X111.346 Y112.818 E.48732
G1 X111.346 Y113.214 E.01571
G1 X123.654 Y113.215 E.48732
G1 X123.654 Y113.611 E.01571
G1 X111.346 Y113.611 E.48732
G1 X111.346 Y114.008 E.01571
G1 X123.654 Y114.008 E.48732
G1 X123.654 Y114.405 E.01571
G1 X111.346 Y114.405 E.48732
G1 X111.346 Y114.802 E.01571
G1 X123.654 Y114.802 E.48732
G1 X123.654 Y115.198 E.01571
G1 X111.346 Y115.198 E.48732
G1 X111.346 Y115.595 E.01571
G1 X123.654 Y115.595 E.48732
G1 X123.654 Y115.992 E.01571
G1 X111.346 Y115.992 E.48732
G1 X111.346 Y116.389 E.01571
G1 X123.654 Y116.389 E.48732
G1 X123.654 Y116.786 E.01571
G1 X111.346 Y116.786 E.48732
G1 X111.346 Y117.182 E.01571
G1 X123.654 Y117.182 E.48732
G1 X123.654 Y117.579 E.01571
G1 X111.346 Y117.579 E.48732
G1 X111.346 Y117.976 E.01571
G1 X123.654 Y117.976 E.48732
G1 X123.654 Y118.373 E.01571
G1 X111.346 Y118.373 E.48732
G1 X111.346 Y118.77 E.01571
G1 X123.654 Y118.77 E.48732
G1 X123.654 Y119.166 E.01571
M73 P3 R16
G1 X111.346 Y119.166 E.48732
G1 X111.346 Y119.563 E.01571
G1 X123.654 Y119.563 E.48732
G1 X123.654 Y119.96 E.01571
G1 X111.346 Y119.96 E.48732
G1 X111.346 Y120.357 E.01571
G1 X123.654 Y120.357 E.48732
G1 X123.654 Y120.753 E.01571
G1 X111.346 Y120.753 E.48732
G1 X111.346 Y121.15 E.01571
G1 X123.829 Y121.15 E.49424
; stop printing object WaveOverhangPreliminaryTesting.stl id:0 copy 0
M106 S99
;LAYER_CHANGE
;Z:0.92
;HEIGHT:0.24

G1 E-.46667 F2400
;WIPE_START
G1 F7200
G1 X122.829 Y121.15 E-.33333
;WIPE_END
EXCLUDE_OBJECT_END NAME=WaveOverhangPreliminaryTesting.stl_id_0_copy_0
; AFTER_LAYER_CHANGE 3 @ 0.92mm
;_SET_FAN_SPEED_CHANGING_LAYER
; printing object WaveOverhangPreliminaryTesting.stl id:0 copy 0
SET_VELOCITY_LIMIT ACCEL=7000 ACCEL_TO_DECEL=3500
EXCLUDE_OBJECT_START NAME=WaveOverhangPreliminaryTesting.stl_id_0_copy_0
G1 X124.79 Y122.29 Z1.28 F24000
G1 Z.88
G1 E.8 F2400
SET_VELOCITY_LIMIT ACCEL=4000 ACCEL_TO_DECEL=2000
;TYPE:Outer wall
;WIDTH:0.419999
G1 F4306
G1 X110.21 Y122.29 E.53609
G1 X110.21 Y107.71 E.53609
G1 X124.79 Y107.71 E.53609
G1 X124.79 Y122.25 E.53462
SET_VELOCITY_LIMIT ACCEL=7000 ACCEL_TO_DECEL=3500
G1 X124.407 Y121.907 F24000
SET_VELOCITY_LIMIT ACCEL=6000 ACCEL_TO_DECEL=3000
;TYPE:Inner wall
;WIDTH:0.449999
G1 F4306
G1 X110.593 Y121.907 E.54923
G1 X110.593 Y108.093 E.54923
G1 X124.407 Y108.093 E.54923
G1 X124.407 Y121.867 E.54764
SET_VELOCITY_LIMIT ACCEL=7000 ACCEL_TO_DECEL=3500
G1 X124.008 Y121.508 F24000
SET_VELOCITY_LIMIT ACCEL=6000 ACCEL_TO_DECEL=3000
G1 F4306
G1 X110.992 Y121.508 E.51754
G1 X110.992 Y108.492 E.51754
G1 X124.008 Y108.492 E.51754
G1 X124.008 Y121.468 E.51595
SET_VELOCITY_LIMIT ACCEL=7000 ACCEL_TO_DECEL=3500
G1 X123.65 Y121.329 F24000
SET_VELOCITY_LIMIT ACCEL=8000 ACCEL_TO_DECEL=4000
;TYPE:Internal solid infill
;WIDTH:0.448292
G1 F4306
G1 X123.65 Y108.846 E.49424
G1 X123.253 Y108.846 E.01571
G1 X123.253 Y121.154 E.48732
G1 X122.857 Y121.154 E.01571
G1 X122.857 Y108.846 E.48732
G1 X122.46 Y108.846 E.01571
G1 X122.46 Y121.154 E.48732
G1 X122.063 Y121.154 E.01571
G1 X122.063 Y108.846 E.48732
G1 X121.666 Y108.846 E.01571
G1 X121.666 Y121.154 E.48732
G1 X121.269 Y121.154 E.01571
G1 X121.269 Y108.846 E.48732
G1 X120.873 Y108.846 E.01571
G1 X120.873 Y121.154 E.48732
G1 X120.476 Y121.154 E.01571
G1 X120.476 Y108.846 E.48732
G1 X120.079 Y108.846 E.01571
G1 X120.079 Y121.154 E.48732
G1 X119.682 Y121.154 E.01571
G1 X119.682 Y108.846 E.48732
G1 X119.286 Y108.846 E.01571
G1 X119.286 Y121.154 E.48732
G1 X118.889 Y121.154 E.01571
G1 X118.889 Y108.846 E.48732
G1 X118.492 Y108.846 E.01571
G1 X118.492 Y121.154 E.48732
G1 X118.095 Y121.154 E.01571
G1 X118.095 Y108.846 E.48732
G1 X117.698 Y108.846 E.01571
G1 X117.698 Y121.154 E.48732
G1 X117.302 Y121.154 E.01571
G1 X117.302 Y108.846 E.48732
G1 X116.905 Y108.846 E.01571
G1 X116.905 Y121.154 E.48732
G1 X116.508 Y121.154 E.01571
G1 X116.508 Y108.846 E.48732
G1 X116.111 Y108.846 E.01571
G1 X116.111 Y121.154 E.48732
G1 X115.714 Y121.154 E.01571
G1 X115.714 Y108.846 E.48732
G1 X115.318 Y108.846 E.01571
G1 X115.318 Y121.154 E.48732
G1 X114.921 Y121.154 E.01571
G1 X114.921 Y108.846 E.48732
G1 X114.524 Y108.846 E.01571
G1 X114.524 Y121.154 E.48732
G1 X114.127 Y121.154 E.01571
G1 X114.127 Y108.846 E.48732
G1 X113.73 Y108.846 E.01571
G1 X113.73 Y121.154 E.48732
G1 X113.334 Y121.154 E.01571
G1 X113.334 Y108.846 E.48732
G1 X112.937 Y108.846 E.01571
G1 X112.937 Y121.154 E.48732
G1 X112.54 Y121.154 E.01571
G1 X112.54 Y108.846 E.48732
G1 X112.143 Y108.846 E.01571
G1 X112.143 Y121.154 E.48732
G1 X111.747 Y121.154 E.01571
G1 X111.747 Y108.846 E.48732
G1 X111.35 Y108.846 E.01571
G1 X111.35 Y121.329 E.49424
; stop printing object WaveOverhangPreliminaryTesting.stl id:0 copy 0
;LAYER_CHANGE
;Z:1.16
;HEIGHT:0.24

G1 E-.46667 F2400
;WIPE_START
G1 F7200
G1 X111.35 Y120.329 E-.33333
;WIPE_END
EXCLUDE_OBJECT_END NAME=WaveOverhangPreliminaryTesting.stl_id_0_copy_0
; AFTER_LAYER_CHANGE 4 @ 1.16mm
;_SET_FAN_SPEED_CHANGING_LAYER
; printing object WaveOverhangPreliminaryTesting.stl id:0 copy 0
SET_VELOCITY_LIMIT ACCEL=7000 ACCEL_TO_DECEL=3500
EXCLUDE_OBJECT_START NAME=WaveOverhangPreliminaryTesting.stl_id_0_copy_0
G1 X118.902 Y121.431 Z1.52 F24000
G1 X124.79 Y122.29 Z1.52
G1 Z1.12
G1 E.8 F2400
SET_VELOCITY_LIMIT ACCEL=4000 ACCEL_TO_DECEL=2000
;TYPE:Outer wall
;WIDTH:0.419999
G1 F1869
G1 X110.21 Y122.29 E.53609
G1 X110.21 Y107.71 E.53609
M73 P4 R16
G1 X124.79 Y107.71 E.53609
G1 X124.79 Y122.25 E.53462
SET_VELOCITY_LIMIT ACCEL=7000 ACCEL_TO_DECEL=3500
G1 X124.407 Y121.907 F24000
SET_VELOCITY_LIMIT ACCEL=6000 ACCEL_TO_DECEL=3000
;TYPE:Inner wall
;WIDTH:0.449999
G1 F1869
G1 X110.593 Y121.907 E.54923
G1 X110.593 Y108.093 E.54923
G1 X124.407 Y108.093 E.54923
G1 X124.407 Y121.867 E.54764
SET_VELOCITY_LIMIT ACCEL=7000 ACCEL_TO_DECEL=3500
G1 X124.008 Y121.508 F24000
SET_VELOCITY_LIMIT ACCEL=6000 ACCEL_TO_DECEL=3000
G1 F1869
G1 X110.992 Y121.508 E.51754
