; HEADER_BLOCK_START
; generated by OrcaSlicer-WaveOverhangs 2.4.0-dev on 2026-05-27 at 13:00:12
; WAVE_OVERHANG_BUILD wave_overhangs_version=dev orca_base=2.4.0-dev
; WAVE_OVERHANG_CONFIG region=0 algo=andersons outer_perim=1 spacing=0.380 flow_mm3_per_mm=0.180 speed=2.0 travel=40.0 fan=100 floor_layers=2 min_angle=0.0 min_length=0.00 max_iterations=0 ring_overlap=0.15 pattern=zigzag spacing_mode=uniform seam_mode=alternating perimeter_overlap=0.10 minimum_wave_width=0.70 min_new_area=0.0100 corner_enable=0 corner_spacing=0.000 corner_taper=0.00 corner_angle=90 end_retract=0.00 nozzle_temp_override=250 min_wave_time=0.00 min_layer_time=0.00 wall_loops=3 top_shell_layers=5 bottom_shell_layers=4 infill_density=15 infill_pattern=rectilinear support_remainder=1 instead_of_bridges=0
; total layer number: 84
; filament_density: 1.27
; filament_diameter: 1.75
; max_z_height: 20.12
; filament: 1
; HEADER_BLOCK_END

; THUMBNAIL_BLOCK_START

;
; THUMBNAIL_BLOCK_END

; external perimeters extrusion width = 0.42mm
; perimeters extrusion width = 0.45mm
; infill extrusion width = 0.44mm
; solid infill extrusion width = 0.44mm
; top infill extrusion width = 0.38mm
; first layer extrusion width = 0.42mm

; EXECUTABLE_BLOCK_START
EXCLUDE_OBJECT_DEFINE NAME=FTS_Thick_OneCorner.STL_id_0_copy_0 CENTER=125,125 POLYGON=[[110,122.5],[110,107.5],[125,107.5],[140,127.5],[140,142.5],[110,142.5],[110,122.5]]
M73 P0 R26
M106 S0
M106 P2 S0
;TYPE:Custom
G9111 bedTemp=80 extruderTemp=255
M117
G90
G21
M83 ; use relative distances for extrusion
; Filament gcode
M106 S0
M106 P2 S0
;LAYER_CHANGE
;Z:0.2
;HEIGHT:0.2
 ; PURGE LINE
M204 P500
SET_VELOCITY_LIMIT SQUARE_CORNER_VELOCITY=9
G1 Z0.50 F900 ; for object exclusion
G1 X89.365 Y255 F18000
G1 Z.25 F900
G1 E0.8 F2400
G1 E0.6
G1 F3000
G1 X158.835 Y255 E3.72454
G1 X158.835 Y255.45 E.0252
G1 X89.365 Y255.45 E3.72454
G1 X89.365 Y255.02 E.02305
G1 Z0.5 F600

G1 E-1.2 F2400
; AFTER_LAYER_CHANGE 0 @ 0.2mm
;_SET_FAN_SPEED_CHANGING_LAYER
SET_VELOCITY_LIMIT ACCEL=2000 ACCEL_TO_DECEL=1000
; printing object FTS_Thick_OneCorner.STL id:0 copy 0
EXCLUDE_OBJECT_START NAME=FTS_Thick_OneCorner.STL_id_0_copy_0
G1 X105.512 Y106.86 F24000
G1 Z.56
G1 Z.16
G1 E1.2 F2400
;TYPE:Brim
;WIDTH:0.42
G1 F1200
G1 X105.737 Y105.987 E.02826
G1 X106.053 Y105.274 E.02446
G1 X106.404 Y104.736 E.02016
G1 X106.832 Y104.255 E.0202
G1 X107.326 Y103.843 E.02013
G1 X108.044 Y103.427 E.02604
G1 X108.798 Y103.134 E.02535
G1 X109.428 Y103.002 E.02018
G1 X110.006 Y102.964 E.01819
G1 X124.993 Y102.964 E.4699
G1 X125.64 Y103.012 E.02033
G1 X126.513 Y103.237 E.02826
G1 X127.226 Y103.553 E.02446
G1 X127.764 Y103.904 E.02016
G1 X128.245 Y104.332 E.0202
G1 X128.657 Y104.826 E.02013
G1 X129.073 Y105.544 E.02604
G1 X129.366 Y106.298 E.02535
G1 X129.498 Y106.928 E.02018
G1 X129.536 Y107.506 E.01819
G1 X129.536 Y122.493 E.4699
G1 X129.488 Y123.14 E.02033
G1 X129.263 Y124.012 E.02826
G1 X128.947 Y124.726 E.02446
G1 X128.596 Y125.264 E.02016
G1 X128.168 Y125.745 E.0202
G1 X127.675 Y126.157 E.02013
G1 X126.956 Y126.573 E.02604
G1 X126.202 Y126.866 E.02535
G1 X125.572 Y126.998 E.02018
G1 X124.994 Y127.036 E.01819
G1 X110.007 Y127.036 E.4699
G1 X109.36 Y126.988 E.02033
G1 X108.488 Y126.763 E.02826
G1 X107.774 Y126.447 E.02446
G1 X107.236 Y126.096 E.02016
G1 X106.755 Y125.668 E.0202
G1 X106.343 Y125.175 E.02013
G1 X105.927 Y124.456 E.02604
G1 X105.634 Y123.702 E.02535
G1 X105.502 Y123.072 E.02018
G1 X105.464 Y122.494 E.01818
G1 X105.464 Y107.507 E.4699
G1 X105.509 Y106.9 E.01908
G1 X105.886 Y106.93 F24000
G1 F1200
G1 X105.888 Y106.912 E.00055
G1 X106.092 Y106.121 E.02562
G1 X106.381 Y105.463 E.02253
G1 X106.71 Y104.959 E.01887
G1 X107.09 Y104.533 E.01791
G1 X107.535 Y104.16 E.01821
G1 X108.2 Y103.772 E.02414
G1 X108.897 Y103.5 E.02345
G1 X109.487 Y103.376 E.01891
G1 X110.022 Y103.341 E.01683
G1 X124.983 Y103.341 E.46908
G1 X125.588 Y103.388 E.01902
G1 X126.379 Y103.592 E.02562
G1 X127.037 Y103.881 E.02253
G1 X127.541 Y104.21 E.01887
G1 X127.967 Y104.59 E.01791
G1 X128.34 Y105.035 E.01821
G1 X128.728 Y105.7 E.02414
G1 X129 Y106.397 E.02345
G1 X129.122 Y106.971 E.01841
G1 X129.159 Y107.523 E.01733
G1 X129.159 Y122.483 E.46908
G1 X129.112 Y123.088 E.01902
G1 X128.908 Y123.879 E.02562
G1 X128.619 Y124.537 E.02253
G1 X128.29 Y125.041 E.01887
G1 X127.91 Y125.467 E.01791
G1 X127.465 Y125.84 E.01821
G1 X126.8 Y126.228 E.02414
G1 X126.085 Y126.505 E.02402
G1 X125.529 Y126.622 E.01783
G1 X124.985 Y126.659 E.01709
G1 X110.017 Y126.659 E.46932
G1 X109.412 Y126.612 E.01902
G1 X108.621 Y126.408 E.02562
G1 X107.963 Y126.119 E.02253
G1 X107.459 Y125.79 E.01887
G1 X107.033 Y125.41 E.01791
G1 X106.66 Y124.965 E.01821
G1 X106.272 Y124.3 E.02414
G1 X105.995 Y123.585 E.02402
G1 X105.878 Y123.029 E.01783
G1 X105.841 Y122.485 E.01709
G1 X105.841 Y107.517 E.46932
G1 X105.883 Y106.969 E.01722
G1 X106.261 Y107 F24000
G1 F1200
G1 X106.264 Y106.965 E.00111
G1 X106.447 Y106.254 E.02302
G1 X106.71 Y105.652 E.0206
G1 X107.016 Y105.182 E.01756
G1 X107.359 Y104.799 E.01615
G1 X107.745 Y104.476 E.01577
G1 X108.357 Y104.117 E.02224
G1 X108.996 Y103.866 E.02153
G1 X109.546 Y103.75 E.01763
G1 X110.039 Y103.718 E.01546
G1 X124.964 Y103.718 E.46798
G1 X125.535 Y103.764 E.01797
G1 X126.246 Y103.947 E.02302
G1 X126.848 Y104.21 E.0206
G1 X127.318 Y104.516 E.01756
G1 X127.701 Y104.859 E.01615
G1 X128.024 Y105.245 E.01577
G1 X128.383 Y105.857 E.02224
G1 X128.634 Y106.497 E.02155
G1 X128.746 Y107.016 E.01664
G1 X128.782 Y107.539 E.01645
G1 X128.782 Y122.473 E.46824
G1 X128.736 Y123.035 E.01769
G1 X128.553 Y123.746 E.02302
G1 X128.29 Y124.348 E.0206
G1 X127.984 Y124.817 E.01756
M73 P1 R26
G1 X127.641 Y125.201 E.01615
G1 X127.255 Y125.524 E.01577
G1 X126.643 Y125.883 E.02222
G1 X125.969 Y126.144 E.02269
G1 X125.469 Y126.248 E.016
G1 X124.968 Y126.282 E.01574
G1 X110.027 Y126.282 E.46847
G1 X109.465 Y126.236 E.01769
G1 X108.754 Y126.053 E.02302
G1 X108.152 Y125.79 E.0206
G1 X107.683 Y125.484 E.01756
G1 X107.299 Y125.141 E.01615
G1 X106.976 Y124.755 E.01577
G1 X106.617 Y124.143 E.02222
G1 X106.356 Y123.469 E.02269
G1 X106.252 Y122.969 E.016
G1 X106.218 Y122.468 E.01574
G1 X106.218 Y107.527 E.46847
G1 X106.258 Y107.04 E.01533
G1 X106.635 Y107.071 F24000
G1 F1200
G1 X106.639 Y107.018 E.00168
G1 X106.802 Y106.386 E.02046
G1 X107.039 Y105.84 E.01866
G1 X107.322 Y105.406 E.01624
G1 X107.617 Y105.076 E.01387
G1 X107.956 Y104.791 E.01388
G1 X108.515 Y104.462 E.02034
G1 X109.096 Y104.232 E.01961
G1 X109.606 Y104.124 E.01634
G1 X110.055 Y104.095 E.01409
G1 X124.945 Y104.095 E.46687
G1 X125.482 Y104.139 E.01692
G1 X126.114 Y104.302 E.02046
G1 X126.66 Y104.539 E.01866
G1 X127.094 Y104.822 E.01624
G1 X127.424 Y105.117 E.01387
G1 X127.709 Y105.456 E.01388
G1 X128.038 Y106.015 E.02034
G1 X128.268 Y106.598 E.01965
G1 X128.372 Y107.077 E.01537
G1 X128.405 Y107.556 E.01507
G1 X128.405 Y122.453 E.46709
G1 X128.361 Y122.982 E.01664
G1 X128.198 Y123.614 E.02046
G1 X127.961 Y124.16 E.01866
G1 X127.678 Y124.594 E.01624
G1 X127.383 Y124.924 E.01387
G1 X127.044 Y125.209 E.01388
G1 X126.47 Y125.545 E.02086
G1 X125.852 Y125.783 E.02077
G1 X125.41 Y125.874 E.01416
G1 X124.952 Y125.905 E.0144
G1 X110.038 Y125.904 E.46762
G1 X109.518 Y125.861 E.01636
M73 P1 R25
G1 X108.886 Y125.698 E.02046
G1 X108.34 Y125.461 E.01866
G1 X107.906 Y125.178 E.01624
G1 X107.576 Y124.883 E.01387
G1 X107.291 Y124.544 E.01388
G1 X106.955 Y123.97 E.02086
G1 X106.717 Y123.352 E.02077
G1 X106.626 Y122.91 E.01416
G1 X106.595 Y122.452 E.0144
G1 X106.596 Y107.538 E.46762
G1 X106.632 Y107.111 E.01342
G1 X107.009 Y107.144 F24000
G1 F1200
G1 X107.015 Y107.072 E.00226
G1 X107.158 Y106.517 E.01795
G1 X107.369 Y106.028 E.01671
G1 X107.628 Y105.629 E.01491
G1 X107.875 Y105.353 E.01161
G1 X108.167 Y105.106 E.012
G1 X108.673 Y104.806 E.01844
G1 X109.197 Y104.598 E.01767
G1 X109.666 Y104.498 E.01505
G1 X110.071 Y104.472 E.01271
G1 X124.925 Y104.472 E.46574
G1 X125.429 Y104.515 E.01587
G1 X125.983 Y104.658 E.01793
G1 X126.472 Y104.869 E.01671
G1 X126.871 Y105.128 E.01491
G1 X127.147 Y105.375 E.01161
G1 X127.394 Y105.667 E.012
G1 X127.694 Y106.173 E.01844
G1 X127.903 Y106.699 E.01774
G1 X127.998 Y107.138 E.01409
G1 X128.028 Y107.573 E.01367
G1 X128.027 Y122.433 E.46592
G1 X127.985 Y122.928 E.01559
G1 X127.842 Y123.483 E.01794
G1 X127.631 Y123.972 E.01671
G1 X127.372 Y124.371 E.01491
G1 X127.125 Y124.647 E.01161
G1 X126.833 Y124.894 E.01198
G1 X126.298 Y125.208 E.01947
G1 X125.737 Y125.422 E.01883
G1 X125.352 Y125.5 E.01232
G1 X124.935 Y125.528 E.01308
G1 X110.058 Y125.527 E.46646
G1 X109.572 Y125.485 E.01531
G1 X109.017 Y125.342 E.01795
G1 X108.528 Y125.131 E.01671
G1 X108.129 Y124.872 E.01491
G1 X107.853 Y124.625 E.01161
G1 X107.606 Y124.333 E.01198
G1 X107.292 Y123.798 E.01947
G1 X107.078 Y123.237 E.01883
G1 X107 Y122.852 E.01232
G1 X106.972 Y122.435 E.01308
G1 X106.973 Y107.558 E.46646
G1 X107.005 Y107.183 E.01179
G1 X107.382 Y107.217 F24000
G1 F1200
G1 X107.39 Y107.126 E.00285
G1 X107.513 Y106.648 E.01547
G1 X107.699 Y106.216 E.01476
G1 X107.934 Y105.853 E.01357
G1 X108.145 Y105.619 E.00985
G1 X108.379 Y105.421 E.00964
G1 X108.848 Y105.142 E.01709
G1 X109.316 Y104.958 E.01576
G1 X109.709 Y104.874 E.01262
G1 X110.079 Y104.849 E.01161
G1 X124.904 Y104.849 E.46482
G1 X125.375 Y104.89 E.01482
G1 X125.852 Y105.013 E.01545
G1 X126.284 Y105.199 E.01476
G1 X126.647 Y105.434 E.01357
G1 X126.881 Y105.645 E.00985
G1 X127.079 Y105.879 E.00964
G1 X127.35 Y106.332 E.01654
G1 X127.538 Y106.801 E.01582
G1 X127.625 Y107.199 E.0128
G1 X127.651 Y107.59 E.01227
G1 X127.65 Y122.412 E.46474
G1 X127.61 Y122.874 E.01454
G1 X127.487 Y123.352 E.01546
G1 X127.301 Y123.784 E.01476
G1 X127.066 Y124.147 E.01357
G1 X126.855 Y124.381 E.00985
G1 X126.622 Y124.578 E.00959
G1 X126.125 Y124.87 E.01806
G1 X125.622 Y125.061 E.01687
G1 X125.294 Y125.126 E.01049
G1 X124.919 Y125.151 E.01178
G1 X110.079 Y125.15 E.46528
G1 X109.626 Y125.11 E.01426
G1 X109.148 Y124.987 E.01547
G1 X108.716 Y124.801 E.01476
G1 X108.353 Y124.566 E.01357
G1 X108.119 Y124.355 E.00985
G1 X107.922 Y124.122 E.00959
G1 X107.63 Y123.625 E.01806
G1 X107.439 Y123.122 E.01687
G1 X107.374 Y122.794 E.01049
G1 X107.349 Y122.419 E.01178
G1 X107.35 Y107.579 E.46528
G1 X107.379 Y107.257 E.01015
G1 X107.758 Y107.322 F24000
G1 F1200
G1 X107.824 Y106.936 E.01228
G1 X107.95 Y106.565 E.01227
G1 X108.166 Y106.19 E.01358
G1 X108.425 Y105.888 E.01247
G1 X108.615 Y105.735 E.00765
G1 X109.207 Y105.4 E.02133
G1 X109.591 Y105.283 E.0126
G1 X110.04 Y105.226 E.01417
G1 X124.951 Y105.226 E.46753
G1 X125.565 Y105.324 E.01949
G1 X125.935 Y105.45 E.01226
G1 X126.306 Y105.662 E.0134
G1 X126.492 Y105.809 E.00744
G1 X126.653 Y105.97 E.00713
G1 X127.052 Y106.595 E.02325
G1 X127.097 Y106.696 E.00348
G1 X127.217 Y107.091 E.01294
G1 X127.274 Y107.54 E.01417
G1 X127.274 Y122.451 E.46753
G1 X127.176 Y123.065 E.01949
G1 X127.05 Y123.435 E.01226
M73 P2 R25
G1 X126.838 Y123.806 E.01339
G1 X126.691 Y123.992 E.00744
G1 X126.53 Y124.153 E.00713
G1 X125.905 Y124.552 E.02325
G1 X125.804 Y124.597 E.00348
G1 X125.409 Y124.717 E.01294
G1 X124.96 Y124.774 E.01417
G1 X110.049 Y124.774 E.46753
G1 X109.435 Y124.676 E.01949
G1 X109.065 Y124.55 E.01226
G1 X108.694 Y124.338 E.01339
G1 X108.508 Y124.191 E.00744
G1 X108.347 Y124.03 E.00713
G1 X107.948 Y123.405 E.02325
G1 X107.903 Y123.304 E.00348
G1 X107.783 Y122.909 E.01294
G1 X107.726 Y122.46 E.01417
G1 X107.733 Y107.467 E.47011
G1 X107.751 Y107.361 E.00336
G1 X108.123 Y107.425 F24000
G1 F1200
G1 X108.197 Y106.991 E.01381
G1 X108.276 Y106.755 E.00778
G1 X108.452 Y106.436 E.01144
G1 X108.661 Y106.181 E.01033
G1 X108.802 Y106.063 E.00577
G1 X109.304 Y105.764 E.0183
G1 X109.71 Y105.641 E.01329
G1 X110.033 Y105.603 E.01019
G1 X124.96 Y105.603 E.46804
G1 X125.509 Y105.697 E.01747
G1 X125.745 Y105.776 E.00778
G1 X126.065 Y105.952 E.01148
G1 X126.263 Y106.109 E.00791
G1 X126.39 Y106.239 E.0057
G1 X126.734 Y106.798 E.02059
G1 X126.859 Y107.21 E.01347
G1 X126.897 Y107.533 E.01019
G1 X126.897 Y122.46 E.46804
G1 X126.803 Y123.009 E.01747
G1 X126.724 Y123.245 E.00778
G1 X126.548 Y123.565 E.01148
G1 X126.391 Y123.763 E.00791
G1 X126.261 Y123.89 E.0057
G1 X125.702 Y124.234 E.02059
G1 X125.29 Y124.359 E.01347
G1 X124.967 Y124.397 E.01019
G1 X110.04 Y124.397 E.46804
G1 X109.491 Y124.303 E.01747
G1 X109.255 Y124.224 E.00778
G1 X108.935 Y124.048 E.01148
G1 X108.737 Y123.891 E.00791
G1 X108.61 Y123.761 E.0057
G1 X108.266 Y123.202 E.02059
G1 X108.141 Y122.79 E.01347
G1 X108.103 Y122.467 E.01019
G1 X108.103 Y107.54 E.46803
G1 X108.116 Y107.465 E.00241
G1 X108.48 Y107.531 F24000
G1 F1200
G1 X108.569 Y107.053 E.01522
G1 X108.633 Y106.875 E.00594
G1 X108.742 Y106.676 E.00712
G1 X108.909 Y106.465 E.00844
G1 X108.998 Y106.385 E.00373
G1 X109.408 Y106.126 E.01522
G1 X109.75 Y106.016 E.01124
G1 X110.026 Y105.98 E.00873
G1 X124.969 Y105.98 E.46855
G1 X125.447 Y106.069 E.01522
G1 X125.625 Y106.133 E.00594
G1 X125.824 Y106.242 E.00712
G1 X126.035 Y106.409 E.00844
G1 X126.115 Y106.498 E.00373
G1 X126.374 Y106.908 E.01522
G1 X126.484 Y107.25 E.01124
G1 X126.52 Y107.526 E.00873
G1 X126.52 Y122.469 E.46855
G1 X126.431 Y122.947 E.01522
G1 X126.367 Y123.125 E.00594
G1 X126.258 Y123.324 E.00712
G1 X126.091 Y123.535 E.00844
G1 X126.002 Y123.615 E.00373
G1 X125.592 Y123.874 E.01522
G1 X125.25 Y123.984 E.01124
G1 X124.974 Y124.02 E.00873
G1 X110.031 Y124.02 E.46855
G1 X109.553 Y123.931 E.01522
G1 X109.375 Y123.867 E.00594
G1 X109.176 Y123.758 E.00712
G1 X108.965 Y123.591 E.00844
G1 X108.885 Y123.502 E.00373
G1 X108.626 Y123.092 E.01522
G1 X108.516 Y122.75 E.01124
G1 X108.48 Y122.474 E.00873
G1 X108.48 Y107.571 E.46729
G1 X108.857 Y107.571 F24000
G1 F1200
G1 X108.857 Y107.52 E.00158
G1 X108.94 Y107.123 E.01271
G1 X108.985 Y107.01 E.00382
G1 X109.072 Y106.858 E.0055
G1 X109.203 Y106.701 E.00641
G1 X109.521 Y106.486 E.01203
G1 X109.797 Y106.39 E.00915
G1 X110.019 Y106.357 E.00703
G1 X124.98 Y106.357 E.4691
G1 X125.377 Y106.44 E.01271
G1 X125.49 Y106.485 E.00382
G1 X125.642 Y106.572 E.0055
G1 X125.799 Y106.703 E.00641
G1 X126.014 Y107.021 E.01203
G1 X126.11 Y107.297 E.00915
G1 X126.143 Y107.519 E.00703
G1 X126.143 Y122.48 E.4691
G1 X126.06 Y122.877 E.01271
G1 X126.015 Y122.99 E.00382
G1 X125.928 Y123.142 E.0055
G1 X125.797 Y123.299 E.00642
G1 X125.479 Y123.514 E.01203
G1 X125.203 Y123.61 E.00915
G1 X124.981 Y123.643 E.00703
G1 X110.02 Y123.643 E.4691
G1 X109.623 Y123.56 E.01271
G1 X109.51 Y123.515 E.00382
G1 X109.358 Y123.428 E.0055
G1 X109.201 Y123.297 E.00642
G1 X108.986 Y122.979 E.01203
G1 X108.89 Y122.703 E.00915
G1 X108.857 Y122.481 E.00703
G1 X108.857 Y107.611 E.46627
G1 X109.234 Y107.611 F24000
G1 F1200
G1 X109.234 Y107.508 E.0032
G1 X109.307 Y107.205 E.00977
G1 X109.404 Y107.038 E.00606
G1 X109.485 Y106.951 E.00371
G1 X109.649 Y106.841 E.00622
G1 X109.858 Y106.762 E.00698
G1 X110.01 Y106.734 E.00487
G1 X124.992 Y106.734 E.46973
G1 X125.295 Y106.807 E.00977
G1 X125.462 Y106.904 E.00606
G1 X125.549 Y106.985 E.00371
G1 X125.659 Y107.149 E.00622
G1 X125.738 Y107.358 E.00698
G1 X125.766 Y107.51 E.00487
G1 X125.766 Y122.492 E.46973
G1 X125.693 Y122.795 E.00977
G1 X125.596 Y122.962 E.00606
G1 X125.515 Y123.049 E.00371
G1 X125.351 Y123.159 E.00622
G1 X125.142 Y123.238 E.00698
G1 X124.99 Y123.266 E.00487
G1 X110.008 Y123.266 E.46973
G1 X109.705 Y123.193 E.00977
G1 X109.538 Y123.096 E.00606
G1 X109.451 Y123.015 E.00371
G1 X109.341 Y122.851 E.00622
G1 X109.262 Y122.642 E.00698
G1 X109.234 Y122.49 E.00487
G1 X109.234 Y107.651 E.46528
G1 X109.611 Y107.651 F24000
G1 F1200
G1 X109.611 Y107.5 E.00472
G1 X109.672 Y107.304 E.00643
G1 X109.77 Y107.198 E.00452
G1 X110 Y107.111 E.00771
G1 X125 Y107.111 E.47031
G1 X125.196 Y107.172 E.00643
M73 P3 R25
G1 X125.302 Y107.27 E.00452
G1 X125.389 Y107.5 E.00771
G1 X125.389 Y122.5 E.47031
G1 X125.328 Y122.696 E.00643
G1 X125.23 Y122.802 E.00452
G1 X125 Y122.889 E.00771
G1 X110 Y122.889 E.47031
G1 X109.804 Y122.828 E.00643
G1 X109.698 Y122.73 E.00452
G1 X109.611 Y122.5 E.00771
G1 X109.611 Y107.691 E.46434
;WIPE_START
G1 X109.611 Y107.5 E-.22862
G1 X109.672 Y107.304 E-.24617
G1 X109.77 Y107.198 E-.17316
G1 X110 Y107.111 E-.29512
