; HEADER_BLOCK_START
; generated by OrcaSlicer-WaveOverhangs 2.4.0-dev on 2026-05-26 at 15:09:13
; WAVE_OVERHANG_BUILD wave_overhangs_version=dev orca_base=2.4.0-dev
; WAVE_OVERHANG_CONFIG region=0 algo=andersons outer_perim=1 spacing=0.380 flow_mm3_per_mm=0.180 speed=2.0 travel=40.0 fan=100 floor_layers=2 min_angle=0.0 min_length=0.00 max_iterations=0 ring_overlap=0.15 pattern=smart spacing_mode=uniform seam_mode=alternating perimeter_overlap=0.10 minimum_wave_width=0.70 min_new_area=0.0100 corner_enable=0 corner_spacing=0.000 corner_taper=0.00 corner_angle=90 end_retract=0.00 nozzle_temp_override=250 min_wave_time=0.00 min_layer_time=0.00 wall_loops=3 top_shell_layers=5 bottom_shell_layers=4 infill_density=15 infill_pattern=rectilinear support_remainder=1 instead_of_bridges=0
; WAVE_OVERHANG_CONFIG region=1 algo=andersons outer_perim=1 spacing=0.380 flow_mm3_per_mm=0.180 speed=2.0 travel=40.0 fan=100 floor_layers=2 min_angle=0.0 min_length=0.00 max_iterations=0 ring_overlap=0.15 pattern=zigzag spacing_mode=uniform seam_mode=alternating perimeter_overlap=0.10 minimum_wave_width=0.70 min_new_area=0.0100 corner_enable=0 corner_spacing=0.000 corner_taper=0.00 corner_angle=90 end_retract=0.00 nozzle_temp_override=250 min_wave_time=0.00 min_layer_time=0.00 wall_loops=3 top_shell_layers=5 bottom_shell_layers=4 infill_density=15 infill_pattern=rectilinear support_remainder=1 instead_of_bridges=0
; WAVE_OVERHANG_CONFIG region=2 algo=andersons outer_perim=1 spacing=0.380 flow_mm3_per_mm=0.180 speed=2.0 travel=40.0 fan=100 floor_layers=2 min_angle=0.0 min_length=0.00 max_iterations=0 ring_overlap=0.15 pattern=zigzag spacing_mode=uniform seam_mode=alternating perimeter_overlap=0.10 minimum_wave_width=0.70 min_new_area=0.0100 corner_enable=0 corner_spacing=0.000 corner_taper=0.00 corner_angle=90 end_retract=0.00 nozzle_temp_override=250 min_wave_time=0.00 min_layer_time=0.00 wall_loops=3 top_shell_layers=5 bottom_shell_layers=4 infill_density=15 infill_pattern=rectilinear support_remainder=1 instead_of_bridges=0
; WAVE_OVERHANG_CONFIG region=3 algo=andersons outer_perim=1 spacing=0.380 flow_mm3_per_mm=0.180 speed=2.0 travel=40.0 fan=100 floor_layers=2 min_angle=0.0 min_length=0.00 max_iterations=0 ring_overlap=0.15 pattern=zigzag spacing_mode=uniform seam_mode=alternating perimeter_overlap=0.10 minimum_wave_width=0.70 min_new_area=0.0100 corner_enable=0 corner_spacing=0.000 corner_taper=0.00 corner_angle=90 end_retract=0.00 nozzle_temp_override=250 min_wave_time=0.00 min_layer_time=0.00 wall_loops=3 top_shell_layers=5 bottom_shell_layers=4 infill_density=15 infill_pattern=rectilinear support_remainder=1 instead_of_bridges=0
; WAVE_OVERHANG_CONFIG region=4 algo=andersons outer_perim=1 spacing=0.380 flow_mm3_per_mm=0.180 speed=2.0 travel=40.0 fan=100 floor_layers=2 min_angle=0.0 min_length=0.00 max_iterations=0 ring_overlap=0.15 pattern=smart spacing_mode=uniform seam_mode=alternating perimeter_overlap=0.10 minimum_wave_width=0.70 min_new_area=0.0100 corner_enable=0 corner_spacing=0.000 corner_taper=0.00 corner_angle=90 end_retract=0.00 nozzle_temp_override=250 min_wave_time=0.00 min_layer_time=0.00 wall_loops=3 top_shell_layers=5 bottom_shell_layers=4 infill_density=15 infill_pattern=rectilinear support_remainder=1 instead_of_bridges=0
; total layer number: 394
; filament_density: 1.27
; filament_diameter: 1.75
; max_z_height: 21.08
; filament: 1
; HEADER_BLOCK_END

; THUMBNAIL_BLOCK_START

;
; THUMBNAIL_BLOCK_END

; external perimeters extrusion width = 0.42mm
; perimeters extrusion width = 0.45mm
; infill extrusion width = 0.44mm
; solid infill extrusion width = 0.44mm
; top infill extrusion width = 0.38mm
; first layer extrusion width = 0.42mm

; external perimeters extrusion width = 0.42mm
; perimeters extrusion width = 0.45mm
; infill extrusion width = 0.44mm
; solid infill extrusion width = 0.44mm
; top infill extrusion width = 0.38mm
; first layer extrusion width = 0.42mm

; external perimeters extrusion width = 0.42mm
; perimeters extrusion width = 0.45mm
; infill extrusion width = 0.44mm
; solid infill extrusion width = 0.44mm
; top infill extrusion width = 0.38mm
; first layer extrusion width = 0.42mm

; external perimeters extrusion width = 0.42mm
; perimeters extrusion width = 0.45mm
; infill extrusion width = 0.44mm
; solid infill extrusion width = 0.44mm
; top infill extrusion width = 0.38mm
; first layer extrusion width = 0.42mm

; external perimeters extrusion width = 0.42mm
; perimeters extrusion width = 0.45mm
; infill extrusion width = 0.44mm
; solid infill extrusion width = 0.44mm
; top infill extrusion width = 0.38mm
; first layer extrusion width = 0.42mm

; EXECUTABLE_BLOCK_START
EXCLUDE_OBJECT_DEFINE NAME=FTS_Bridge.STL_id_0_copy_0 CENTER=47.5786,190.391 POLYGON=[[32.5786,197.891],[32.5786,162.891],[47.5786,162.891],[62.5786,182.891],[62.5786,217.891],[47.5786,217.891],[32.5786,197.891]]
EXCLUDE_OBJECT_DEFINE NAME=FTS_Curved_Incline.stl_id_1_copy_0 CENTER=192.816,49.2545 POLYGON=[[167.111,28.9019],[182.111,28.9019],[218.521,43.9019],[218.35,46.4863],[217.927,49.0371],[217.257,51.5301],[216.348,53.9413],[215.208,56.2479],[213.85,58.4279],[212.288,60.4608],[210.536,62.3276],[208.614,64.0109],[206.539,65.495],[204.332,66.7663],[202.015,67.8134],[199.611,68.6269],[197.143,69.1997],[194.635,69.5273],[192.111,69.6072],[189.595,69.4395],[187.113,69.0268],[184.687,68.3738],[182.341,67.4876],[180.097,66.3776],[177.976,65.0551],[175.999,63.5338],[174.184,61.8289],[172.547,59.9575],[171.104,57.9381],[169.868,55.7907],[168.851,53.5364],[168.061,51.1974],[167.505,48.7963],[167.187,46.3566],[167.111,43.9019],[167.111,28.9019]]
EXCLUDE_OBJECT_DEFINE NAME=FTS_Thick_OneCorner.STL_id_2_copy_0 CENTER=121.956,120.445 POLYGON=[[106.956,117.945],[106.956,102.945],[121.956,102.945],[136.956,122.945],[136.956,137.945],[106.956,137.945],[106.956,117.945]]
EXCLUDE_OBJECT_DEFINE NAME=FTS_Loop_Narrow.STL_id_3_copy_0 CENTER=191.244,204.179 POLYGON=[[163.831,201.679],[184.315,192.179],[198.172,192.179],[218.657,201.679],[218.657,206.679],[198.172,216.179],[184.315,216.179],[163.831,206.679],[163.831,201.679]]
EXCLUDE_OBJECT_DEFINE NAME=FTS_Loop_Holes.STL_id_4_copy_0 CENTER=48.2876,47.7326 POLYGON=[[30.8032,46.7852],[31.0081,44.9015],[31.4154,43.0509],[32.0204,41.2552],[32.8161,39.5355],[33.793,37.9119],[34.9397,36.4034],[36.2428,35.0277],[37.3368,34.0743],[37.687,33.801],[38.3923,33.292],[39.2553,32.7376],[40.9294,31.8501],[42.6897,31.1487],[44.5155,30.6418],[46.3854,30.3352],[48.2775,30.2326],[50.1696,30.3352],[52.0395,30.6418],[53.8653,31.1487],[55.6256,31.85],[57.2997,32.7376],[58.8681,33.801],[60.3123,35.0277],[61.6154,36.4033],[62.7621,37.9118],[63.739,39.5354],[64.5346,41.2552],[65.1397,43.0508],[65.547,44.9014],[65.7519,46.7852],[65.7556,46.8572],[65.7719,48.1762],[65.7519,48.68],[65.547,50.5638],[65.1397,52.4143],[64.5347,54.21],[63.739,55.9297],[62.7621,57.5534],[61.6154,59.0619],[60.3123,60.4375],[58.8681,61.6642],[57.2998,62.7276],[55.6256,63.6152],[53.8654,64.3165],[52.0396,64.8235],[50.1697,65.13],[48.2776,65.2326],[46.3855,65.13],[44.5156,64.8235],[42.6898,64.3166],[40.9295,63.6152],[39.2554,62.7276],[37.687,61.6643],[36.2428,60.4376],[34.9397,59.0619],[33.793,57.5534],[32.8161,55.9298],[32.0205,54.2101],[31.4154,52.4144],[31.0081,50.5639],[30.8032,48.6801],[30.8032,46.7852]]
M73 P0 R138
M106 S0
M106 P2 S0
;TYPE:Custom
G9111 bedTemp=80 extruderTemp=255
M117
G90
G21
M83 ; use relative distances for extrusion
; Filament gcode
M106 S0
M106 P2 S0
;LAYER_CHANGE
;Z:0.2
;HEIGHT:0.2
 ; PURGE LINE
M204 P500
SET_VELOCITY_LIMIT SQUARE_CORNER_VELOCITY=9
G1 Z0.50 F900 ; for object exclusion
G1 X89.365 Y255 F18000
G1 Z.25 F900
G1 E0.8 F2400
G1 E0.6
G1 F3000
G1 X158.835 Y255 E3.72454
G1 X158.835 Y255.45 E.0252
G1 X89.365 Y255.45 E3.72454
G1 X89.365 Y255.02 E.02305
G1 Z0.5 F600

G1 E-.8 F2400
; AFTER_LAYER_CHANGE 0 @ 0.2mm
;_SET_FAN_SPEED_CHANGING_LAYER
SET_VELOCITY_LIMIT ACCEL=2000 ACCEL_TO_DECEL=1000
; printing object FTS_Bridge.STL id:0 copy 0
EXCLUDE_OBJECT_START NAME=FTS_Bridge.STL_id_0_copy_0
G1 X41.246 Y225.252 F24000
G1 Z.56
G1 Z.16
G1 E.8 F2400
;TYPE:Brim
;WIDTH:0.42
G1 F3600
G1 X40.54 Y224.585 E.03044
G1 X39.906 Y223.85 E.03044
G1 X39.349 Y223.055 E.03044
G1 X38.876 Y222.207 E.03044
G1 X38.489 Y221.316 E.03047
G1 X38.253 Y220.602 E.02356
G1 X38.017 Y219.603 E.0322
G1 X37.892 Y218.639 E.03046
G1 X37.863 Y217.887 E.0236
G1 X37.863 Y202.896 E.47005
G1 X37.912 Y201.921 E.03059
G1 X38.059 Y200.962 E.03044
G1 X38.301 Y200.022 E.03044
G1 X38.638 Y199.111 E.03044
G1 X39.065 Y198.235 E.03055
G1 X39.625 Y197.326 E.03347
G1 X40.217 Y196.558 E.03042
G1 X40.884 Y195.853 E.03044
G1 X41.619 Y195.218 E.03044
G1 X42.415 Y194.662 E.03044
G1 X43.262 Y194.188 E.03044
G1 X44.153 Y193.801 E.03046
G1 X44.92 Y193.55 E.02529
G1 X45.866 Y193.329 E.03048
G1 X46.83 Y193.205 E.03047
G1 X47.582 Y193.175 E.0236
G1 X62.574 Y193.175 E.47005
G1 X63.548 Y193.225 E.03059
G1 X64.508 Y193.371 E.03044
G1 X65.448 Y193.614 E.03044
G1 X66.358 Y193.949 E.03042
G1 X67.318 Y194.424 E.03357
G1 X68.143 Y194.937 E.03045
G1 X68.912 Y195.529 E.03044
G1 X69.617 Y196.197 E.03044
G1 X70.251 Y196.932 E.03044
G1 X70.808 Y197.727 E.03044
G1 X71.282 Y198.574 E.03044
G1 X71.668 Y199.466 E.03046
G1 X71.919 Y200.232 E.02529
G1 X72.14 Y201.179 E.03048
G1 X72.265 Y202.142 E.03047
G1 X72.294 Y202.894 E.0236
G1 X72.294 Y217.886 E.47005
G1 X72.245 Y218.86 E.03059
G1 X72.098 Y219.82 E.03044
G1 X71.856 Y220.76 E.03044
G1 X71.52 Y221.671 E.03044
G1 X71.092 Y222.546 E.03055
G1 X70.533 Y223.455 E.03347
G1 X69.94 Y224.224 E.03042
G1 X69.273 Y224.929 E.03044
G1 X68.538 Y225.563 E.03044
G1 X67.743 Y226.12 E.03044
G1 X66.895 Y226.594 E.03044
G1 X66.004 Y226.98 E.03047
G1 X65.29 Y227.216 E.02356
G1 X64.291 Y227.452 E.0322
G1 X63.327 Y227.577 E.03046
G1 X62.575 Y227.606 E.0236
G1 X47.583 Y227.606 E.47005
G1 X46.609 Y227.557 E.03059
G1 X45.649 Y227.411 E.03044
G1 X44.709 Y227.168 E.03044
G1 X43.799 Y226.832 E.03044
G1 X42.923 Y226.404 E.03055
G1 X42.014 Y225.845 E.03347
G1 X41.277 Y225.277 E.02917
G1 X41.507 Y224.978 F24000
G1 F3600
G1 X41.495 Y224.969 E.00047
G1 X40.81 Y224.32 E.0296
G1 X40.201 Y223.613 E.02924
G1 X39.666 Y222.849 E.02924
G1 X39.212 Y222.035 E.02924
G1 X38.844 Y221.186 E.02901
G1 X38.618 Y220.504 E.02252
G1 X38.39 Y219.541 E.03104
G1 X38.268 Y218.602 E.02966
G1 X38.24 Y217.878 E.02275
G1 X38.24 Y202.908 E.46936
G1 X38.288 Y201.965 E.0296
G1 X38.43 Y201.032 E.0296
G1 X38.664 Y200.129 E.02924
G1 X38.983 Y199.265 E.02888
G1 X39.399 Y198.413 E.02973
G1 X39.932 Y197.546 E.03192
G1 X40.501 Y196.808 E.02921
G1 X41.141 Y196.13 E.02924
G1 X41.847 Y195.52 E.02924
G1 X42.611 Y194.985 E.02924
G1 X43.424 Y194.529 E.02924
G1 X44.283 Y194.156 E.02933
G1 X45.026 Y193.913 E.02454
G1 X45.939 Y193.7 E.02939
G1 X46.857 Y193.581 E.02901
G1 X47.592 Y193.552 E.02306
G1 X62.567 Y193.552 E.46954
G1 X63.516 Y193.601 E.02978
G1 X64.438 Y193.742 E.02924
G1 X65.341 Y193.976 E.02924
G1 X66.214 Y194.299 E.02921
G1 X67.13 Y194.752 E.03202
G1 X67.932 Y195.25 E.02963
G1 X68.662 Y195.813 E.02888
G1 X69.34 Y196.453 E.02924
G1 X69.956 Y197.168 E.0296
G1 X70.491 Y197.932 E.02924
G1 X70.94 Y198.736 E.02888
G1 X71.313 Y199.595 E.02933
G1 X71.557 Y200.339 E.02454
G1 X71.769 Y201.251 E.02939
G1 X71.888 Y202.169 E.02901
G1 X71.917 Y202.904 E.02306
G1 X71.917 Y217.874 E.46936
G1 X71.87 Y218.817 E.0296
G1 X71.727 Y219.75 E.0296
G1 X71.494 Y220.653 E.02924
G1 X71.175 Y221.517 E.02888
G1 X70.758 Y222.369 E.02973
G1 X70.225 Y223.236 E.03192
G1 X69.657 Y223.974 E.02921
G1 X69.008 Y224.66 E.0296
G1 X68.301 Y225.268 E.02924
G1 X67.537 Y225.803 E.02924
G1 X66.723 Y226.258 E.02924
G1 X65.874 Y226.625 E.02901
G1 X65.192 Y226.851 E.02252
G1 X64.229 Y227.08 E.03104
G1 X63.29 Y227.201 E.02966
G1 X62.565 Y227.229 E.02275
G1 X47.596 Y227.229 E.46936
G1 X46.653 Y227.182 E.0296
G1 X45.72 Y227.039 E.0296
G1 X44.817 Y226.806 E.02924
G1 X43.953 Y226.487 E.02888
G1 X43.101 Y226.07 E.02973
G1 X42.234 Y225.537 E.03192
G1 X41.539 Y225.002 E.02749
G1 X41.769 Y224.703 F24000
G1 F3600
G1 X41.745 Y224.685 E.00093
G1 X41.087 Y224.063 E.0284
G1 X40.503 Y223.386 E.02804
G1 X39.984 Y222.644 E.0284
G1 X39.548 Y221.862 E.02805
G1 X39.199 Y221.056 E.02755
G1 X38.983 Y220.406 E.02148
G1 X38.763 Y219.479 E.02988
G1 X38.644 Y218.566 E.02886
G1 X38.617 Y217.868 E.02189
G1 X38.617 Y202.92 E.46868
G1 X38.663 Y202.009 E.02861
G1 X38.802 Y201.102 E.02876
G1 X39.023 Y200.247 E.02769
G1 X39.328 Y199.418 E.02769
G1 X39.733 Y198.59 E.02891
G1 X40.24 Y197.765 E.03036
G1 X40.784 Y197.057 E.028
G1 X41.398 Y196.407 E.02805
G1 X42.075 Y195.822 E.02805
G1 X42.807 Y195.308 E.02805
G1 X43.587 Y194.87 E.02805
G1 X44.412 Y194.511 E.0282
G1 X45.133 Y194.275 E.02379
G1 X46.012 Y194.071 E.0283
G1 X46.884 Y193.958 E.02755
G1 X47.602 Y193.929 E.02253
G1 X62.555 Y193.93 E.46885
G1 X63.483 Y193.977 E.02915
G1 X64.367 Y194.114 E.02805
G1 X65.233 Y194.338 E.02805
G1 X66.07 Y194.648 E.028
G1 X66.941 Y195.079 E.03046
G1 X67.722 Y195.564 E.02881
G1 X68.421 Y196.104 E.02769
G1 X69.062 Y196.71 E.02769
G1 X69.662 Y197.405 E.02876
G1 X70.168 Y198.128 E.02769
G1 X70.599 Y198.899 E.0277
G1 X70.958 Y199.724 E.0282
G1 X71.194 Y200.445 E.02379
G1 X71.399 Y201.324 E.0283
G1 X71.511 Y202.196 E.02755
G1 X71.54 Y202.914 E.02253
G1 X71.54 Y217.861 E.46867
G1 X71.494 Y218.773 E.02861
G1 X71.356 Y219.679 E.02876
G1 X71.135 Y220.534 E.02769
G1 X70.829 Y221.363 E.02769
G1 X70.425 Y222.191 E.02891
G1 X69.917 Y223.016 E.03036
G1 X69.373 Y223.724 E.02799
G1 X68.751 Y224.382 E.0284
G1 X68.074 Y224.967 E.02804
G1 X67.331 Y225.486 E.0284
G1 X66.55 Y225.921 E.02805
G1 X65.744 Y226.271 E.02755
G1 X65.094 Y226.487 E.02148
G1 X64.166 Y226.707 E.02988
G1 X63.254 Y226.825 E.02886
G1 X62.556 Y226.852 E.0219
G1 X47.608 Y226.852 E.46868
G1 X46.697 Y226.806 E.02861
G1 X45.79 Y226.668 E.02876
G1 X44.935 Y226.447 E.02769
G1 X44.106 Y226.142 E.02769
G1 X43.278 Y225.737 E.02891
G1 X42.453 Y225.229 E.03036
G1 X41.801 Y224.728 E.0258
G1 X42.031 Y224.428 F24000
G1 F3600
G1 X41.986 Y224.394 E.00176
G1 X41.356 Y223.798 E.02719
G1 X40.797 Y223.149 E.02684
G1 X40.301 Y222.438 E.0272
G1 X39.884 Y221.69 E.02685
G1 X39.553 Y220.926 E.0261
G1 X39.347 Y220.307 E.02044
G1 X39.135 Y219.416 E.02872
G1 X39.02 Y218.529 E.02805
G1 X38.994 Y217.859 E.02104
G1 X38.994 Y202.933 E.46799
G1 X39.038 Y202.053 E.02763
G1 X39.173 Y201.172 E.02792
G1 X39.382 Y200.365 E.02614
G1 X39.673 Y199.572 E.02649
G1 X40.066 Y198.767 E.02809
G1 X40.548 Y197.984 E.02882
G1 X41.068 Y197.307 E.02679
G1 X41.656 Y196.684 E.02685
G1 X42.303 Y196.123 E.02685
G1 X43.003 Y195.63 E.02685
G1 X43.75 Y195.211 E.02685
G1 X44.541 Y194.866 E.02706
G1 X45.239 Y194.637 E.02304
G1 X46.085 Y194.442 E.0272
G1 X46.91 Y194.335 E.0261
G1 X47.611 Y194.307 E.022
G1 X62.542 Y194.307 E.46814
G1 X63.45 Y194.354 E.02852
G1 X64.296 Y194.485 E.02685
G1 X65.125 Y194.7 E.02685
G1 X65.926 Y194.998 E.02679
G1 X66.753 Y195.407 E.02892
G1 X67.511 Y195.878 E.02799
G1 X68.179 Y196.395 E.0265
G1 X68.785 Y196.967 E.02614
G1 X69.367 Y197.641 E.02791
G1 X69.851 Y198.334 E.02649
G1 X70.258 Y199.062 E.02616
G1 X70.603 Y199.853 E.02707
G1 X70.832 Y200.552 E.02304
G1 X71.028 Y201.397 E.0272
G1 X71.135 Y202.223 E.0261
G1 X71.163 Y202.923 E.022
G1 X71.163 Y217.849 E.46798
G1 X71.119 Y218.729 E.02763
G1 X70.984 Y219.609 E.02792
G1 X70.776 Y220.416 E.02614
G1 X70.484 Y221.209 E.02649
G1 X70.091 Y222.014 E.02809
G1 X69.609 Y222.797 E.02882
G1 X69.082 Y223.483 E.02714
G1 X68.486 Y224.113 E.02719
G1 X67.837 Y224.672 E.02684
G1 X67.126 Y225.169 E.0272
G1 X66.378 Y225.585 E.02685
G1 X65.614 Y225.916 E.0261
G1 X64.995 Y226.122 E.02044
G1 X64.104 Y226.334 E.02872
G1 X63.217 Y226.449 E.02805
G1 X62.546 Y226.475 E.02104
G1 X47.62 Y226.475 E.46799
G1 X46.74 Y226.431 E.02763
G1 X45.86 Y226.297 E.02792
G1 X45.053 Y226.088 E.02614
G1 X44.26 Y225.796 E.02649
G1 X43.455 Y225.403 E.02809
G1 X42.672 Y224.922 E.02882
G1 X42.062 Y224.453 E.02412
G1 X42.292 Y224.154 F24000
G1 F3600
G1 X42.236 Y224.11 E.00222
G1 X41.634 Y223.541 E.02599
G1 X41.092 Y222.913 E.026
G1 X40.618 Y222.233 E.026
G1 X40.221 Y221.518 E.02566
