; HEADER_BLOCK_START
; generated by OrcaSlicer-WaveOverhangs 2.4.0-dev on 2026-05-28 at 12:08:14
; WAVE_OVERHANG_BUILD wave_overhangs_version=dev orca_base=2.4.0-dev
; WAVE_OVERHANG_CONFIG region=0 algo=andersons outer_perim=1 spacing=0.380 flow_mm3_per_mm=0.180 speed=2.0 travel=40.0 fan=100 floor_layers=2 min_angle=0.0 min_length=0.00 max_iterations=0 ring_overlap=0.15 pattern=zigzag spacing_mode=uniform seam_mode=alternating perimeter_overlap=0.10 minimum_wave_width=0.70 min_new_area=0.0100 corner_enable=0 corner_spacing=0.000 corner_taper=0.00 corner_angle=90 end_retract=0.00 nozzle_temp_override=260 min_wave_time=0.00 min_layer_time=0.00 wall_loops=3 top_shell_layers=5 bottom_shell_layers=4 infill_density=15 infill_pattern=rectilinear support_remainder=1 instead_of_bridges=0
; total layer number: 54
; filament_density: 1.27
; filament_diameter: 1.75
; max_z_height: 12.92
; filament: 1
; HEADER_BLOCK_END

; THUMBNAIL_BLOCK_START

;
; THUMBNAIL_BLOCK_END

; external perimeters extrusion width = 0.42mm
; perimeters extrusion width = 0.45mm
; infill extrusion width = 0.44mm
; solid infill extrusion width = 0.44mm
; top infill extrusion width = 0.38mm
; first layer extrusion width = 0.42mm

; EXECUTABLE_BLOCK_START
EXCLUDE_OBJECT_DEFINE NAME=FTS_Loop_Narrow.STL_id_0_copy_0 CENTER=125,125 POLYGON=[[97.587,122.5],[118.072,113],[131.928,113],[152.413,122.5],[152.413,127.5],[131.928,137],[118.072,137],[97.587,127.5],[97.587,122.5]]
M73 P0 R17
M106 S0
M106 P2 S0
;TYPE:Custom
G9111 bedTemp=80 extruderTemp=255
M117
G90
G21
M83 ; use relative distances for extrusion
; Filament gcode
M106 S0
M106 P2 S0
;LAYER_CHANGE
;Z:0.2
;HEIGHT:0.2
 ; PURGE LINE
M204 P500
SET_VELOCITY_LIMIT SQUARE_CORNER_VELOCITY=9
G1 Z0.50 F900 ; for object exclusion
G1 X89.365 Y255 F18000
G1 Z.25 F900
G1 E0.8 F2400
G1 E0.6
G1 F3000
G1 X158.835 Y255 E3.72454
G1 X158.835 Y255.45 E.0252
G1 X89.365 Y255.45 E3.72454
G1 X89.365 Y255.02 E.02305
G1 Z0.5 F600

G1 E-1.2 F2400
; AFTER_LAYER_CHANGE 0 @ 0.2mm
;_SET_FAN_SPEED_CHANGING_LAYER
SET_VELOCITY_LIMIT ACCEL=2000 ACCEL_TO_DECEL=1000
; printing object FTS_Loop_Narrow.STL id:0 copy 0
EXCLUDE_OBJECT_START NAME=FTS_Loop_Narrow.STL_id_0_copy_0
G1 X109.245 Y126.688 F24000
G1 Z.56
G1 Z.16
G1 E1.2 F2400
;TYPE:Brim
;WIDTH:0.42
G1 F1200
G1 X109.054 Y126.072 E.0202
G1 X108.956 Y125.432 E.0203
G1 X108.944 Y125.102 E.01038
G1 X108.992 Y124.256 E.02656
G1 X109.134 Y123.629 E.02015
G1 X109.369 Y123.026 E.0203
G1 X109.526 Y122.729 E.01055
G1 X115.294 Y112.738 E.36171
G1 X115.661 Y112.2 E.02042
G1 X116.098 Y111.727 E.0202
G1 X116.603 Y111.323 E.02026
G1 X117.054 Y111.047 E.01659
G1 X117.639 Y110.765 E.02034
G1 X118.254 Y110.575 E.0202
G1 X118.894 Y110.477 E.0203
G1 X119.23 Y110.464 E.01055
G1 X130.766 Y110.464 E.36171
G1 X131.416 Y110.512 E.02042
G1 X132.044 Y110.654 E.0202
G1 X132.646 Y110.889 E.02026
G1 X133.111 Y111.142 E.01659
G1 X133.647 Y111.508 E.02034
G1 X134.12 Y111.945 E.0202
G1 X134.525 Y112.45 E.0203
G1 X134.704 Y112.735 E.01055
G1 X140.472 Y122.726 E.36171
G1 X140.755 Y123.312 E.02042
G1 X140.946 Y123.928 E.0202
G1 X141.044 Y124.568 E.0203
G1 X141.056 Y124.898 E.01038
G1 X141.008 Y125.744 E.02656
G1 X140.866 Y126.371 E.02015
G1 X140.631 Y126.974 E.0203
G1 X140.474 Y127.271 E.01055
G1 X134.706 Y137.262 E.36171
G1 X134.339 Y137.8 E.02042
G1 X133.902 Y138.273 E.0202
G1 X133.397 Y138.677 E.02026
G1 X132.946 Y138.953 E.01659
G1 X132.361 Y139.235 E.02034
G1 X131.746 Y139.425 E.0202
G1 X131.106 Y139.523 E.0203
G1 X130.77 Y139.536 E.01055
G1 X119.234 Y139.536 E.36171
G1 X118.584 Y139.488 E.02042
G1 X117.956 Y139.346 E.0202
G1 X117.354 Y139.111 E.02026
G1 X116.889 Y138.858 E.01659
G1 X116.353 Y138.492 E.02034
G1 X115.88 Y138.055 E.0202
G1 X115.475 Y137.55 E.0203
G1 X115.296 Y137.265 E.01055
G1 X109.528 Y127.274 E.36171
G1 X109.262 Y126.724 E.01916
G1 X109.602 Y126.56 F24000
G1 F1200
G1 X109.601 Y126.557 E.00011
G1 X109.425 Y125.996 E.01843
G1 X109.333 Y125.403 E.01881
G1 X109.321 Y125.111 E.00917
G1 X109.369 Y124.3 E.02547
G1 X109.499 Y123.732 E.01825
G1 X109.711 Y123.189 E.01829
G1 X115.616 Y112.935 E.37102
G1 X115.952 Y112.442 E.0187
M73 P1 R17
G1 X116.35 Y112.01 E.01843
G1 X116.814 Y111.637 E.01866
G1 X117.23 Y111.382 E.0153
G1 X117.785 Y111.115 E.01931
G1 X118.347 Y110.942 E.01843
G1 X118.936 Y110.852 E.01869
G1 X130.757 Y110.841 E.37062
G1 X131.351 Y110.885 E.0187
G1 X131.925 Y111.014 E.01843
G1 X132.493 Y111.235 E.01911
G1 X132.919 Y111.468 E.0152
G1 X133.418 Y111.809 E.01896
G1 X133.848 Y112.209 E.01843
G1 X134.223 Y112.679 E.01882
G1 X140.136 Y122.898 E.37021
G1 X140.399 Y123.443 E.01897
G1 X140.578 Y124.021 E.01896
G1 X140.667 Y124.597 E.01829
G1 X140.679 Y124.9 E.00951
G1 X140.631 Y125.7 E.02513
G1 X140.501 Y126.268 E.01825
G1 X140.289 Y126.811 E.01829
G1 X134.384 Y137.065 E.37101
G1 X134.048 Y137.558 E.0187
G1 X133.65 Y137.99 E.01843
G1 X133.186 Y138.363 E.01866
G1 X132.76 Y138.624 E.01565
G1 X132.23 Y138.879 E.01844
G1 X131.669 Y139.054 E.01843
G1 X131.076 Y139.146 E.01881
G1 X130.76 Y139.159 E.00992
G1 X119.252 Y139.159 E.36084
G1 X118.632 Y139.112 E.01949
G1 X118.059 Y138.981 E.01843
G1 X117.507 Y138.765 E.01859
G1 X117.081 Y138.532 E.0152
G1 X116.582 Y138.191 E.01896
G1 X116.152 Y137.791 E.01843
G1 X115.777 Y137.321 E.01882
G1 X109.86 Y127.094 E.37048
G1 X109.619 Y126.596 E.01734
G1 X109.959 Y126.432 F24000
G1 F1200
G1 X109.956 Y126.426 E.00024
G1 X109.796 Y125.918 E.01668
G1 X109.71 Y125.372 E.01733
G1 X109.699 Y125.12 E.00793
G1 X109.746 Y124.344 E.02436
G1 X109.863 Y123.836 E.01636
G1 X110.056 Y123.345 E.01653
G1 X115.938 Y113.132 E.36954
G1 X116.243 Y112.684 E.01699
G1 X116.603 Y112.292 E.01668
G1 X117.026 Y111.95 E.01706
G1 X117.406 Y111.716 E.01399
G1 X117.931 Y111.464 E.01827
G1 X118.44 Y111.309 E.01666
G1 X118.974 Y111.229 E.01693
G1 X130.747 Y111.218 E.36915
G1 X131.288 Y111.259 E.01699
G1 X131.806 Y111.374 E.01666
G1 X132.34 Y111.581 E.01795
G1 X132.726 Y111.793 E.0138
G1 X133.188 Y112.11 E.01757
G1 X133.576 Y112.473 E.01667
G1 X133.915 Y112.899 E.01706
G1 X139.801 Y123.071 E.36849
G1 X140.044 Y123.574 E.01751
G1 X140.211 Y124.114 E.01772
G1 X140.29 Y124.627 E.01628
G1 X140.301 Y124.902 E.00863
G1 X140.254 Y125.656 E.02368
G1 X140.137 Y126.164 E.01636
G1 X139.944 Y126.655 E.01653
G1 X134.062 Y136.868 E.36954
G1 X133.757 Y137.316 E.01699
G1 X133.397 Y137.708 E.01668
G1 X132.974 Y138.05 E.01705
G1 X132.574 Y138.295 E.0147
G1 X132.099 Y138.524 E.01654
G1 X131.592 Y138.684 E.01668
G1 X131.046 Y138.77 E.01732
G1 X130.75 Y138.782 E.00928
G1 X119.27 Y138.782 E.35995
G1 X118.68 Y138.736 E.01855
M73 P1 R16
G1 X118.163 Y138.617 E.01667
G1 X117.66 Y138.419 E.01692
G1 X117.274 Y138.207 E.01381
G1 X116.812 Y137.89 E.01757
G1 X116.424 Y137.527 E.01667
G1 X116.085 Y137.101 E.01706
G1 X110.191 Y126.914 E.36902
G1 X109.977 Y126.468 E.0155
G1 X110.316 Y126.305 F24000
G1 F1200
G1 X110.311 Y126.294 E.00038
G1 X110.167 Y125.84 E.01493
G1 X110.087 Y125.341 E.01584
G1 X110.077 Y125.128 E.00667
G1 X110.122 Y124.389 E.02323
G1 X110.227 Y123.94 E.01445
G1 X110.401 Y123.502 E.01478
G1 X116.256 Y113.336 E.36782
G1 X116.535 Y112.926 E.01557
G1 X116.856 Y112.574 E.01493
G1 X117.239 Y112.263 E.01546
G1 X117.582 Y112.051 E.01265
G1 X118.077 Y111.814 E.0172
G1 X118.531 Y111.677 E.01489
G1 X119.01 Y111.606 E.01517
G1 X130.737 Y111.596 E.3677
G1 X131.224 Y111.632 E.0153
G1 X131.688 Y111.734 E.01489
G1 X132.187 Y111.927 E.01677
G1 X132.533 Y112.118 E.01237
M73 P2 R16
G1 X132.957 Y112.411 E.01618
G1 X133.304 Y112.736 E.0149
G1 X133.606 Y113.119 E.0153
G1 X139.465 Y123.244 E.3668
G1 X139.688 Y123.705 E.01605
G1 X139.844 Y124.207 E.01647
G1 X139.913 Y124.657 E.01427
G1 X139.923 Y124.904 E.00775
G1 X139.878 Y125.61 E.02221
G1 X139.773 Y126.06 E.01447
G1 X139.599 Y126.498 E.01478
G1 X133.74 Y136.671 E.36809
G1 X133.465 Y137.074 E.0153
G1 X133.144 Y137.426 E.01493
G1 X132.762 Y137.736 E.01543
G1 X132.388 Y137.966 E.01375
G1 X131.967 Y138.169 E.01466
G1 X131.513 Y138.313 E.01493
G1 X131.015 Y138.393 E.01583
G1 X130.74 Y138.405 E.00863
G1 X119.289 Y138.405 E.35902
G1 X118.73 Y138.361 E.01761
G1 X118.267 Y138.252 E.0149
G1 X117.814 Y138.073 E.01526
G1 X117.467 Y137.882 E.01242
G1 X117.043 Y137.589 E.01618
G1 X116.696 Y137.264 E.0149
G1 X116.394 Y136.881 E.0153
G1 X110.523 Y126.733 E.36758
G1 X110.334 Y126.341 E.01367
G1 X110.673 Y126.177 F24000
G1 F1200
G1 X110.666 Y126.161 E.00054
G1 X110.537 Y125.761 E.01319
G1 X110.464 Y125.308 E.01437
G1 X110.455 Y125.137 E.00537
G1 X110.499 Y124.435 E.02207
G1 X110.591 Y124.045 E.01254
G1 X110.745 Y123.659 E.01305
G1 X116.573 Y113.54 E.36612
G1 X116.827 Y113.167 E.01416
G1 X117.11 Y112.855 E.01319
G1 X117.452 Y112.575 E.01386
G1 X117.758 Y112.385 E.01128
G1 X118.222 Y112.164 E.01611
G1 X118.622 Y112.045 E.0131
G1 X119.046 Y111.983 E.01343
G1 X130.728 Y111.973 E.36628
G1 X131.161 Y112.006 E.01363
G1 X131.57 Y112.094 E.01312
G1 X132.034 Y112.273 E.01558
G1 X132.339 Y112.442 E.01093
G1 X132.726 Y112.711 E.01477
G1 X133.03 Y112.998 E.01313
G1 X133.298 Y113.339 E.01356
G1 X139.13 Y123.418 E.36512
G1 X139.333 Y123.836 E.01458
G1 X139.477 Y124.3 E.01523
G1 X139.536 Y124.687 E.01227
G1 X139.545 Y124.905 E.00685
G1 X139.501 Y125.564 E.02071
G1 X139.409 Y125.955 E.01258
G1 X139.255 Y126.341 E.01305
G1 X133.422 Y136.467 E.36638
G1 X133.173 Y136.833 E.0139
G1 X132.89 Y137.145 E.0132
G1 X132.549 Y137.423 E.0138
G1 X132.202 Y137.637 E.01278
G1 X131.835 Y137.814 E.01279
G1 X131.434 Y137.943 E.01319
G1 X130.983 Y138.016 E.01434
G1 X130.729 Y138.028 E.00797
G1 X119.309 Y138.028 E.35807
G1 X118.779 Y137.985 E.01665
G1 X118.372 Y137.889 E.01312
G1 X117.969 Y137.728 E.0136
G1 X117.661 Y137.558 E.01103
G1 X117.274 Y137.289 E.01477
G1 X116.97 Y137.002 E.01313
G1 X116.702 Y136.661 E.01356
G1 X110.855 Y126.553 E.36616
G1 X110.691 Y126.213 E.01184
G1 X111.03 Y126.049 F24000
G1 F1200
G1 X111.02 Y126.028 E.00072
G1 X110.908 Y125.68 E.01147
G1 X110.834 Y125.155 E.01662
G1 X110.875 Y124.481 E.02118
G1 X110.955 Y124.152 E.01062
G1 X111.09 Y123.817 E.01132
G1 X116.891 Y113.744 E.36445
G1 X117.12 Y113.407 E.01277
G1 X117.365 Y113.136 E.01147
G1 X117.667 Y112.887 E.01225
G1 X117.934 Y112.72 E.00988
G1 X118.366 Y112.515 E.015
G1 X118.712 Y112.413 E.0113
G1 X119.081 Y112.361 E.01171
G1 X130.718 Y112.351 E.36487
G1 X131.099 Y112.379 E.01199
G1 X131.453 Y112.455 E.01134
G1 X131.881 Y112.62 E.01437
G1 X132.144 Y112.766 E.00946
G1 X132.494 Y113.01 E.01336
G1 X132.756 Y113.26 E.01137
G1 X132.989 Y113.557 E.01183
G1 X138.795 Y123.591 E.36347
G1 X138.977 Y123.967 E.01312
G1 X139.11 Y124.393 E.01398
G1 X139.159 Y124.717 E.01027
G1 X139.167 Y124.907 E.00595
G1 X139.125 Y125.517 E.01919
G1 X139.045 Y125.848 E.01068
G1 X138.91 Y126.183 E.01132
G1 X133.104 Y136.263 E.36471
G1 X132.88 Y136.593 E.01251
G1 X132.635 Y136.864 E.01147
G1 X132.336 Y137.111 E.01215
G1 X132.016 Y137.308 E.0118
G1 X131.687 Y137.465 E.01142
G1 X131.354 Y137.572 E.01098
G1 X130.95 Y137.639 E.01284
M73 P3 R16
G1 X130.717 Y137.651 E.0073
G1 X119.329 Y137.651 E.35708
G1 X118.83 Y137.61 E.01568
G1 X118.478 Y137.525 E.01134
G1 X118.124 Y137.383 E.01196
G1 X117.856 Y137.234 E.00964
G1 X117.506 Y136.99 E.01336
G1 X117.244 Y136.74 E.01137
G1 X117.012 Y136.443 E.01183
G1 X111.186 Y126.373 E.36476
G1 X111.048 Y126.085 E.01001
G1 X111.413 Y125.941 F24000
G1 F1200
G1 X111.287 Y125.623 E.0107
G1 X111.248 Y125.422 E.00642
G1 X111.215 Y125.076 E.01091
G1 X111.255 Y124.542 E.01677
G1 X111.469 Y123.904 E.02112
G1 X117.235 Y113.901 E.36201
G1 X117.604 Y113.436 E.01861
G1 X117.759 Y113.302 E.00643
G1 X118.045 Y113.098 E.01101
G1 X118.611 Y112.84 E.0195
G1 X119.273 Y112.726 E.02108
G1 X130.727 Y112.726 E.35912
G1 X131.389 Y112.84 E.02108
G1 X131.955 Y113.098 E.0195
G1 X132.241 Y113.302 E.01101
G1 X132.396 Y113.436 E.00643
G1 X132.765 Y113.901 E.01861
G1 X138.494 Y123.825 E.35929
G1 X138.713 Y124.377 E.01861
G1 X138.752 Y124.578 E.00643
G1 X138.785 Y124.928 E.011
G1 X138.726 Y125.547 E.0195
G1 X138.493 Y126.177 E.02108
G1 X132.764 Y136.101 E.35928
G1 X132.503 Y136.448 E.01361
G1 X132.351 Y136.606 E.00686
G1 X131.755 Y137.011 E.02258
G1 X131.236 Y137.204 E.01736
G1 X130.733 Y137.274 E.01592
G1 X119.269 Y137.274 E.35946
G1 X118.746 Y137.198 E.01657
G1 X118.221 Y136.999 E.01761
G1 X117.65 Y136.607 E.0217
G1 X117.497 Y136.448 E.00693
G1 X117.236 Y136.101 E.01361
G1 X111.506 Y126.175 E.35937
G1 X111.428 Y125.978 E.00665
G1 X111.772 Y125.84 F24000
G1 F1200
G1 X111.658 Y125.555 E.00961
G1 X111.624 Y125.392 E.00522
G1 X111.59 Y125.031 E.01138
G1 X111.631 Y124.569 E.01453
G1 X111.827 Y124.022 E.01825
G1 X117.566 Y114.082 E.35985
G1 X117.848 Y113.723 E.01433
G1 X117.973 Y113.612 E.00522
G1 X118.272 Y113.4 E.01151
G1 X118.768 Y113.183 E.01696
G1 X119.265 Y113.103 E.01579
G1 X130.735 Y113.103 E.35964
G1 X131.232 Y113.183 E.01579
G1 X131.728 Y113.4 E.01696
G1 X132.027 Y113.612 E.01151
G1 X132.152 Y113.723 E.00522
G1 X132.434 Y114.082 E.01433
G1 X138.172 Y124.021 E.35982
G1 X138.342 Y124.445 E.01433
G1 X138.376 Y124.608 E.00522
G1 X138.41 Y124.974 E.01151
G1 X138.35 Y125.511 E.01696
G1 X138.171 Y125.982 E.01579
G1 X132.434 Y135.918 E.35975
G1 X132.2 Y136.224 E.01208
G1 X132.078 Y136.346 E.00538
G1 X131.627 Y136.656 E.01718
G1 X131.191 Y136.829 E.0147
G1 X130.741 Y136.897 E.01426
G1 X119.261 Y136.897 E.35996
G1 X118.793 Y136.824 E.01484
G1 X118.352 Y136.645 E.01492
G1 X117.923 Y136.347 E.01639
G1 X117.8 Y136.224 E.00544
G1 X117.566 Y135.918 E.01208
G1 X111.828 Y125.979 E.35984
G1 X111.787 Y125.877 E.00346
G1 X112.132 Y125.738 F24000
G1 F1200
G1 X112.027 Y125.476 E.00883
G1 X112 Y125.363 E.00365
G1 X111.964 Y124.985 E.0119
G1 X112.006 Y124.605 E.01199
G1 X112.15 Y124.218 E.01294
G1 X117.897 Y114.264 E.36038
G1 X118.101 Y114.003 E.01039
G1 X118.186 Y113.923 E.00365
G1 X118.498 Y113.701 E.01203
G1 X118.826 Y113.555 E.01125
G1 X119.256 Y113.48 E.01368
G1 X130.744 Y113.48 E.36021
G1 X131.174 Y113.555 E.01368
M73 P4 R16
G1 X131.502 Y113.701 E.01125
G1 X131.814 Y113.923 E.01203
G1 X131.899 Y114.003 E.00365
G1 X132.103 Y114.264 E.01039
G1 X137.849 Y124.216 E.36032
G1 X137.973 Y124.524 E.01039
G1 X138 Y124.637 E.00365
G1 X138.036 Y125.019 E.01203
G1 X137.999 Y125.376 E.01125
G1 X137.848 Y125.785 E.01368
G1 X132.103 Y135.736 E.36026
G1 X131.899 Y135.997 E.01039
G1 X131.815 Y136.076 E.0036
G1 X131.407 Y136.35 E.01542
G1 X131.053 Y136.478 E.01181
G1 X130.75 Y136.52 E.0096
G1 X119.252 Y136.52 E.3605
G1 X118.845 Y136.45 E.01294
G1 X118.495 Y136.297 E.01199
G1 X118.186 Y136.077 E.0119
G1 X118.101 Y135.997 E.00365
G1 X117.897 Y135.736 E.01039
G1 X112.151 Y125.784 E.36032
G1 X112.147 Y125.775 E.00031
G1 X112.473 Y125.588 F24000
G1 F1200
G1 X112.376 Y125.335 E.0085
G1 X112.339 Y124.938 E.01251
G1 X112.38 Y124.649 E.00916
G1 X112.471 Y124.415 E.00788
G1 X118.227 Y114.446 E.36093
G1 X118.398 Y114.235 E.0085
G1 X118.726 Y114.002 E.01262
G1 X118.977 Y113.9 E.0085
G1 X119.246 Y113.857 E.00854
G1 X130.754 Y113.857 E.36082
G1 X131.023 Y113.9 E.00854
G1 X131.274 Y114.002 E.0085
G1 X131.602 Y114.235 E.01262
G1 X131.773 Y114.446 E.0085
G1 X137.527 Y124.412 E.36082
G1 X137.624 Y124.665 E.0085
G1 X137.661 Y125.065 E.01262
G1 X137.624 Y125.334 E.0085
G1 X137.527 Y125.588 E.00854
G1 X131.773 Y135.554 E.36082
G1 X131.602 Y135.765 E.0085
G1 X131.277 Y135.996 E.01251
G1 X131.006 Y136.104 E.00916
G1 X130.757 Y136.143 E.00788
G1 X119.243 Y136.143 E.36104
G1 X118.994 Y136.104 E.00788
G1 X118.723 Y135.996 E.00916
G1 X118.398 Y135.765 E.01251
G1 X118.227 Y135.554 E.0085
G1 X112.493 Y125.623 E.35957
G1 X112.82 Y125.434 F24000
G1 F1200
G1 X112.795 Y125.392 E.00153
G1 X112.73 Y125.205 E.00622
G1 X112.715 Y124.908 E.00933
G1 X112.752 Y124.711 E.00627
G1 X112.794 Y124.611 E.00341
G1 X118.558 Y114.626 E.36148
G1 X118.688 Y114.476 E.00622
G1 X118.94 Y114.313 E.00943
G1 X119.038 Y114.272 E.00332
G1 X119.237 Y114.234 E.00636
G1 X130.763 Y114.234 E.36138
G1 X130.962 Y114.272 E.00636
G1 X131.06 Y114.313 E.00332
G1 X131.312 Y114.476 E.00943
G1 X131.442 Y114.626 E.00622
G1 X137.205 Y124.608 E.36138
G1 X137.27 Y124.795 E.00622
G1 X137.285 Y125.095 E.00943
G1 X137.272 Y125.201 E.00332
G1 X137.205 Y125.392 E.00636
G1 X131.442 Y135.374 E.36138
