; HEADER_BLOCK_START
; generated by OrcaSlicer-WaveOverhangs 2.4.0-dev on 2026-05-28 at 11:15:20
; WAVE_OVERHANG_BUILD wave_overhangs_version=dev orca_base=2.4.0-dev
; WAVE_OVERHANG_CONFIG region=0 algo=andersons outer_perim=1 spacing=0.380 flow_mm3_per_mm=0.180 speed=2.0 travel=40.0 fan=100 floor_layers=2 min_angle=0.0 min_length=0.00 max_iterations=0 ring_overlap=0.15 pattern=zigzag spacing_mode=uniform seam_mode=alternating perimeter_overlap=0.10 minimum_wave_width=0.70 min_new_area=0.0100 corner_enable=0 corner_spacing=0.000 corner_taper=0.00 corner_angle=90 end_retract=0.00 nozzle_temp_override=260 min_wave_time=0.00 min_layer_time=0.00 wall_loops=3 top_shell_layers=5 bottom_shell_layers=4 infill_density=15 infill_pattern=rectilinear support_remainder=1 instead_of_bridges=0
; total layer number: 84
; filament_density: 1.27
; filament_diameter: 1.75
; max_z_height: 20.12
; filament: 1
; HEADER_BLOCK_END

; THUMBNAIL_BLOCK_START

;
; THUMBNAIL_BLOCK_END

; external perimeters extrusion width = 0.42mm
; perimeters extrusion width = 0.45mm
; infill extrusion width = 0.44mm
; solid infill extrusion width = 0.44mm
; top infill extrusion width = 0.38mm
; first layer extrusion width = 0.42mm

; EXECUTABLE_BLOCK_START
EXCLUDE_OBJECT_DEFINE NAME=FTS_Loop_Holes.STL_id_0_copy_0 CENTER=125,125 POLYGON=[[107.516,124.053],[107.721,122.169],[108.128,120.318],[108.733,118.523],[109.529,116.803],[110.505,115.179],[111.652,113.671],[112.955,112.295],[114.049,111.342],[114.399,111.068],[115.105,110.559],[115.968,110.005],[117.642,109.117],[119.402,108.416],[121.228,107.909],[123.098,107.603],[124.99,107.5],[126.882,107.603],[128.752,107.909],[130.578,108.416],[132.338,109.117],[134.012,110.005],[135.58,111.068],[137.025,112.295],[138.328,113.671],[139.475,115.179],[140.451,116.803],[141.247,118.523],[141.852,120.318],[142.259,122.169],[142.464,124.053],[142.468,124.125],[142.484,125.444],[142.464,125.947],[142.259,127.831],[141.852,129.682],[141.247,131.477],[140.451,133.197],[139.475,134.821],[138.328,136.329],[137.025,137.705],[135.581,138.932],[134.012,139.995],[132.338,140.883],[130.578,141.584],[128.752,142.091],[126.882,142.397],[124.99,142.5],[123.098,142.397],[121.228,142.091],[119.402,141.584],[117.642,140.883],[115.968,139.995],[114.399,138.932],[112.955,137.705],[111.652,136.329],[110.505,134.821],[109.529,133.197],[108.733,131.477],[108.128,129.682],[107.721,127.831],[107.516,125.947],[107.516,124.053]]
M73 P0 R32
M106 S0
M106 P2 S0
;TYPE:Custom
G9111 bedTemp=80 extruderTemp=255
M117
G90
G21
M83 ; use relative distances for extrusion
; Filament gcode
M106 S0
M106 P2 S0
;LAYER_CHANGE
;Z:0.2
;HEIGHT:0.2
 ; PURGE LINE
M204 P500
SET_VELOCITY_LIMIT SQUARE_CORNER_VELOCITY=9
G1 Z0.50 F900 ; for object exclusion
G1 X89.365 Y255 F18000
G1 Z.25 F900
G1 E0.8 F2400
G1 E0.6
G1 F3000
G1 X158.835 Y255 E3.72454
G1 X158.835 Y255.45 E.0252
G1 X89.365 Y255.45 E3.72454
G1 X89.365 Y255.02 E.02305
G1 Z0.5 F600

G1 E-1.2 F2400
; AFTER_LAYER_CHANGE 0 @ 0.2mm
;_SET_FAN_SPEED_CHANGING_LAYER
SET_VELOCITY_LIMIT ACCEL=2000 ACCEL_TO_DECEL=1000
; printing object FTS_Loop_Holes.STL id:0 copy 0
EXCLUDE_OBJECT_START NAME=FTS_Loop_Holes.STL_id_0_copy_0
G1 X110.698 Y127.647 F24000
G1 Z.56
G1 Z.16
G1 E1.2 F2400
;TYPE:Brim
;WIDTH:0.42
G1 F1200
G1 X110.49 Y125.901 E.05512
G1 X110.464 Y125.243 E.02067
G1 X110.531 Y123.514 E.05425
G1 X110.823 Y121.78 E.05513
G1 X110.984 Y121.14 E.02067
G1 X111.546 Y119.473 E.05517
G1 X112.309 Y117.911 E.0545
G1 X112.643 Y117.344 E.02063
G1 X113.647 Y115.91 E.05491
G1 X114.813 Y114.632 E.05424
G1 X115.294 Y114.181 E.02068
G1 X116.644 Y113.099 E.05425
G1 X118.134 Y112.192 E.05469
G1 X118.717 Y111.897 E.02047
G1 X120.359 Y111.222 E.05569
G1 X122.034 Y110.776 E.05434
G1 X122.683 Y110.656 E.02068
G1 X124.403 Y110.476 E.05425
G1 X126.147 Y110.519 E.05469
G1 X126.796 Y110.586 E.02047
G1 X128.543 Y110.906 E.05569
G1 X130.194 Y111.436 E.05434
G1 X130.804 Y111.686 E.02067
G1 X132.373 Y112.479 E.05514
G1 X133.804 Y113.451 E.05425
G1 X134.32 Y113.863 E.0207
G1 X135.358 Y114.823 E.04431
G1 X135.809 Y115.304 E.02069
G1 X136.907 Y116.678 E.05513
G1 X137.805 Y118.156 E.05425
G1 X138.103 Y118.745 E.02067
G1 X138.769 Y120.372 E.05512
G1 X139.282 Y122.353 E.06417
G1 X139.49 Y124.099 E.05512
G1 X139.516 Y124.757 E.02067
G1 X139.449 Y126.487 E.05429
G1 X139.154 Y128.23 E.05541
G1 X138.994 Y128.868 E.02061
G1 X138.434 Y130.526 E.05489
G1 X137.676 Y132.081 E.05424
G1 X137.341 Y132.649 E.02068
G1 X136.35 Y134.068 E.05425
G1 X135.167 Y135.368 E.05514
G1 X134.686 Y135.819 E.02067
G1 X133.336 Y136.901 E.05425
G1 X131.846 Y137.808 E.05469
G1 X131.263 Y138.103 E.02047
G1 X129.621 Y138.778 E.05569
G1 X127.946 Y139.224 E.05434
G1 X127.297 Y139.344 E.02067
G1 X125.549 Y139.525 E.05512
G1 X123.503 Y139.459 E.06418
G1 X121.77 Y139.167 E.05511
G1 X121.13 Y139.006 E.02067
G1 X119.464 Y138.444 E.05513
G1 X117.909 Y137.686 E.05425
G1 X117.341 Y137.351 E.02068
G1 X115.922 Y136.36 E.05425
G1 X114.622 Y135.177 E.05514
G1 X114.171 Y134.696 E.02067
G1 X113.073 Y133.323 E.05513
G1 X112.175 Y131.844 E.05425
G1 X111.877 Y131.255 E.02067
G1 X111.211 Y129.628 E.05512
G1 X110.708 Y127.686 E.06292
G1 X111.073 Y127.591 F24000
G1 F1200
G1 X111.071 Y127.585 E.00021
G1 X110.867 Y125.876 E.05395
G1 X110.841 Y125.238 E.02002
G1 X110.906 Y123.56 E.05266
G1 X111.192 Y121.862 E.05399
G1 X111.347 Y121.243 E.02001
G1 X111.893 Y119.624 E.05357
G1 X112.639 Y118.094 E.05336
G1 X112.963 Y117.545 E.01998
G1 X113.938 Y116.152 E.05331
G1 X115.079 Y114.9 E.0531
G1 X115.545 Y114.463 E.02003
G1 X116.867 Y113.405 E.05311
G1 X118.314 Y112.524 E.0531
G1 X118.878 Y112.239 E.01982
G1 X120.473 Y111.583 E.05409
G1 X122.113 Y111.145 E.0532
G1 X122.741 Y111.029 E.02003
G1 X124.426 Y110.854 E.05311
G1 X126.119 Y110.895 E.0531
G1 X126.747 Y110.96 E.01982
G1 X128.444 Y111.271 E.05409
G1 X130.06 Y111.789 E.0532
G1 X130.651 Y112.031 E.02002
G1 X132.175 Y112.801 E.05354
G1 X133.577 Y113.752 E.05311
G1 X134.077 Y114.152 E.02008
G1 X135.089 Y115.088 E.04322
G1 X135.527 Y115.555 E.02007
G1 X136.593 Y116.888 E.05354
G1 X137.473 Y118.336 E.05311
G1 X137.761 Y118.906 E.02002
G1 X138.412 Y120.498 E.05395
G1 X138.909 Y122.415 E.06209
G1 X139.113 Y124.124 E.05395
G1 X139.139 Y124.762 E.02002
G1 X139.074 Y126.441 E.05269
G1 X138.786 Y128.148 E.05427
G1 X138.63 Y128.765 E.01996
G1 X138.087 Y130.376 E.05329
G1 X137.345 Y131.898 E.0531
G1 X137.021 Y132.449 E.02003
G1 X136.05 Y133.837 E.05311
G1 X134.901 Y135.1 E.05354
G1 X134.435 Y135.537 E.02002
G1 X133.113 Y136.595 E.05311
G1 X131.666 Y137.476 E.0531
G1 X131.102 Y137.761 E.01982
G1 X129.493 Y138.422 E.05455
G1 X127.867 Y138.855 E.05274
G1 X127.239 Y138.971 E.02002
G1 X125.528 Y139.147 E.05395
G1 X123.548 Y139.083 E.0621
G1 X121.852 Y138.798 E.05394
G1 X121.232 Y138.643 E.02002
G1 X119.615 Y138.097 E.05354
G1 X118.092 Y137.355 E.05312
G1 X117.541 Y137.031 E.02003
G1 X116.153 Y136.06 E.05311
G1 X114.89 Y134.911 E.05354
G1 X114.453 Y134.445 E.02001
G1 X113.387 Y133.112 E.05353
G1 X112.507 Y131.664 E.05312
G1 X112.219 Y131.094 E.02002
G1 X111.568 Y129.502 E.05395
G1 X111.083 Y127.63 E.06062
G1 X111.448 Y127.535 F24000
G1 F1200
G1 X111.444 Y127.522 E.00043
G1 X111.243 Y125.851 E.05278
G1 X111.219 Y125.233 E.01937
G1 X111.282 Y123.606 E.05108
G1 X111.56 Y121.943 E.05285
G1 X111.711 Y121.345 E.01936
G1 X112.241 Y119.774 E.05197
G1 X112.97 Y118.276 E.05223
G1 X113.283 Y117.745 E.01932
G1 X114.229 Y116.394 E.05172
G1 X115.345 Y115.168 E.05197
G1 X115.795 Y114.746 E.01938
G1 X117.079 Y113.719 E.05153
G1 X118.494 Y112.856 E.05196
G1 X119.039 Y112.58 E.01917
G1 X120.601 Y111.939 E.05295
G1 X122.191 Y111.514 E.0516
G1 X122.799 Y111.402 E.01938
G1 X124.433 Y111.232 E.05152
G1 X126.09 Y111.272 E.05197
G1 X126.698 Y111.334 E.01917
G1 X128.345 Y111.636 E.05249
G1 X129.926 Y112.142 E.05206
G1 X130.498 Y112.376 E.01937
G1 X131.977 Y113.124 E.05195
G1 X133.349 Y114.054 E.05198
G1 X133.834 Y114.441 E.01945
G1 X134.82 Y115.353 E.04212
G1 X135.244 Y115.805 E.01944
G1 X136.279 Y117.099 E.05195
G1 X137.141 Y118.515 E.05198
G1 X137.419 Y119.067 E.01937
G1 X138.055 Y120.625 E.05278
G1 X138.536 Y122.478 E.06002
G1 X138.737 Y124.149 E.05278
G1 X138.761 Y124.767 E.01937
G1 X138.698 Y126.395 E.0511
G1 X138.417 Y128.066 E.05312
G1 X138.267 Y128.663 E.0193
G1 X137.74 Y130.226 E.0517
G1 X137.015 Y131.716 E.05197
G1 X136.701 Y132.249 E.01938
G1 X135.75 Y133.607 E.05198
G1 X134.635 Y134.832 E.05195
G1 X134.185 Y135.255 E.01937
G1 X132.902 Y136.281 E.05152
G1 X131.486 Y137.144 E.05197
G1 X130.941 Y137.42 E.01916
G1 X129.365 Y138.066 E.0534
G1 X127.789 Y138.486 E.05114
G1 X127.181 Y138.598 E.01937
G1 X125.507 Y138.769 E.05277
G1 X123.593 Y138.708 E.06003
G1 X121.933 Y138.43 E.05277
G1 X121.335 Y138.279 E.01936
G1 X119.765 Y137.75 E.05194
G1 X118.274 Y137.025 E.05198
G1 X117.741 Y136.711 E.01938
G1 X116.383 Y135.76 E.05198
G1 X115.158 Y134.645 E.05195
G1 X114.736 Y134.195 E.01936
G1 X113.701 Y132.901 E.05194
G1 X112.839 Y131.485 E.05198
G1 X112.561 Y130.933 E.01937
G1 X111.924 Y129.375 E.05278
G1 X111.458 Y127.574 E.05833
G1 X111.823 Y127.479 F24000
G1 F1200
G1 X111.817 Y127.459 E.00066
G1 X111.62 Y125.825 E.05161
G1 X111.597 Y125.229 E.01871
G1 X111.657 Y123.651 E.0495
G1 X111.929 Y122.025 E.0517
G1 X112.074 Y121.447 E.0187
G1 X112.593 Y119.911 E.05083
G1 X113.301 Y118.459 E.05063
G1 X113.603 Y117.946 E.01867
G1 X114.529 Y116.625 E.05059
G1 X115.61 Y115.436 E.05038
G1 X116.046 Y115.028 E.01872
G1 X117.301 Y114.024 E.05039
G1 X118.673 Y113.188 E.05038
G1 X119.2 Y112.922 E.01851
G1 X120.715 Y112.3 E.05135
G1 X122.27 Y111.884 E.05046
G1 X122.857 Y111.775 E.01873
G1 X124.456 Y111.61 E.05039
G1 X126.062 Y111.648 E.05038
G1 X126.649 Y111.709 E.01851
M73 P1 R32
G1 X128.26 Y112.005 E.05135
G1 X129.793 Y112.495 E.05046
G1 X130.345 Y112.722 E.01871
M73 P1 R31
G1 X131.778 Y113.446 E.05036
G1 X133.121 Y114.355 E.05084
G1 X133.591 Y114.73 E.01883
G1 X134.551 Y115.618 E.04102
G1 X134.962 Y116.056 E.01882
G1 X135.973 Y117.322 E.05081
G1 X136.809 Y118.695 E.05039
G1 X137.078 Y119.227 E.01871
G1 X137.699 Y120.751 E.0516
G1 X138.162 Y122.541 E.05796
G1 X138.36 Y124.175 E.05161
G1 X138.383 Y124.771 E.01871
G1 X138.322 Y126.349 E.04952
G1 X138.048 Y127.984 E.05198
G1 X137.903 Y128.561 E.01865
G1 X137.387 Y130.089 E.05057
G1 X136.684 Y131.534 E.05038
G1 X136.381 Y132.048 E.01872
G1 X135.459 Y133.365 E.05039
G1 X134.369 Y134.564 E.05081
G1 X133.934 Y134.972 E.01872
G1 X132.679 Y135.975 E.05039
G1 X131.307 Y136.812 E.05038
G1 X130.78 Y137.078 E.01851
G1 X129.237 Y137.71 E.05226
G1 X127.71 Y138.116 E.04955
G1 X127.123 Y138.224 E.01871
G1 X125.486 Y138.391 E.0516
G1 X123.638 Y138.332 E.05797
G1 X122.015 Y138.061 E.0516
G1 X121.437 Y137.916 E.0187
G1 X119.902 Y137.397 E.05081
G1 X118.456 Y136.694 E.05039
G1 X117.942 Y136.391 E.01872
G1 X116.625 Y135.469 E.05039
G1 X115.426 Y134.379 E.05081
G1 X115.018 Y133.944 E.0187
G1 X114.007 Y132.678 E.0508
G1 X113.171 Y131.305 E.05039
G1 X112.902 Y130.773 E.01871
G1 X112.281 Y129.249 E.0516
G1 X111.833 Y127.518 E.05605
G1 X112.198 Y127.424 F24000
G1 F1200
G1 X112.191 Y127.396 E.00088
G1 X111.997 Y125.8 E.05043
G1 X111.974 Y125.224 E.01805
G1 X112.033 Y123.697 E.04792
G1 X112.298 Y122.107 E.05055
G1 X112.438 Y121.549 E.01803
G1 X112.941 Y120.061 E.04924
G1 X113.631 Y118.641 E.0495
G1 X113.923 Y118.146 E.01801
G1 X114.82 Y116.867 E.049
G1 X115.876 Y115.705 E.04924
G1 X116.297 Y115.31 E.01807
G1 X117.524 Y114.33 E.04926
G1 X118.853 Y113.52 E.04879
G1 X119.361 Y113.263 E.01786
G1 X120.843 Y112.656 E.05021
G1 X122.349 Y112.253 E.04886
G1 X122.915 Y112.149 E.01807
G1 X124.478 Y111.988 E.04925
G1 X126.034 Y112.025 E.04879
G1 X126.6 Y112.083 E.01786
G1 X128.161 Y112.37 E.04976
G1 X129.66 Y112.848 E.04932
G1 X130.192 Y113.067 E.01805
G1 X131.593 Y113.776 E.04922
G1 X132.894 Y114.656 E.04926
G1 X133.348 Y115.019 E.01821
G1 X134.282 Y115.883 E.03991
G1 X134.679 Y116.306 E.01819
G1 X135.659 Y117.533 E.04922
G1 X136.476 Y118.874 E.04925
G1 X136.736 Y119.388 E.01804
G1 X137.342 Y120.878 E.05043
G1 X137.789 Y122.604 E.0559
G1 X137.983 Y124.2 E.05043
G1 X138.006 Y124.776 E.01805
G1 X137.947 Y126.303 E.04794
G1 X137.68 Y127.902 E.05083
G1 X137.54 Y128.459 E.01798
G1 X137.04 Y129.938 E.04898
G1 X136.353 Y131.351 E.04925
G1 X136.061 Y131.848 E.01807
G1 X135.159 Y133.134 E.04925
G1 X134.103 Y134.296 E.04922
G1 X133.683 Y134.69 E.01806
G1 X132.456 Y135.67 E.04925
G1 X131.127 Y136.48 E.0488
G1 X130.619 Y136.737 E.01785
G1 X129.11 Y137.353 E.05111
G1 X127.632 Y137.747 E.04797
G1 X127.066 Y137.851 E.01805
G1 X125.465 Y138.013 E.05042
G1 X123.683 Y137.956 E.05592
G1 X122.097 Y137.692 E.05042
G1 X121.539 Y137.552 E.01803
G1 X120.052 Y137.05 E.04922
G1 X118.639 Y136.363 E.04925
G1 X118.142 Y136.071 E.01807
G1 X116.856 Y135.169 E.04925
G1 X115.694 Y134.113 E.04922
G1 X115.301 Y133.694 E.01804
G1 X114.321 Y132.467 E.04922
G1 X113.503 Y131.126 E.04926
G1 X113.244 Y130.612 E.01804
G1 X112.638 Y129.122 E.05043
G1 X112.208 Y127.462 E.05377
G1 X112.573 Y127.368 F24000
G1 F1200
G1 X112.564 Y127.333 E.00112
G1 X112.374 Y125.774 E.04925
G1 X112.352 Y125.22 E.01739
G1 X112.409 Y123.743 E.04635
G1 X112.666 Y122.188 E.0494
G1 X112.801 Y121.651 E.01736
G1 X113.293 Y120.198 E.0481
G1 X113.962 Y118.824 E.04791
G1 X114.242 Y118.347 E.01735
G1 X115.12 Y117.098 E.04787
G1 X116.142 Y115.973 E.04766
G1 X116.547 Y115.593 E.01741
G1 X117.735 Y114.644 E.04767
G1 X119.033 Y113.852 E.04766
G1 X119.522 Y113.605 E.0172
G1 X120.957 Y113.017 E.04862
G1 X122.427 Y112.622 E.04772
G1 X122.973 Y112.522 E.01741
G1 X124.486 Y112.366 E.04767
G1 X126.005 Y112.401 E.04766
G1 X126.551 Y112.458 E.0172
G1 X128.076 Y112.739 E.04862
G1 X129.526 Y113.202 E.04772
G1 X130.039 Y113.412 E.01739
G1 X131.395 Y114.098 E.04764
G1 X132.667 Y114.958 E.04812
G1 X133.105 Y115.308 E.01758
G1 X134.014 Y116.148 E.03881
G1 X134.397 Y116.557 E.01757
G1 X135.353 Y117.756 E.04809
G1 X136.144 Y119.054 E.04767
G1 X136.394 Y119.549 E.01738
G1 X136.985 Y121.004 E.04925
G1 X137.416 Y122.667 E.05386
G1 X137.606 Y124.226 E.04925
G1 X137.628 Y124.78 E.01739
G1 X137.571 Y126.258 E.04636
G1 X137.311 Y127.821 E.04968
G1 X137.176 Y128.356 E.01732
G1 X136.687 Y129.802 E.04785
G1 X136.023 Y131.169 E.04766
G1 X135.741 Y131.647 E.01741
G1 X134.868 Y132.892 E.04767
G1 X133.838 Y134.028 E.04808
G1 X133.433 Y134.407 E.0174
G1 X132.245 Y135.356 E.04767
G1 X130.947 Y136.148 E.04766
G1 X130.458 Y136.395 E.01719
G1 X128.983 Y136.997 E.04996
G1 X127.553 Y137.378 E.04638
G1 X127.008 Y137.478 E.01739
G1 X125.445 Y137.635 E.04925
G1 X123.728 Y137.58 E.05387
G1 X122.178 Y137.323 E.04924
G1 X121.641 Y137.189 E.01736
G1 X120.202 Y136.702 E.04763
G1 X118.821 Y136.033 E.04812
G1 X118.343 Y135.751 E.01741
G1 X117.098 Y134.878 E.04767
G1 X115.962 Y133.848 E.04808
G1 X115.583 Y133.443 E.01738
G1 X114.627 Y132.244 E.04808
G1 X113.836 Y130.946 E.04767
G1 X113.586 Y130.452 E.01737
G1 X112.995 Y128.996 E.04925
G1 X112.583 Y127.406 E.05149
G1 X112.948 Y127.315 F24000
G1 F1200
G1 X112.933 Y127.255 E.00194
G1 X112.744 Y125.696 E.04924
G1 X112.813 Y123.522 E.06817
G1 X113.102 Y121.979 E.04924
G1 X113.562 Y120.542 E.04731
G1 X114.404 Y118.808 E.06043
G1 X115.543 Y117.176 E.06238
G1 X116.62 Y116.033 E.04926
G1 X117.785 Y115.073 E.04733
G1 X119.439 Y114.064 E.06075
G1 X121.272 Y113.311 E.06214
G1 X122.797 Y112.931 E.04926
G1 X124.296 Y112.754 E.04733
G1 X126.233 Y112.8 E.06075
G1 X128.182 Y113.156 E.06214
G1 X129.612 Y113.638 E.0473
G1 X131.026 Y114.322 E.04924
G1 X132.816 Y115.555 E.06817
G1 X133.959 Y116.632 E.04924
G1 X134.918 Y117.796 E.0473
G1 X135.953 Y119.503 E.06257
G1 X136.679 Y121.282 E.06024
G1 X137.059 Y122.807 E.04928
G1 X137.236 Y124.305 E.04732
G1 X137.185 Y126.305 E.06272
G1 X136.831 Y128.202 E.06049
G1 X136.326 Y129.685 E.04912
G1 X135.667 Y131.038 E.04719
G1 X134.435 Y132.826 E.06809
G1 X133.358 Y133.969 E.04924
G1 X132.193 Y134.929 E.0473
G1 X130.541 Y135.936 E.06068
G1 X128.708 Y136.689 E.06214
G1 X127.245 Y137.057 E.0473
G1 X125.686 Y137.246 E.04924
G1 X123.512 Y137.177 E.06818
G1 X122.029 Y136.904 E.04728
G1 X120.532 Y136.428 E.04926
G1 X118.739 Y135.552 E.06257
