; HEADER_BLOCK_START
; generated by OrcaSlicer-WaveOverhangs 2.4.0-dev on 2026-05-20 at 15:08:19
; WAVE_OVERHANG_BUILD wave_overhangs_version=dev orca_base=2.4.0-dev
; WAVE_OVERHANG_CONFIG region=0 algo=andersons outer_perim=1 spacing=0.420 flow_mm3_per_mm=0.200 speed=2.0 travel=40.0 fan=100 floor_layers=2 min_angle=0.0 min_length=0.00 max_iterations=0 ring_overlap=0.15 pattern=zigzag spacing_mode=uniform seam_mode=alternating perimeter_overlap=0.20 minimum_wave_width=0.70 min_new_area=0.0100 corner_enable=0 corner_spacing=0.000 corner_taper=0.00 corner_angle=90 end_retract=1.20 nozzle_temp_override=0 min_wave_time=4.00 min_layer_time=0.00 wall_loops=2 top_shell_layers=5 bottom_shell_layers=4 infill_density=15 infill_pattern=rectilinear support_remainder=1 instead_of_bridges=0
; total layer number: 84
; filament_density: 1.27
; filament_diameter: 1.75
; max_z_height: 20.12
; filament: 1
; HEADER_BLOCK_END

; THUMBNAIL_BLOCK_START

;
; THUMBNAIL_BLOCK_END

; external perimeters extrusion width = 0.42mm
; perimeters extrusion width = 0.45mm
; infill extrusion width = 0.44mm
; solid infill extrusion width = 0.44mm
; top infill extrusion width = 0.38mm
; first layer extrusion width = 0.42mm

; EXECUTABLE_BLOCK_START
EXCLUDE_OBJECT_DEFINE NAME=FTS_Thick_OneCorner.STL_id_0_copy_0 CENTER=125,125 POLYGON=[[110,122.5],[110,107.5],[125,107.5],[140,127.5],[140,142.5],[110,142.5],[110,122.5]]
M73 P0 R26
M106 S0
M106 P2 S0
;TYPE:Custom
G9111 bedTemp=70 extruderTemp=230
M117
G90
G21
M83 ; use relative distances for extrusion
; Filament gcode
M106 S0
M106 P2 S0
;LAYER_CHANGE
;Z:0.2
;HEIGHT:0.2
 ; PURGE LINE
M204 P500
SET_VELOCITY_LIMIT SQUARE_CORNER_VELOCITY=9
G1 Z0.50 F900 ; for object exclusion
G1 X89.365 Y255 F18000
G1 Z.25 F900
M73 P0 R25
G1 E0.8 F2400
G1 E0.6
G1 F3000
G1 X158.835 Y255 E3.72454
G1 X158.835 Y255.45 E.0252
G1 X89.365 Y255.45 E3.72454
G1 X89.365 Y255.02 E.02305
G1 Z0.5 F600

G1 E-.8 F2400
; AFTER_LAYER_CHANGE 0 @ 0.2mm
;_SET_FAN_SPEED_CHANGING_LAYER
SET_VELOCITY_LIMIT ACCEL=2000 ACCEL_TO_DECEL=1000
G1 X104.889 Y102.453 F24000
G1 Z.56
G1 Z.16
G1 E.8 F2400
;TYPE:Skirt
;WIDTH:0.42
G1 F3000
G1 X105.99 Y101.537 E.04491
G1 X106.954 Y100.995 E.03468
G1 X107.756 Y100.68 E.02701
G1 X108.869 Y100.405 E.03596
G1 X110 Y100.309 E.03558
G1 X125.191 Y100.317 E.47629
G1 X126.238 Y100.423 E.03301
G1 X127.328 Y100.712 E.03537
G1 X128.576 Y101.281 E.043
G1 X129.546 Y101.941 E.03678
G1 X130.742 Y103.18 E.05399
G1 X131.312 Y104.065 E.03301
G1 X131.82 Y105.256 E.0406
G1 X132.095 Y106.369 E.03596
G1 X132.191 Y107.5 E.03558
G1 X132.183 Y122.691 E.47629
G1 X132.077 Y123.738 E.03301
G1 X131.788 Y124.828 E.03537
G1 X131.421 Y125.693 E.02945
G1 X130.804 Y126.723 E.03765
G1 X129.837 Y127.812 E.04566
G1 X128.435 Y128.812 E.05399
G1 X126.775 Y129.46 E.0559
G1 X125.168 Y129.685 E.05085
G1 X109.809 Y129.683 E.48157
G1 X108.762 Y129.577 E.03301
G1 X107.672 Y129.288 E.03537
G1 X106.807 Y128.921 E.02945
G1 X105.777 Y128.304 E.03765
G1 X104.688 Y127.337 E.04566
G1 X103.688 Y125.935 E.05399
G1 X103.04 Y124.275 E.0559
G1 X102.815 Y122.668 E.05085
G1 X102.817 Y107.309 E.48157
G1 X102.923 Y106.262 E.03301
G1 X103.212 Y105.172 E.03537
G1 X103.579 Y104.307 E.02945
G1 X104.196 Y103.277 E.03765
G1 X104.863 Y102.483 E.0325
G1 X105.163 Y102.75 F24000
G1 F3000
G1 X105.404 Y102.478 E.01139
G1 X106.76 Y101.511 E.05223
G1 X107.894 Y101.03 E.0386
G1 X109.264 Y100.73 E.04397
G1 X125.163 Y100.693 E.4985
G1 X126.154 Y100.791 E.03125
G1 X127.181 Y101.059 E.03327
G1 X128.372 Y101.599 E.041
G1 X129.295 Y102.223 E.03492
G1 X130.452 Y103.421 E.05223
G1 X130.989 Y104.26 E.03125
G1 X131.47 Y105.394 E.0386
G1 X131.726 Y106.448 E.03402
G1 X131.813 Y107.5 E.03309
G1 X131.807 Y122.663 E.47541
G1 X131.709 Y123.654 E.03125
G1 X131.441 Y124.681 E.03327
G1 X131.074 Y125.546 E.02945
G1 X130.486 Y126.519 E.03566
G1 X129.596 Y127.522 E.04204
G1 X128.24 Y128.489 E.05223
G1 X126.698 Y129.091 E.0519
G1 X125.144 Y129.309 E.0492
G1 X109.837 Y129.307 E.47991
G1 X108.846 Y129.209 E.03125
G1 X107.819 Y128.941 E.03327
G1 X106.954 Y128.574 E.02945
G1 X105.981 Y127.986 E.03566
G1 X104.978 Y127.096 E.04204
G1 X104.011 Y125.74 E.05223
G1 X103.409 Y124.198 E.0519
G1 X103.191 Y122.644 E.0492
G1 X103.193 Y107.337 E.47991
G1 X103.291 Y106.346 E.03125
G1 X103.559 Y105.319 E.03327
G1 X103.926 Y104.454 E.02945
G1 X104.514 Y103.481 E.03566
G1 X105.136 Y102.779 E.0294
; printing object FTS_Thick_OneCorner.STL id:0 copy 0
;WIPE_START
G1 X105.404 Y102.478 E-.32262
G1 X105.89 Y102.131 E-.47738
;WIPE_END
EXCLUDE_OBJECT_START NAME=FTS_Thick_OneCorner.STL_id_0_copy_0
G1 X106.891 Y104.345 Z.56 F24000
G1 Z.16
G1 E.8 F2400
;TYPE:Brim
G1 F3600
G1 X106.935 Y104.297 E.00204
G1 X107.43 Y103.885 E.0202
G1 X107.979 Y103.552 E.02013
G1 X108.751 Y103.248 E.02602
G1 X109.434 Y103.101 E.02189
G1 X110.006 Y103.064 E.01799
G1 X124.993 Y103.064 E.4699
G1 X125.642 Y103.112 E.02042
G1 X126.268 Y103.254 E.02011
G1 X127.102 Y103.608 E.02842
G1 X127.723 Y104.006 E.02314
G1 X128.203 Y104.435 E.02017
G1 X128.615 Y104.93 E.0202
G1 X128.948 Y105.479 E.02013
G1 X129.252 Y106.251 E.02602
G1 X129.399 Y106.934 E.02189
G1 X129.436 Y107.506 E.01799
G1 X129.436 Y122.493 E.4699
G1 X129.388 Y123.142 E.02042
G1 X129.246 Y123.768 E.02011
G1 X128.892 Y124.602 E.02842
G1 X128.494 Y125.223 E.02314
G1 X128.065 Y125.703 E.02017
G1 X127.57 Y126.115 E.0202
G1 X127.022 Y126.448 E.02012
G1 X126.197 Y126.767 E.02773
G1 X125.567 Y126.899 E.02018
G1 X124.994 Y126.936 E.01801
G1 X110.007 Y126.936 E.4699
G1 X109.358 Y126.888 E.02042
G1 X108.732 Y126.746 E.02011
G1 X107.898 Y126.392 E.02842
G1 X107.277 Y125.994 E.02314
G1 X106.797 Y125.565 E.02017
G1 X106.385 Y125.07 E.0202
G1 X106.052 Y124.522 E.02012
G1 X105.733 Y123.697 E.02773
G1 X105.601 Y123.067 E.02018
G1 X105.564 Y122.494 E.01801
G1 X105.564 Y107.507 E.4699
G1 X105.612 Y106.858 E.02042
G1 X105.754 Y106.232 E.02011
G1 X106.108 Y105.398 E.02842
G1 X106.506 Y104.777 E.02314
G1 X106.865 Y104.375 E.01688
G1 X107.146 Y104.627 F24000
G1 F3600
G1 X107.204 Y104.563 E.0027
G1 X107.643 Y104.198 E.01791
G1 X108.139 Y103.896 E.01821
G1 X108.852 Y103.613 E.02405
G1 X109.494 Y103.475 E.0206
G1 X110.022 Y103.441 E.0166
G1 X124.983 Y103.441 E.46909
G1 X125.595 Y103.488 E.01923
G1 X126.161 Y103.618 E.01822
G1 X126.917 Y103.939 E.02575
G1 X127.501 Y104.314 E.02177
G1 X127.937 Y104.704 E.01833
G1 X128.302 Y105.143 E.01791
G1 X128.604 Y105.639 E.01821
G1 X128.887 Y106.352 E.02405
G1 X129.023 Y106.978 E.02008
G1 X129.059 Y107.522 E.01712
G1 X129.059 Y122.483 E.46909
G1 X129.012 Y123.095 E.01923
G1 X128.882 Y123.661 E.01822
G1 X128.561 Y124.417 E.02575
G1 X128.186 Y125.001 E.02177
G1 X127.796 Y125.437 E.01833
G1 X127.357 Y125.802 E.01791
G1 X126.845 Y126.112 E.01877
G1 X126.081 Y126.406 E.02569
G1 X125.524 Y126.523 E.01784
G1 X124.985 Y126.559 E.01692
G1 X110.017 Y126.559 E.46932
G1 X109.405 Y126.512 E.01923
G1 X108.839 Y126.382 E.01822
G1 X108.083 Y126.061 E.02575
G1 X107.499 Y125.686 E.02177
G1 X107.063 Y125.296 E.01833
G1 X106.698 Y124.857 E.01791
G1 X106.388 Y124.345 E.01877
G1 X106.094 Y123.581 E.02569
G1 X105.977 Y123.024 E.01784
G1 X105.941 Y122.485 E.01692
G1 X105.941 Y107.517 E.46932
G1 X105.988 Y106.905 E.01923
G1 X106.118 Y106.339 E.01822
G1 X106.439 Y105.583 E.02575
G1 X106.814 Y104.999 E.02177
G1 X107.12 Y104.657 E.01438
G1 X107.401 Y104.91 F24000
G1 F3600
G1 X107.473 Y104.83 E.00337
G1 X107.87 Y104.501 E.01617
G1 X108.299 Y104.24 E.01577
G1 X108.953 Y103.979 E.02206
G1 X109.554 Y103.849 E.0193
G1 X110.038 Y103.818 E.0152
G1 X124.964 Y103.818 E.468
G1 X125.529 Y103.861 E.01776
G1 X126.053 Y103.982 E.01686
G1 X126.731 Y104.27 E.0231
G1 X127.279 Y104.621 E.0204
G1 X127.67 Y104.973 E.01649
G1 X127.999 Y105.37 E.01617
G1 X128.26 Y105.799 E.01577
G1 X128.521 Y106.453 E.02208
G1 X128.649 Y107.039 E.01879
G1 X128.682 Y107.539 E.01571
G1 X128.682 Y122.473 E.46825
G1 X128.639 Y123.029 E.01749
G1 X128.518 Y123.553 E.01686
G1 X128.23 Y124.231 E.0231
G1 X127.879 Y124.779 E.0204
G1 X127.539 Y125.158 E.01597
G1 X127.144 Y125.489 E.01615
G1 X126.669 Y125.776 E.01741
G1 X125.965 Y126.045 E.02366
G1 X125.464 Y126.149 E.01601
G1 X124.969 Y126.182 E.01558
G1 X110.027 Y126.182 E.46848
G1 X109.471 Y126.139 E.01749
G1 X108.947 Y126.018 E.01686
G1 X108.269 Y125.73 E.0231
G1 X107.721 Y125.379 E.0204
G1 X107.342 Y125.039 E.01597
G1 X107.011 Y124.644 E.01615
G1 X106.724 Y124.169 E.01741
G1 X106.455 Y123.465 E.02366
G1 X106.351 Y122.964 E.01601
G1 X106.318 Y122.469 E.01558
G1 X106.318 Y107.527 E.46848
G1 X106.361 Y106.971 E.01749
G1 X106.482 Y106.447 E.01686
G1 X106.77 Y105.769 E.0231
G1 X107.121 Y105.221 E.0204
G1 X107.374 Y104.94 E.01186
G1 X107.654 Y105.193 F24000
G1 F3600
G1 X107.741 Y105.098 E.00404
G1 X108.083 Y104.814 E.01393
G1 X108.46 Y104.583 E.01388
G1 X109.054 Y104.344 E.02007
G1 X109.615 Y104.223 E.01798
G1 X110.054 Y104.195 E.0138
G1 X124.946 Y104.195 E.46692
G1 X125.464 Y104.234 E.01628
G1 X125.945 Y104.346 E.0155
G1 X126.546 Y104.601 E.02046
G1 X127.057 Y104.928 E.01902
G1 X127.402 Y105.241 E.01462
G1 X127.686 Y105.583 E.01393
G1 X127.917 Y105.96 E.01388
G1 X128.156 Y106.555 E.0201
G1 X128.275 Y107.1 E.01749
G1 X128.305 Y107.555 E.0143
G1 X128.304 Y122.463 E.46742
G1 X128.266 Y122.963 E.01574
G1 X128.154 Y123.445 E.01551
G1 X127.899 Y124.046 E.02046
G1 X127.572 Y124.557 E.01903
G1 X127.27 Y124.892 E.01413
G1 X126.931 Y125.175 E.01386
G1 X126.493 Y125.439 E.01603
G1 X125.849 Y125.684 E.02161
G1 X125.406 Y125.775 E.0142
G1 X124.952 Y125.805 E.01425
G1 X110.037 Y125.804 E.46765
G1 X109.537 Y125.766 E.01574
G1 X109.055 Y125.654 E.01551
G1 X108.454 Y125.399 E.02046
G1 X107.943 Y125.072 E.01903
G1 X107.608 Y124.77 E.01413
G1 X107.325 Y124.431 E.01386
G1 X107.061 Y123.993 E.01603
G1 X106.816 Y123.349 E.02161
G1 X106.725 Y122.906 E.0142
G1 X106.695 Y122.452 E.01425
G1 X106.696 Y107.537 E.46765
G1 X106.734 Y107.037 E.01574
G1 X106.846 Y106.555 E.01551
G1 X107.101 Y105.954 E.02046
G1 X107.428 Y105.443 E.01902
G1 X107.627 Y105.223 E.00932
G1 X107.907 Y105.477 F24000
G1 F3600
G1 X108.008 Y105.366 E.00473
G1 X108.31 Y105.118 E.01223
G1 X108.639 Y104.918 E.01209
G1 X109.175 Y104.704 E.01808
G1 X109.659 Y104.599 E.01553
G1 X110.063 Y104.572 E.01268
G1 X124.927 Y104.572 E.46608
G1 X125.398 Y104.607 E.01479
G1 X125.837 Y104.71 E.01414
G1 X126.36 Y104.932 E.01782
G1 X126.834 Y105.235 E.01762
G1 X127.134 Y105.508 E.01274
G1 X127.373 Y105.797 E.01173
G1 X127.574 Y106.122 E.012
G1 X127.791 Y106.658 E.01811
G1 X127.901 Y107.162 E.01617
G1 X127.928 Y107.571 E.01288
G1 X127.927 Y122.444 E.46633
G1 X127.893 Y122.898 E.01426
M73 P1 R25
G1 X127.79 Y123.337 E.01415
G1 X127.568 Y123.86 E.01782
G1 X127.265 Y124.334 E.01764
G1 X127.014 Y124.614 E.01178
G1 X126.718 Y124.862 E.01209
G1 X126.318 Y125.102 E.01464
G1 X125.735 Y125.323 E.01956
G1 X125.348 Y125.401 E.01239
G1 X124.936 Y125.428 E.01294
G1 X110.047 Y125.427 E.46682
G1 X109.585 Y125.39 E.01452
G1 X109.163 Y125.29 E.01362
G1 X108.64 Y125.068 E.01782
G1 X108.166 Y124.765 E.01764
G1 X107.886 Y124.514 E.01178
G1 X107.638 Y124.218 E.01209
G1 X107.398 Y123.818 E.01464
G1 X107.177 Y123.235 E.01956
G1 X107.099 Y122.848 E.01239
G1 X107.072 Y122.436 E.01294
G1 X107.073 Y107.547 E.46682
G1 X107.11 Y107.085 E.01452
G1 X107.21 Y106.663 E.01362
G1 X107.432 Y106.14 E.01782
G1 X107.735 Y105.666 E.01762
G1 X107.88 Y105.507 E.00676
G1 X108.159 Y105.761 F24000
G1 F3600
G1 X108.263 Y105.646 E.00488
G1 X108.522 Y105.431 E.01053
G1 X108.817 Y105.253 E.01081
G1 X109.294 Y105.064 E.0161
G1 X109.704 Y104.975 E.01313
G1 X110.071 Y104.949 E.01156
G1 X124.909 Y104.949 E.46522
G1 X125.332 Y104.981 E.01329
G1 X125.729 Y105.073 E.01278
G1 X126.192 Y105.272 E.01579
G1 X126.611 Y105.542 E.01562
G1 X126.866 Y105.775 E.01086
G1 X127.07 Y106.024 E.01007
G1 X127.231 Y106.285 E.00964
G1 X127.426 Y106.761 E.01611
G1 X127.527 Y107.223 E.01484
G1 X127.551 Y107.588 E.01145
G1 X127.55 Y122.426 E.46524
G1 X127.517 Y122.849 E.0133
G1 X127.427 Y123.229 E.01225
G1 X127.228 Y123.692 E.01579
G1 X126.958 Y124.112 E.01566
G1 X126.745 Y124.347 E.00994
G1 X126.505 Y124.548 E.00981
G1 X126.144 Y124.765 E.01323
G1 X125.621 Y124.961 E.01749
G1 X125.29 Y125.027 E.01058
G1 X124.92 Y125.051 E.01164
G1 X110.067 Y125.05 E.46571
G1 X109.653 Y125.017 E.01302
G1 X109.272 Y124.927 E.01227
G1 X108.808 Y124.728 E.01582
G1 X108.388 Y124.458 E.01566
G1 X108.153 Y124.245 E.00994
G1 X107.952 Y124.005 E.00981
G1 X107.735 Y123.644 E.01323
G1 X107.539 Y123.121 E.01749
G1 X107.473 Y122.79 E.01058
G1 X107.449 Y122.42 E.01164
G1 X107.45 Y107.567 E.46571
G1 X107.483 Y107.153 E.01302
G1 X107.573 Y106.772 E.01227
G1 X107.772 Y106.308 E.01582
G1 X108.042 Y105.889 E.01562
G1 X108.132 Y105.79 E.0042
G1 X108.43 Y106.046 F24000
G1 F3600
G1 X108.539 Y105.919 E.00523
G1 X108.87 Y105.666 E.01308
G1 X109.202 Y105.496 E.01168
G1 X109.572 Y105.383 E.01213
G1 X110.038 Y105.326 E.01472
G1 X124.958 Y105.326 E.46781
G1 X125.426 Y105.388 E.01481
G1 X125.859 Y105.535 E.01433
G1 X126.359 Y105.84 E.01836
G1 X126.653 Y106.12 E.01273
G1 X126.884 Y106.454 E.01272
G1 X127.039 Y106.793 E.01171
G1 X127.134 Y107.157 E.01179
G1 X127.174 Y107.536 E.01194
G1 X127.174 Y122.458 E.46788
G1 X127.112 Y122.926 E.01481
G1 X126.965 Y123.36 E.01433
G1 X126.66 Y123.859 E.01836
G1 X126.38 Y124.153 E.01273
G1 X126.046 Y124.384 E.01272
G1 X125.707 Y124.539 E.01171
G1 X125.343 Y124.634 E.01179
G1 X124.964 Y124.674 E.01194
G1 X110.042 Y124.674 E.46788
G1 X109.574 Y124.612 E.01481
G1 X109.141 Y124.465 E.01433
G1 X108.641 Y124.16 E.01837
G1 X108.347 Y123.88 E.01273
G1 X108.116 Y123.546 E.01272
G1 X107.961 Y123.207 E.01171
G1 X107.866 Y122.843 E.01179
G1 X107.826 Y122.464 E.01194
G1 X107.837 Y107.402 E.47226
G1 X107.91 Y106.983 E.01332
G1 X108.034 Y106.642 E.0114
G1 X108.285 Y106.216 E.01549
G1 X108.404 Y106.076 E.00577
G1 X108.686 Y106.314 F24000
G1 F3600
G1 X108.765 Y106.221 E.00384
G1 X109.042 Y106.002 E.01107
G1 X109.312 Y105.856 E.00962
G1 X109.612 Y105.758 E.0099
G1 X110.031 Y105.703 E.01325
G1 X124.966 Y105.703 E.46826
G1 X125.308 Y105.746 E.01083
G1 X125.659 Y105.854 E.0115
G1 X126.099 Y106.113 E.01603
G1 X126.341 Y106.333 E.01025
G1 X126.541 Y106.61 E.01069
G1 X126.674 Y106.887 E.00966
G1 X126.759 Y107.191 E.0099
G1 X126.797 Y107.53 E.01069
G1 X126.797 Y122.466 E.4683
G1 X126.754 Y122.808 E.01083
G1 X126.646 Y123.159 E.0115
G1 X126.387 Y123.599 E.01603
G1 X126.167 Y123.841 E.01025
G1 X125.89 Y124.041 E.01069
G1 X125.613 Y124.174 E.00966
G1 X125.309 Y124.259 E.0099
G1 X124.97 Y124.297 E.01069
G1 X110.034 Y124.297 E.4683
G1 X109.692 Y124.254 E.01083
G1 X109.341 Y124.146 E.0115
G1 X108.901 Y123.887 E.01603
G1 X108.659 Y123.667 E.01025
G1 X108.459 Y123.39 E.01069
G1 X108.326 Y123.113 E.00966
G1 X108.241 Y122.809 E.0099
G1 X108.203 Y122.47 E.01068
G1 X108.208 Y107.469 E.47033
G1 X108.265 Y107.108 E.01148
G1 X108.353 Y106.842 E.00877
G1 X108.614 Y106.399 E.01613
G1 X108.66 Y106.345 E.00223
G1 X108.938 Y106.593 F24000
G1 F3600
G1 X109.052 Y106.466 E.00535
G1 X109.274 Y106.299 E.00872
G1 X109.49 Y106.189 E.00759
G1 X109.729 Y106.116 E.00785
G1 X110.024 Y106.08 E.0093
G1 X124.973 Y106.08 E.46871
G1 X125.265 Y106.121 E.00926
G1 X125.551 Y106.215 E.00944
G1 X125.907 Y106.437 E.01315
G1 X126.034 Y106.552 E.00537
G1 X126.201 Y106.774 E.00872
G1 X126.311 Y106.99 E.00759
G1 X126.384 Y107.229 E.00785
G1 X126.42 Y107.524 E.0093
G1 X126.42 Y122.473 E.46871
G1 X126.379 Y122.765 E.00926
G1 X126.285 Y123.051 E.00944
G1 X126.063 Y123.407 E.01315
G1 X125.948 Y123.534 E.00537
G1 X125.726 Y123.701 E.00872
G1 X125.51 Y123.811 E.00759
G1 X125.271 Y123.884 E.00785
G1 X124.976 Y123.92 E.0093
G1 X110.027 Y123.92 E.46871
G1 X109.735 Y123.879 E.00926
G1 X109.449 Y123.785 E.00944
G1 X109.093 Y123.563 E.01315
G1 X108.966 Y123.448 E.00537
G1 X108.799 Y123.226 E.00872
G1 X108.689 Y123.01 E.00759
G1 X108.616 Y122.771 E.00785
G1 X108.58 Y122.476 E.0093
G1 X108.58 Y107.527 E.46871
G1 X108.621 Y107.235 E.00926
G1 X108.715 Y106.949 E.00944
G1 X108.917 Y106.627 E.01192
G1 X109.228 Y106.836 F24000
G1 F3600
G1 X109.253 Y106.799 E.00141
G1 X109.327 Y106.723 E.00332
G1 X109.497 Y106.602 E.00654
G1 X109.657 Y106.527 E.00555
