; HEADER_BLOCK_START
; generated by OrcaSlicer-WaveOverhangs 2.4.0-dev on 2026-05-20 at 15:43:10
; WAVE_OVERHANG_BUILD wave_overhangs_version=dev orca_base=2.4.0-dev
; WAVE_OVERHANG_CONFIG region=0 algo=andersons outer_perim=1 spacing=0.420 flow_mm3_per_mm=0.200 speed=2.0 travel=40.0 fan=100 floor_layers=2 min_angle=0.0 min_length=0.00 max_iterations=0 ring_overlap=0.15 pattern=smart spacing_mode=uniform seam_mode=alternating perimeter_overlap=0.20 minimum_wave_width=0.70 min_new_area=0.0100 corner_enable=0 corner_spacing=0.000 corner_taper=0.00 corner_angle=90 end_retract=1.20 nozzle_temp_override=0 min_wave_time=4.00 min_layer_time=0.00 wall_loops=2 top_shell_layers=5 bottom_shell_layers=4 infill_density=15 infill_pattern=rectilinear support_remainder=1 instead_of_bridges=0
; WAVE_OVERHANG_CONFIG region=1 algo=andersons outer_perim=1 spacing=0.420 flow_mm3_per_mm=0.200 speed=2.0 travel=40.0 fan=100 floor_layers=2 min_angle=0.0 min_length=0.00 max_iterations=0 ring_overlap=0.15 pattern=zigzag spacing_mode=uniform seam_mode=alternating perimeter_overlap=0.20 minimum_wave_width=0.70 min_new_area=0.0100 corner_enable=0 corner_spacing=0.000 corner_taper=0.00 corner_angle=90 end_retract=1.20 nozzle_temp_override=0 min_wave_time=4.00 min_layer_time=0.00 wall_loops=2 top_shell_layers=5 bottom_shell_layers=4 infill_density=15 infill_pattern=rectilinear support_remainder=1 instead_of_bridges=0
; WAVE_OVERHANG_CONFIG region=2 algo=andersons outer_perim=1 spacing=0.420 flow_mm3_per_mm=0.200 speed=2.0 travel=40.0 fan=100 floor_layers=2 min_angle=0.0 min_length=0.00 max_iterations=0 ring_overlap=0.15 pattern=zigzag spacing_mode=uniform seam_mode=alternating perimeter_overlap=0.20 minimum_wave_width=0.70 min_new_area=0.0100 corner_enable=0 corner_spacing=0.000 corner_taper=0.00 corner_angle=90 end_retract=1.20 nozzle_temp_override=0 min_wave_time=4.00 min_layer_time=0.00 wall_loops=2 top_shell_layers=5 bottom_shell_layers=4 infill_density=15 infill_pattern=rectilinear support_remainder=1 instead_of_bridges=0
; WAVE_OVERHANG_CONFIG region=3 algo=andersons outer_perim=1 spacing=0.420 flow_mm3_per_mm=0.200 speed=2.0 travel=40.0 fan=100 floor_layers=2 min_angle=0.0 min_length=0.00 max_iterations=0 ring_overlap=0.15 pattern=zigzag spacing_mode=uniform seam_mode=alternating perimeter_overlap=0.20 minimum_wave_width=0.70 min_new_area=0.0100 corner_enable=0 corner_spacing=0.000 corner_taper=0.00 corner_angle=90 end_retract=1.20 nozzle_temp_override=0 min_wave_time=4.00 min_layer_time=0.00 wall_loops=2 top_shell_layers=5 bottom_shell_layers=4 infill_density=15 infill_pattern=rectilinear support_remainder=1 instead_of_bridges=0
; total layer number: 310
; filament_density: 1.27
; filament_diameter: 1.75
; max_z_height: 21.08
; filament: 1
; HEADER_BLOCK_END

; THUMBNAIL_BLOCK_START

;
; THUMBNAIL_BLOCK_END

; external perimeters extrusion width = 0.42mm
; perimeters extrusion width = 0.45mm
; infill extrusion width = 0.44mm
; solid infill extrusion width = 0.44mm
; top infill extrusion width = 0.38mm
; first layer extrusion width = 0.42mm

; external perimeters extrusion width = 0.42mm
; perimeters extrusion width = 0.45mm
; infill extrusion width = 0.44mm
; solid infill extrusion width = 0.44mm
; top infill extrusion width = 0.38mm
; first layer extrusion width = 0.42mm

; external perimeters extrusion width = 0.42mm
; perimeters extrusion width = 0.45mm
; infill extrusion width = 0.44mm
; solid infill extrusion width = 0.44mm
; top infill extrusion width = 0.38mm
; first layer extrusion width = 0.42mm

; external perimeters extrusion width = 0.42mm
; perimeters extrusion width = 0.45mm
; infill extrusion width = 0.44mm
; solid infill extrusion width = 0.44mm
; top infill extrusion width = 0.38mm
; first layer extrusion width = 0.42mm

; EXECUTABLE_BLOCK_START
EXCLUDE_OBJECT_DEFINE NAME=FTS_Bridge.STL_id_0_copy_0 CENTER=64.0679,165.103 POLYGON=[[49.0679,172.603],[49.0679,137.603],[64.0679,137.603],[79.0679,157.603],[79.0679,192.603],[64.0679,192.603],[49.0679,172.603]]
EXCLUDE_OBJECT_DEFINE NAME=FTS_Loop_Holes.STL_id_1_copy_0 CENTER=60.1424,58.6732 POLYGON=[[42.6581,57.7258],[42.8629,55.8421],[43.2703,53.9915],[43.8753,52.1958],[44.6709,50.4761],[45.6478,48.8525],[46.7946,47.344],[48.0976,45.9683],[49.1917,45.0148],[49.5418,44.7416],[50.2472,44.2326],[51.1102,43.6782],[52.7843,42.7907],[54.5446,42.0893],[56.3704,41.5824],[58.2403,41.2758],[60.1324,41.1732],[62.0245,41.2758],[63.8944,41.5823],[65.7202,42.0893],[67.4804,42.7906],[69.1546,43.6782],[70.7229,44.7416],[72.1671,45.9683],[73.4702,47.3439],[74.617,48.8524],[75.5939,50.476],[76.3895,52.1958],[76.9945,53.9914],[77.4019,55.842],[77.6067,57.7257],[77.6105,57.7978],[77.6268,59.1168],[77.6068,59.6206],[77.4019,61.5044],[76.9946,63.3549],[76.3895,65.1506],[75.5939,66.8703],[74.617,68.4939],[73.4703,70.0024],[72.1672,71.3781],[70.723,72.6048],[69.1546,73.6682],[67.4805,74.5558],[65.7202,75.2571],[63.8944,75.7641],[62.0245,76.0706],[60.1325,76.1732],[58.2404,76.0706],[56.3705,75.7641],[54.5447,75.2571],[52.7844,74.5558],[51.1103,73.6682],[49.5419,72.6049],[48.0977,71.3782],[46.7946,70.0025],[45.6479,68.494],[44.671,66.8704],[43.8753,65.1507],[43.2703,63.355],[42.863,61.5044],[42.6581,59.6207],[42.6581,57.7258]]
EXCLUDE_OBJECT_DEFINE NAME=FTS_Loop_Narrow.STL_id_2_copy_0 CENTER=171.44,162.323 POLYGON=[[144.027,159.823],[164.511,150.323],[178.368,150.323],[198.853,159.823],[198.853,164.823],[178.368,174.323],[164.511,174.323],[144.027,164.823],[144.027,159.823]]
EXCLUDE_OBJECT_DEFINE NAME=FTS_Curved_Incline.stl_id_3_copy_0 CENTER=173.116,62.3218 POLYGON=[[147.41,41.9692],[162.41,41.9692],[198.821,56.9692],[198.65,59.5535],[198.227,62.1044],[197.557,64.5974],[196.648,67.0086],[195.508,69.3151],[194.15,71.4952],[192.587,73.5281],[190.836,75.3949],[188.913,77.0782],[186.838,78.5623],[184.632,79.8336],[182.315,80.8807],[179.91,81.6942],[177.442,82.267],[174.934,82.5946],[172.41,82.6745],[169.895,82.5068],[167.413,82.0941],[164.987,81.4411],[162.641,80.5549],[160.397,79.4448],[158.276,78.1224],[156.299,76.6011],[154.483,74.8962],[152.846,73.0248],[151.404,71.0054],[150.168,68.858],[149.15,66.6037],[148.36,64.2647],[147.804,61.8636],[147.487,59.4239],[147.41,56.9692],[147.41,41.9692]]
M73 P0 R112
M106 S0
M106 P2 S0
;TYPE:Custom
G9111 bedTemp=70 extruderTemp=230
M117
G90
G21
M83 ; use relative distances for extrusion
; Filament gcode
M106 S0
M106 P2 S0
;LAYER_CHANGE
;Z:0.2
;HEIGHT:0.2
 ; PURGE LINE
M204 P500
SET_VELOCITY_LIMIT SQUARE_CORNER_VELOCITY=9
G1 Z0.50 F900 ; for object exclusion
G1 X89.365 Y255 F18000
G1 Z.25 F900
G1 E0.8 F2400
G1 E0.6
G1 F3000
G1 X158.835 Y255 E3.72454
G1 X158.835 Y255.45 E.0252
G1 X89.365 Y255.45 E3.72454
G1 X89.365 Y255.02 E.02305
G1 Z0.5 F600

G1 E-.8 F2400
; AFTER_LAYER_CHANGE 0 @ 0.2mm
;_SET_FAN_SPEED_CHANGING_LAYER
SET_VELOCITY_LIMIT ACCEL=2000 ACCEL_TO_DECEL=1000
G1 X47.246 Y47.366 F24000
G1 Z.56
G1 Z.16
G1 E.8 F2400
;TYPE:Skirt
;WIDTH:0.42
G1 F3000
G1 X48.007 Y46.503 E.03608
G1 X48.744 Y45.81 E.03172
G1 X50.537 Y44.42 E.07113
G1 X52.073 Y43.499 E.05616
G1 X54.149 Y42.569 E.07132
G1 X55.117 Y42.242 E.03202
G1 X57.506 Y41.695 E.07686
G1 X59.028 Y41.527 E.04801
G1 X147.242 Y34.784 E2.77394
G1 X162.601 Y34.786 E.48157
G1 X163.648 Y34.892 E.03301
G1 X164.739 Y35.181 E.03537
G1 X165.986 Y35.75 E.043
G1 X166.956 Y36.41 E.03678
G1 X167.722 Y37.132 E.03301
G1 X168.373 Y37.959 E.03301
G1 X168.915 Y38.924 E.03468
G1 X169.352 Y40.127 E.04016
G1 X190.121 Y161.534 E3.86193
G1 X190.158 Y162.439 E.02838
G1 X190.05 Y163.611 E.0369
G1 X189.79 Y164.631 E.03301
G1 X189.425 Y165.521 E.03016
G1 X183.44 Y175.918 E.37615
G1 X182.723 Y176.933 E.03897
G1 X181.463 Y178.107 E.05399
G1 X179.984 Y178.945 E.05329
G1 X178.747 Y179.345 E.04078
G1 X80.179 Y199.701 E3.15573
G1 X79.068 Y199.793 E.03497
G1 X63.877 Y199.786 E.47629
G1 X62.174 Y199.531 E.05399
G1 X60.492 Y198.822 E.05725
G1 X59.522 Y198.162 E.03678
G1 X58.756 Y197.44 E.03301
G1 X58.105 Y196.613 E.03301
G1 X57.558 Y195.635 E.03514
G1 X42.217 Y154.754 E1.36906
G1 X41.922 Y153.364 E.04457
G1 X41.878 Y137.568 E.49527
G1 X42.999 Y57.416 E2.51335
G1 X43.103 Y56.41 E.03172
G1 X43.598 Y54.009 E.07685
G1 X44.356 Y51.868 E.07122
G1 X45.488 Y49.687 E.07704
G1 X46.508 Y48.204 E.05642
G1 X47.22 Y47.396 E.03376
G1 X47.503 Y47.645 F24000
G1 F3000
G1 X48.284 Y46.759 E.03706
G1 X48.982 Y46.103 E.03003
G1 X50.754 Y44.729 E.07029
G1 X52.244 Y43.836 E.05448
G1 X54.296 Y42.917 E.07048
G1 X55.212 Y42.607 E.03032
G1 X57.548 Y42.07 E.07518
G1 X59.057 Y41.903 E.04759
G1 X146.674 Y35.199 E2.7552
G1 X162.573 Y35.162 E.4985
M73 P0 R111
G1 X163.565 Y35.26 E.03125
G1 X164.591 Y35.528 E.03327
G1 X165.783 Y36.068 E.041
G1 X166.705 Y36.692 E.03492
G1 X167.432 Y37.373 E.03125
G1 X168.051 Y38.155 E.03125
G1 X168.564 Y39.062 E.03268
G1 X168.984 Y40.206 E.03822
G1 X189.748 Y161.591 E3.86123
G1 X189.782 Y162.414 E.02583
G1 X189.683 Y163.527 E.03503
G1 X189.439 Y164.494 E.03125
G1 X189.092 Y165.345 E.02882
G1 X183.114 Y175.73 E.37569
G1 X182.446 Y176.677 E.03634
G1 X181.227 Y177.813 E.05223
G1 X179.82 Y178.605 E.05062
G1 X178.671 Y178.976 E.03788
G1 X80.103 Y199.332 E3.15573
G1 X79.068 Y199.416 E.03257
G1 X63.905 Y199.41 E.47541
G1 X62.258 Y199.163 E.05223
G1 X60.696 Y198.504 E.05317
G1 X59.773 Y197.88 E.03492
G1 X59.046 Y197.199 E.03125
G1 X58.427 Y196.417 E.03125
G1 X57.91 Y195.499 E.03307
G1 X42.57 Y154.622 E1.36893
G1 X42.298 Y153.339 E.04112
G1 X42.255 Y137.573 E.49434
G1 X43.376 Y57.428 E2.51314
G1 X43.474 Y56.475 E.03003
G1 X43.956 Y54.127 E.07517
G1 X44.705 Y52.011 E.07038
G1 X45.813 Y49.878 E.07535
G1 X46.803 Y48.44 E.05474
G1 X47.476 Y47.675 E.03194
; printing object FTS_Bridge.STL id:0 copy 0
;WIPE_START
G1 X48.137 Y46.925 E-.8
;WIPE_END
EXCLUDE_OBJECT_START NAME=FTS_Bridge.STL_id_0_copy_0
G1 X49.059 Y54.502 Z.56 F24000
G1 X63.501 Y173.204 Z.56
G1 Z.16
G1 E.8 F2400
;TYPE:Brim
G1 F3600
G1 X64.074 Y173.166 E.01799
G1 X79.061 Y173.166 E.4699
G1 X79.71 Y173.215 E.02042
G1 X80.336 Y173.357 E.02011
G1 X81.17 Y173.711 E.02842
G1 X81.791 Y174.109 E.02314
G1 X82.271 Y174.537 E.02017
G1 X82.683 Y175.033 E.0202
G1 X83.016 Y175.582 E.02013
G1 X83.32 Y176.354 E.02602
G1 X83.467 Y177.036 E.02189
G1 X83.504 Y177.609 E.01799
G1 X83.504 Y192.596 E.4699
G1 X83.456 Y193.245 E.02042
G1 X83.314 Y193.871 E.02011
G1 X82.96 Y194.705 E.02842
G1 X82.562 Y195.326 E.02314
G1 X82.133 Y195.806 E.02017
G1 X81.638 Y196.218 E.0202
G1 X81.089 Y196.551 E.02012
G1 X80.265 Y196.87 E.02773
G1 X79.635 Y197.002 E.02018
G1 X79.062 Y197.039 E.01801
G1 X64.075 Y197.039 E.4699
G1 X63.426 Y196.991 E.02042
G1 X62.8 Y196.849 E.02011
G1 X61.966 Y196.495 E.02842
G1 X61.345 Y196.096 E.02314
G1 X60.865 Y195.668 E.02017
G1 X60.453 Y195.173 E.0202
G1 X60.12 Y194.624 E.02012
G1 X59.801 Y193.8 E.02773
G1 X59.669 Y193.17 E.02018
G1 X59.632 Y192.597 E.01801
G1 X59.632 Y177.61 E.4699
G1 X59.68 Y176.96 E.02042
G1 X59.822 Y176.335 E.02011
G1 X60.176 Y175.501 E.02842
G1 X60.574 Y174.879 E.02314
G1 X61.003 Y174.399 E.02017
G1 X61.498 Y173.988 E.0202
G1 X62.047 Y173.655 E.02013
G1 X62.819 Y173.351 E.02602
G1 X63.462 Y173.212 E.02063
G1 X63.542 Y173.582 F24000
G1 F3600
G1 X63.562 Y173.578 E.00064
G1 X64.09 Y173.544 E.0166
G1 X79.051 Y173.544 E.46909
G1 X79.662 Y173.591 E.01923
G1 X80.229 Y173.721 E.01822
G1 X80.985 Y174.042 E.02575
G1 X81.569 Y174.416 E.02177
G1 X82.005 Y174.807 E.01833
G1 X82.37 Y175.246 E.01791
G1 X82.672 Y175.742 E.01821
G1 X82.955 Y176.455 E.02405
G1 X83.09 Y177.08 E.02008
G1 X83.127 Y177.625 E.01712
G1 X83.127 Y192.586 E.46909
G1 X83.08 Y193.197 E.01923
G1 X82.95 Y193.764 E.01822
G1 X82.629 Y194.52 E.02575
G1 X82.254 Y195.104 E.02177
G1 X81.864 Y195.54 E.01833
G1 X81.425 Y195.905 E.01791
G1 X80.913 Y196.215 E.01877
G1 X80.148 Y196.509 E.02569
G1 X79.592 Y196.625 E.01784
G1 X79.053 Y196.662 E.01692
G1 X64.085 Y196.662 E.46932
G1 X63.473 Y196.615 E.01923
G1 X62.907 Y196.485 E.01822
G1 X62.151 Y196.164 E.02575
G1 X61.567 Y195.789 E.02177
G1 X61.131 Y195.399 E.01833
G1 X60.766 Y194.96 E.01791
G1 X60.456 Y194.448 E.01877
G1 X60.162 Y193.683 E.02569
G1 X60.045 Y193.126 E.01784
G1 X60.009 Y192.588 E.01692
G1 X60.009 Y177.62 E.46932
G1 X60.056 Y177.008 E.01923
G1 X60.186 Y176.442 E.01822
G1 X60.507 Y175.686 E.02575
G1 X60.882 Y175.102 E.02177
G1 X61.272 Y174.666 E.01833
G1 X61.711 Y174.301 E.01791
G1 X62.207 Y173.999 E.01821
G1 X62.92 Y173.716 E.02405
G1 X63.503 Y173.591 E.0187
G1 X63.582 Y173.961 F24000
G1 F3600
G1 X63.622 Y173.952 E.00128
G1 X64.106 Y173.921 E.0152
G1 X79.032 Y173.921 E.468
G1 X79.597 Y173.964 E.01776
G1 X80.121 Y174.085 E.01686
G1 X80.799 Y174.373 E.0231
G1 X81.347 Y174.724 E.0204
G1 X81.738 Y175.075 E.01649
G1 X82.067 Y175.473 E.01617
G1 X82.328 Y175.902 E.01577
G1 X82.589 Y176.556 E.02208
G1 X82.717 Y177.142 E.01879
G1 X82.75 Y177.642 E.01571
G1 X82.75 Y192.576 E.46825
G1 X82.707 Y193.132 E.01749
G1 X82.586 Y193.656 E.01686
G1 X82.298 Y194.334 E.0231
G1 X81.947 Y194.882 E.0204
G1 X81.607 Y195.261 E.01597
G1 X81.212 Y195.591 E.01615
G1 X80.737 Y195.878 E.01741
G1 X80.032 Y196.148 E.02366
G1 X79.532 Y196.251 E.01601
G1 X79.036 Y196.285 E.01558
G1 X64.095 Y196.284 E.46848
G1 X63.539 Y196.242 E.01749
G1 X63.015 Y196.121 E.01686
G1 X62.337 Y195.833 E.0231
G1 X61.789 Y195.482 E.0204
G1 X61.41 Y195.142 E.01597
G1 X61.079 Y194.747 E.01615
G1 X60.792 Y194.272 E.01741
G1 X60.523 Y193.567 E.02366
G1 X60.419 Y193.067 E.01601
G1 X60.386 Y192.571 E.01558
G1 X60.386 Y177.63 E.46848
G1 X60.429 Y177.074 E.01749
G1 X60.55 Y176.55 E.01686
G1 X60.838 Y175.872 E.0231
G1 X61.189 Y175.324 E.0204
G1 X61.54 Y174.933 E.01649
G1 X61.938 Y174.604 E.01617
G1 X62.367 Y174.342 E.01577
G1 X63.021 Y174.082 E.02206
G1 X63.543 Y173.969 E.01676
G1 X63.623 Y174.339 F24000
G1 F3600
G1 X63.683 Y174.326 E.00191
G1 X64.122 Y174.298 E.0138
G1 X79.014 Y174.298 E.46692
G1 X79.531 Y174.337 E.01628
G1 X80.013 Y174.449 E.0155
G1 X80.614 Y174.704 E.02046
G1 X81.124 Y175.031 E.01902
G1 X81.47 Y175.344 E.01462
G1 X81.753 Y175.686 E.01393
G1 X81.985 Y176.063 E.01388
G1 X82.224 Y176.658 E.0201
G1 X82.343 Y177.203 E.01749
G1 X82.373 Y177.658 E.0143
G1 X82.372 Y192.566 E.46742
G1 X82.334 Y193.066 E.01574
G1 X82.222 Y193.548 E.01551
G1 X81.967 Y194.149 E.02046
G1 X81.64 Y194.66 E.01903
G1 X81.338 Y194.995 E.01413
G1 X80.999 Y195.278 E.01386
G1 X80.561 Y195.542 E.01603
G1 X79.917 Y195.787 E.02161
G1 X79.474 Y195.878 E.0142
G1 X79.02 Y195.908 E.01425
G1 X64.105 Y195.907 E.46765
G1 X63.604 Y195.869 E.01574
G1 X63.123 Y195.757 E.01551
G1 X62.522 Y195.502 E.02046
G1 X62.011 Y195.175 E.01903
G1 X61.676 Y194.873 E.01413
G1 X61.393 Y194.534 E.01386
G1 X61.129 Y194.096 E.01603
G1 X60.884 Y193.452 E.02161
G1 X60.793 Y193.008 E.0142
G1 X60.763 Y192.555 E.01425
G1 X60.764 Y177.64 E.46765
G1 X60.802 Y177.139 E.01574
G1 X60.914 Y176.658 E.01551
G1 X61.169 Y176.057 E.02046
G1 X61.496 Y175.546 E.01902
G1 X61.809 Y175.201 E.01462
G1 X62.151 Y174.917 E.01393
G1 X62.528 Y174.686 E.01388
G1 X63.122 Y174.447 E.02007
G1 X63.584 Y174.347 E.01482
G1 X63.664 Y174.716 F24000
G1 F3600
G1 X63.727 Y174.702 E.00202
G1 X64.131 Y174.675 E.01268
G1 X78.995 Y174.675 E.46608
G1 X79.466 Y174.71 E.01479
G1 X79.905 Y174.812 E.01414
G1 X80.428 Y175.035 E.01782
G1 X80.902 Y175.338 E.01762
G1 X81.202 Y175.611 E.01274
G1 X81.441 Y175.899 E.01173
G1 X81.642 Y176.225 E.012
G1 X81.859 Y176.761 E.01811
G1 X81.969 Y177.264 E.01617
G1 X81.996 Y177.674 E.01288
G1 X81.995 Y192.547 E.46633
G1 X81.961 Y193 E.01426
G1 X81.858 Y193.44 E.01415
G1 X81.636 Y193.963 E.01782
G1 X81.333 Y194.437 E.01764
G1 X81.081 Y194.716 E.01178
G1 X80.786 Y194.964 E.01209
G1 X80.386 Y195.205 E.01464
G1 X79.803 Y195.425 E.01956
G1 X79.415 Y195.503 E.01239
G1 X79.004 Y195.531 E.01294
G1 X64.115 Y195.53 E.46682
G1 X63.653 Y195.493 E.01452
G1 X63.231 Y195.393 E.01362
G1 X62.707 Y195.171 E.01782
G1 X62.234 Y194.868 E.01764
G1 X61.954 Y194.616 E.01178
G1 X61.706 Y194.321 E.01209
G1 X61.466 Y193.921 E.01464
G1 X61.245 Y193.338 E.01956
G1 X61.167 Y192.95 E.01239
G1 X61.14 Y192.539 E.01294
G1 X61.141 Y177.65 E.46682
G1 X61.178 Y177.188 E.01452
G1 X61.278 Y176.766 E.01362
G1 X61.5 Y176.242 E.01782
