;FLAVOR:Marlin
;TIME:982.20
;Filament used:0.56m
;Layer height:0.24
; HEADER_BLOCK_START
; generated by OrcaSlicer-WaveOverhangs 2.4.0-dev on 2026-04-22 at 13:48:20
; WAVE_OVERHANG_BUILD wave_overhangs_version=0.1.2 orca_base=2.4.0-dev
; WAVE_OVERHANG_CONFIG region=0 algo=andersons outer_perim=1 spacing=0.380 width=0.400 flow_ratio=2.000 speed=2.0 travel=40.0 fan=100 floor_layers=2 min_angle=0.0 min_length=0.00 max_iterations=0 ring_overlap=0.15 pattern=smart spacing_mode=uniform seam_mode=alternating perimeter_overlap=0.10 minimum_wave_width=0.70 min_new_area=0.0100 nozzle_temp_override=0 min_wave_time=0.00 min_layer_time=0.00 wall_loops=2 top_shell_layers=4 bottom_shell_layers=4 infill_density=15 infill_pattern=crosshatch support_remainder=1 instead_of_bridges=0
; total layer number: 43
; filament_density: 1.24
; filament_diameter: 1.75
; max_z_height: 10.28
; filament: 1
; HEADER_BLOCK_END

; external perimeters extrusion width = 0.42mm
; perimeters extrusion width = 0.45mm
; infill extrusion width = 0.45mm
; solid infill extrusion width = 0.42mm
; top infill extrusion width = 0.42mm
; first layer extrusion width = 0.46mm

; EXECUTABLE_BLOCK_START
M201 X2500 Y2500 Z500 E5000
M203 X250 Y250 Z5 E40
M204 P2500 R500 T2500 ; sets acceleration (P, T) and retract acceleration (R), mm/sec^2
M205 X10.00 Y10.00 Z0.40 E5.00 ; sets the jerk limits, mm/sec
M205 J0.010
;TYPE:Custom
M220 S100 ;Reset Feedrate 
M221 S100 ;Reset Flowrate 
 
M104 S210 ;Set final nozzle temp 
M190 S55 ;Set and wait for bed temp to stabilize 
G28 ;Home 
G92 E0 ;Reset Extruder 
G1 Z2.0 F3000 ;Move Z Axis up 
G1 X-2.1 Y20 Z0.28 F5000.0 ;Move to start position 
M109 S210 ;Wait for nozzle temp to stabilize 
G1 X-2.1 Y145.0 Z0.28 F1500.0 E15 ;Draw the first line 
G1 X-2.4 Y145.0 Z0.28 F5000.0 ;Move to side a little 
G1 X-2.4 Y20 Z0.28 F1500.0 E30 ;Draw the second line 
G92 E0  ;Reset Extruder 
G1 E-1.0000 F1800 ;Retract a bit 
G1 Z2.0 F3000 ;Move Z Axis up 
G1 E0.0000 F1800
G90
G21
M83 ; use relative distances for extrusion
; Filament gcode
M106 S0
;LAYER_CHANGE
;Z:0.2
;HEIGHT:0.2
;BEFORE_LAYER_CHANGE
;0.2
G92 E0

G1 E-1.2 F2400
;_SET_FAN_SPEED_CHANGING_LAYER
M204 P500
; printing object monolayer l id:858993459400 copy 0
M204 T500
G1 X109.331 Y106.831 F9000
G1 Z.6
G1 Z.2
G1 E1.2 F1800
;TYPE:Inner wall
;WIDTH:0.459999
G1 X95.669 Y106.831 E.46436
G1 X95.669 Y93.169 E.46436
G1 X109.331 Y93.169 E.46436
G1 X109.331 Y106.791 E.463
G1 X109.77 Y107.27 F9000
;TYPE:Outer wall
G1 F1800
G1 X95.23 Y107.27 E.49417
G1 X95.23 Y92.73 E.49417
G1 X109.77 Y92.73 E.49417
G1 X109.77 Y107.23 E.49281
G1 E-.84 F2400
;WIPE_START
G1 F1800
G1 X108.77 Y107.233 E-.36
;WIPE_END
G1 F9000
G1 X108.928 Y106.672 Z0.230769
G1 X109.329 Y106.249 Z0.261538
G1 X109.88 Y106.061 Z0.292308
G1 X110.456 Y106.15 Z0.323077
G1 X110.924 Y106.497 Z0.353846
G1 X111.177 Y107.022 Z0.384615
G1 X111.158 Y107.604 Z0.415385
G1 X110.87 Y108.11 Z0.446154
G1 X110.38 Y108.425 Z0.476923
G1 X109.799 Y108.476 Z0.507692
G1 X109.262 Y108.251 Z0.538462
G1 X108.89 Y107.803 Z0.569231
G1 X108.77 Y107.233 Z0.6
G1 X109.206 Y94.149 Z.6
G1 Z.2
G1 E1.2 F1800
;TYPE:Bottom surface
;WIDTH:0.46575
G1 F4800
G1 X108.539 Y93.481 E.03253
G1 X107.941 Y93.481 E.0206
G1 X109.019 Y94.559 E.05252
G1 X109.019 Y95.157 E.0206
G1 X107.343 Y93.481 E.08166
G1 X106.745 Y93.481 E.0206
G1 X109.019 Y95.755 E.1108
G1 X109.019 Y96.353 E.0206
G1 X106.147 Y93.481 E.13994
G1 X105.549 Y93.481 E.0206
G1 X109.019 Y96.951 E.16907
G1 X109.019 Y97.549 E.0206
G1 X104.951 Y93.481 E.19821
G1 X104.353 Y93.481 E.0206
G1 X109.019 Y98.147 E.22735
G1 X109.019 Y98.745 E.0206
G1 X103.755 Y93.481 E.25649
G1 X103.157 Y93.481 E.0206
G1 X109.019 Y99.343 E.28562
G1 X109.019 Y99.941 E.0206
G1 X102.559 Y93.481 E.31476
G1 X101.961 Y93.481 E.0206
G1 X109.019 Y100.539 E.3439
G1 X109.019 Y101.137 E.0206
G1 X101.363 Y93.481 E.37304
G1 X100.765 Y93.481 E.0206
G1 X109.019 Y101.735 E.40217
G1 X109.019 Y102.333 E.0206
G1 X100.167 Y93.481 E.43131
G1 X99.569 Y93.481 E.0206
G1 X109.019 Y102.931 E.46045
G1 X109.019 Y103.529 E.0206
G1 X98.971 Y93.481 E.48959
G1 X98.373 Y93.481 E.0206
G1 X109.019 Y104.127 E.51872
G1 X109.019 Y104.725 E.0206
G1 X97.775 Y93.481 E.54786
G1 X97.177 Y93.481 E.0206
G1 X109.019 Y105.323 E.577
G1 X109.019 Y105.921 E.0206
G1 X96.579 Y93.481 E.60614
G1 X95.981 Y93.481 E.0206
G1 X109.019 Y106.519 E.63527
G1 X108.421 Y106.519 E.0206
G1 X95.981 Y94.079 E.60613
G1 X95.981 Y94.677 E.0206
G1 X107.823 Y106.519 E.57699
G1 X107.225 Y106.519 E.0206
G1 X95.981 Y95.275 E.54786
G1 X95.981 Y95.873 E.0206
G1 X106.627 Y106.519 E.51872
G1 X106.029 Y106.519 E.0206
G1 X95.981 Y96.471 E.48958
G1 X95.981 Y97.069 E.0206
G1 X105.431 Y106.519 E.46044
G1 X104.833 Y106.519 E.0206
G1 X95.981 Y97.667 E.43131
G1 X95.981 Y98.265 E.0206
G1 X104.235 Y106.519 E.40217
G1 X103.637 Y106.519 E.0206
G1 X95.981 Y98.863 E.37303
G1 X95.981 Y99.461 E.0206
G1 X103.039 Y106.519 E.34389
G1 X102.441 Y106.519 E.0206
G1 X95.981 Y100.059 E.31476
G1 X95.981 Y100.657 E.0206
G1 X101.843 Y106.519 E.28562
G1 X101.245 Y106.519 E.0206
G1 X95.981 Y101.255 E.25648
G1 X95.981 Y101.853 E.0206
G1 X100.647 Y106.519 E.22734
G1 X100.049 Y106.519 E.0206
G1 X95.981 Y102.451 E.19821
G1 X95.981 Y103.049 E.0206
G1 X99.451 Y106.519 E.16907
G1 X98.853 Y106.519 E.0206
G1 X95.981 Y103.647 E.13993
G1 X95.981 Y104.245 E.0206
G1 X98.255 Y106.519 E.11079
G1 X97.657 Y106.519 E.0206
G1 X95.981 Y104.843 E.08166
G1 X95.981 Y105.441 E.0206
G1 X97.059 Y106.519 E.05252
G1 X96.461 Y106.519 E.0206
G1 X95.794 Y105.851 E.03253
; stop printing object monolayer l id:858993459400 copy 0
M106 S255
;LAYER_CHANGE
;Z:0.44
;HEIGHT:0.24
;BEFORE_LAYER_CHANGE
;0.44
G92 E0

G1 E-.84 F2400
;WIPE_START
G1 F4800
G1 X96.461 Y106.519 E-.33985
G1 X96.517 Y106.519 E-.02015
;WIPE_END
;_SET_FAN_SPEED_CHANGING_LAYER
M204 P2500
M104 S200 ; set nozzle temperature
; printing object monolayer l id:858993459400 copy 0
M204 T2500
G1 F9000
G1 X97.0786 Y106.674 Z0.470769
G1 X97.5035 Y107.072 Z0.501538
G1 X97.6947 Y107.622 Z0.532308
G1 X97.6082 Y108.199 Z0.563077
G1 X97.264 Y108.668 Z0.593846
G1 X96.7408 Y108.924 Z0.624615
G1 X96.1586 Y108.908 Z0.655385
G1 X95.6506 Y108.623 Z0.686154
G1 X95.3333 Y108.134 Z0.716923
G1 X95.2794 Y107.555 Z0.747692
G1 X95.5012 Y107.016 Z0.778462
G1 X95.9479 Y106.642 Z0.809231
G1 X96.5172 Y106.519 Z0.84
G1 X109.381 Y106.881 Z.84
G1 Z.44
G1 E1.2 F1800
M204 P2000
;TYPE:Inner wall
;WIDTH:0.449999
G1 F5400
G1 X95.619 Y106.881 E.53624
G1 X95.619 Y93.119 E.53624
G1 X109.381 Y93.119 E.53624
G1 X109.381 Y106.841 E.53468
M204 T1000
G1 X109.79 Y107.29 F9000
M204 P1000
;TYPE:Outer wall
;WIDTH:0.419999
G1 F3600
G1 X95.21 Y107.29 E.52536
G1 X95.21 Y92.71 E.52536
G1 X109.79 Y92.71 E.52536
G1 X109.79 Y107.25 E.52392
M204 T2500
G1 X108.997 Y106.497 F9000
M204 P2500
;TYPE:Internal solid infill
G1 F8307.371
G1 X108.997 Y105.034 E.05271
G1 X107.534 Y106.497 E.07454
G1 X108.957 Y106.497 E.05127
G1 X109.223 Y104.339 F9000
;WIDTH:0.421601
G1 F8271.411
G1 X107.004 Y106.557 E.11354
G1 X106.481 Y106.557 E.01894
G1 X109.057 Y103.981 E.13184
G1 X109.057 Y103.458 E.01894
G1 X105.958 Y106.557 E.15863
G1 X105.434 Y106.557 E.01894
G1 X109.057 Y102.934 E.18541
G1 X109.057 Y102.411 E.01894
G1 X104.911 Y106.557 E.2122
G1 X104.387 Y106.557 E.01894
G1 X109.057 Y101.887 E.23899
G1 X109.057 Y101.364 E.01894
G1 X103.864 Y106.557 E.26578
G1 X103.341 Y106.557 E.01894
G1 X109.057 Y100.841 E.29256
G1 X109.057 Y100.317 E.01894
G1 X102.817 Y106.557 E.31935
G1 X102.294 Y106.557 E.01894
G1 X109.057 Y99.794 E.34614
G1 X109.057 Y99.271 E.01894
G1 X101.771 Y106.557 E.37293
G1 X101.247 Y106.557 E.01894
G1 X109.057 Y98.747 E.39971
G1 X109.057 Y98.224 E.01894
G1 X100.724 Y106.557 E.4265
G1 X100.2 Y106.557 E.01894
G1 X109.057 Y97.7 E.45329
G1 X109.057 Y97.177 E.01894
G1 X99.677 Y106.557 E.48008
G1 X99.154 Y106.557 E.01894
G1 X109.057 Y96.654 E.50686
G1 X109.057 Y96.13 E.01894
G1 X98.63 Y106.557 E.53365
G1 X98.107 Y106.557 E.01894
G1 X109.057 Y95.607 E.56044
G1 X109.057 Y95.083 E.01894
G1 X97.583 Y106.557 E.58723
G1 X97.06 Y106.557 E.01894
G1 X109.057 Y94.56 E.61401
G1 X109.057 Y94.037 E.01894
G1 X96.537 Y106.557 E.6408
G1 X96.013 Y106.557 E.01894
G1 X109.057 Y93.513 E.66759
G1 X109.057 Y93.443 E.00254
G1 X108.604 Y93.443 E.0164
G1 X95.943 Y106.104 E.64798
G1 X95.943 Y105.58 E.01894
G1 X108.08 Y93.443 E.6212
G1 X107.557 Y93.443 E.01894
G1 X95.943 Y105.057 E.59441
G1 X95.943 Y104.534 E.01894
G1 X107.034 Y93.443 E.56762
G1 X106.51 Y93.443 E.01894
G1 X95.943 Y104.01 E.54083
G1 X95.943 Y103.487 E.01894
G1 X105.987 Y93.443 E.51405
G1 X105.463 Y93.443 E.01894
G1 X95.943 Y102.963 E.48726
G1 X95.943 Y102.44 E.01894
G1 X104.94 Y93.443 E.46047
G1 X104.417 Y93.443 E.01894
G1 X95.943 Y101.917 E.43368
G1 X95.943 Y101.393 E.01894
G1 X103.893 Y93.443 E.4069
G1 X103.37 Y93.443 E.01894
G1 X95.943 Y100.87 E.38011
G1 X95.943 Y100.346 E.01894
G1 X102.846 Y93.443 E.35332
G1 X102.323 Y93.443 E.01894
G1 X95.943 Y99.823 E.32653
G1 X95.943 Y99.3 E.01894
G1 X101.8 Y93.443 E.29975
G1 X101.276 Y93.443 E.01894
G1 X95.943 Y98.776 E.27296
G1 X95.943 Y98.253 E.01894
G1 X100.753 Y93.443 E.24617
G1 X100.229 Y93.443 E.01894
G1 X95.943 Y97.729 E.21938
G1 X95.943 Y97.206 E.01894
G1 X99.706 Y93.443 E.1926
G1 X99.183 Y93.443 E.01894
G1 X95.943 Y96.683 E.16581
G1 X95.943 Y96.159 E.01894
G1 X98.659 Y93.443 E.13902
G1 X98.136 Y93.443 E.01894
G1 X95.943 Y95.636 E.11223
G1 X95.943 Y95.112 E.01894
G1 X97.612 Y93.443 E.08545
G1 X97.089 Y93.443 E.01894
G1 X95.943 Y94.589 E.05866
G1 X95.943 Y94.066 E.01894
G1 X96.732 Y93.277 E.04036
; stop printing object monolayer l id:858993459400 copy 0
;LAYER_CHANGE
;Z:0.68
;HEIGHT:0.24
;BEFORE_LAYER_CHANGE
;0.68
G92 E0

G1 E-.90984 F2400
;WIPE_START
G1 F8271.411
G1 X96.024 Y93.984 E-.29016
;WIPE_END
;_SET_FAN_SPEED_CHANGING_LAYER
; printing object monolayer l id:858993459400 copy 0
G1 F9000
G1 X96.3344 Y94.4774 Z0.710769
G1 X96.3798 Y95.0581 Z0.741538
G1 X96.1501 Y95.5933 Z0.772308
G1 X95.6979 Y95.9605 Z0.803077
G1 X95.1269 Y96.0756 Z0.833846
G1 X94.5679 Y95.912 Z0.864615
G1 X94.1488 Y95.5074 Z0.895385
G1 X93.9658 Y94.9545 Z0.926154
G1 X94.0608 Y94.3798 Z0.956923
G1 X94.4119 Y93.915 Z0.987692
G1 X94.9388 Y93.6667 Z1.01846
G1 X95.5208 Y93.6917 Z1.04923
G1 X96.0244 Y93.9843 Z1.08
G1 X109.381 Y106.881 Z1.08
G1 Z.68
G1 E1.2 F1800
M204 P2000
;TYPE:Inner wall
;WIDTH:0.449999
G1 F5400
G1 X95.619 Y106.881 E.53624
G1 X95.619 Y93.119 E.53624
G1 X109.381 Y93.119 E.53624
G1 X109.381 Y106.841 E.53468
M204 T1000
G1 X109.79 Y107.29 F9000
M204 P1000
;TYPE:Outer wall
;WIDTH:0.419999
G1 F3600
G1 X95.21 Y107.29 E.52536
G1 X95.21 Y92.71 E.52536
G1 X109.79 Y92.71 E.52536
G1 X109.79 Y107.25 E.52392
M204 T2500
G1 E-.84 F2400
;WIPE_START
G1 F3600
G1 X108.79 Y107.253 E-.36
;WIPE_END
G1 F9000
G1 X108.95 Y106.693 Z0.710769
G1 X109.353 Y106.272 Z0.741538
G1 X109.905 Y106.085 Z0.772308
G1 X110.48 Y106.177 Z0.803077
G1 X110.947 Y106.526 Z0.833846
G1 X111.198 Y107.051 Z0.864615
G1 X111.176 Y107.633 Z0.895385
G1 X110.886 Y108.139 Z0.926154
G1 X110.395 Y108.451 Z0.956923
G1 X109.814 Y108.5 Z0.987692
G1 X109.278 Y108.273 Z1.01846
G1 X108.908 Y107.823 Z1.04923
G1 X108.79 Y107.253 Z1.08
G1 X109.223 Y95.661 Z1.08
G1 Z.68
G1 E1.2 F1800
M204 P2500
;TYPE:Internal solid infill
;WIDTH:0.421601
G1 F8271.411
G1 X107.004 Y93.443 E.11354
G1 X106.481 Y93.443 E.01894
G1 X109.057 Y96.019 E.13184
G1 X109.057 Y96.542 E.01894
G1 X105.958 Y93.443 E.15863
G1 X105.434 Y93.443 E.01894
G1 X109.057 Y97.066 E.18541
G1 X109.057 Y97.589 E.01894
G1 X104.911 Y93.443 E.2122
G1 X104.387 Y93.443 E.01894
G1 X109.057 Y98.113 E.23899
G1 X109.057 Y98.636 E.01894
G1 X103.864 Y93.443 E.26578
G1 X103.341 Y93.443 E.01894
G1 X109.057 Y99.159 E.29256
G1 X109.057 Y99.683 E.01894
G1 X102.817 Y93.443 E.31935
G1 X102.294 Y93.443 E.01894
G1 X109.057 Y100.206 E.34614
G1 X109.057 Y100.729 E.01894
G1 X101.771 Y93.443 E.37293
G1 X101.247 Y93.443 E.01894
G1 X109.057 Y101.253 E.39971
G1 X109.057 Y101.776 E.01894
G1 X100.724 Y93.443 E.4265
G1 X100.2 Y93.443 E.01894
G1 X109.057 Y102.3 E.45329
G1 X109.057 Y102.823 E.01894
G1 X99.677 Y93.443 E.48008
G1 X99.154 Y93.443 E.01894
G1 X109.057 Y103.346 E.50686
G1 X109.057 Y103.87 E.01894
G1 X98.63 Y93.443 E.53365
G1 X98.107 Y93.443 E.01894
G1 X109.057 Y104.393 E.56044
G1 X109.057 Y104.917 E.01894
G1 X97.583 Y93.443 E.58723
G1 X97.06 Y93.443 E.01894
G1 X109.057 Y105.44 E.61401
G1 X109.057 Y105.963 E.01894
G1 X96.537 Y93.443 E.6408
G1 X96.013 Y93.443 E.01894
G1 X109.057 Y106.487 E.66759
G1 X109.057 Y106.557 E.00254
G1 X108.604 Y106.557 E.0164
G1 X95.943 Y93.896 E.64798
G1 X95.943 Y94.42 E.01894
G1 X108.08 Y106.557 E.6212
G1 X107.557 Y106.557 E.01894
G1 X95.943 Y94.943 E.59441
G1 X95.943 Y95.466 E.01894
G1 X107.034 Y106.557 E.56762
G1 X106.51 Y106.557 E.01894
G1 X95.943 Y95.99 E.54083
G1 X95.943 Y96.513 E.01894
G1 X105.987 Y106.557 E.51405
G1 X105.463 Y106.557 E.01894
G1 X95.943 Y97.037 E.48726
G1 X95.943 Y97.56 E.01894
G1 X104.94 Y106.557 E.46047
G1 X104.417 Y106.557 E.01894
G1 X95.943 Y98.083 E.43368
G1 X95.943 Y98.607 E.01894
G1 X103.893 Y106.557 E.4069
G1 X103.37 Y106.557 E.01894
G1 X95.943 Y99.13 E.38011
G1 X95.943 Y99.654 E.01894
G1 X102.846 Y106.557 E.35332
G1 X102.323 Y106.557 E.01894
G1 X95.943 Y100.177 E.32653
G1 X95.943 Y100.7 E.01894
G1 X101.8 Y106.557 E.29975
G1 X101.276 Y106.557 E.01894
G1 X95.943 Y101.224 E.27296
G1 X95.943 Y101.747 E.01894
G1 X100.753 Y106.557 E.24617
G1 X100.229 Y106.557 E.01894
G1 X95.943 Y102.271 E.21938
G1 X95.943 Y102.794 E.01894
G1 X99.706 Y106.557 E.1926
G1 X99.183 Y106.557 E.01894
G1 X95.943 Y103.317 E.16581
G1 X95.943 Y103.841 E.01894
G1 X98.659 Y106.557 E.13902
G1 X98.136 Y106.557 E.01894
G1 X95.943 Y104.364 E.11223
G1 X95.943 Y104.888 E.01894
G1 X97.613 Y106.557 E.08545
G1 X97.089 Y106.557 E.01894
G1 X95.943 Y105.411 E.05866
G1 X95.943 Y105.934 E.01894
G1 X96.732 Y106.723 E.04036
G1 X108.997 Y94.966 F9000
;WIDTH:0.419999
G1 F8307.371
G1 X108.997 Y93.503 E.05271
G1 X107.534 Y93.503 E.05271
G1 X108.969 Y94.937 E.0731
; stop printing object monolayer l id:858993459400 copy 0
;LAYER_CHANGE
;Z:0.92
;HEIGHT:0.24
;BEFORE_LAYER_CHANGE
;0.92
G92 E0

G1 E-.9111 F2400
;WIPE_START
G1 F8307.371
G1 X108.262 Y94.23 E-.2889
;WIPE_END
;_SET_FAN_SPEED_CHANGING_LAYER
; printing object monolayer l id:858993459400 copy 0
G1 F9000
G1 X108.173 Y94.8058 Z0.950769
G1 X107.827 Y95.2741 Z0.981538
G1 X107.302 Y95.5278 Z1.01231
G1 X106.72 Y95.5089 Z1.04308
G1 X106.213 Y95.2215 Z1.07385
G1 X105.898 Y94.7316 Z1.10462
G1 X105.847 Y94.1514 Z1.13538
G1 X106.071 Y93.6138 Z1.16615
G1 X106.52 Y93.2419 Z1.19692
G1 X107.089 Y93.1211 Z1.22769
G1 X107.65 Y93.2788 Z1.25846
G1 X108.073 Y93.6791 Z1.28923
G1 X108.262 Y94.2302 Z1.32
G1 X109.381 Y106.881 Z1.32
G1 Z.92
G1 E1.2 F1800
M204 P2000
;TYPE:Inner wall
;WIDTH:0.449999
G1 F5400
G1 X95.619 Y106.881 E.53624
G1 X95.619 Y93.119 E.53624
G1 X109.381 Y93.119 E.53624
G1 X109.381 Y106.841 E.53468
M204 T1000
G1 X109.79 Y107.29 F9000
M204 P1000
;TYPE:Outer wall
;WIDTH:0.419999
G1 F3600
G1 X95.21 Y107.29 E.52536
G1 X95.21 Y92.71 E.52536
G1 X109.79 Y92.71 E.52536
G1 X109.79 Y107.25 E.52392
M204 T2500
G1 X108.997 Y106.497 F9000
M204 P2500
;TYPE:Internal solid infill
G1 F8307.371
G1 X108.997 Y105.034 E.05271
G1 X107.534 Y106.497 E.07454
G1 X108.957 Y106.497 E.05127
G1 X109.223 Y104.339 F9000
;WIDTH:0.421601
G1 F8271.411
G1 X107.004 Y106.557 E.11354
G1 X106.481 Y106.557 E.01894
G1 X109.057 Y103.981 E.13184
G1 X109.057 Y103.458 E.01894
G1 X105.958 Y106.557 E.15863
G1 X105.434 Y106.557 E.01894
G1 X109.057 Y102.934 E.18541
G1 X109.057 Y102.411 E.01894
G1 X104.911 Y106.557 E.2122
G1 X104.387 Y106.557 E.01894
G1 X109.057 Y101.887 E.23899
G1 X109.057 Y101.364 E.01894
G1 X103.864 Y106.557 E.26578
G1 X103.341 Y106.557 E.01894
G1 X109.057 Y100.841 E.29256
G1 X109.057 Y100.317 E.01894
G1 X102.817 Y106.557 E.31935
G1 X102.294 Y106.557 E.01894
G1 X109.057 Y99.794 E.34614
G1 X109.057 Y99.271 E.01894
G1 X101.771 Y106.557 E.37293
G1 X101.247 Y106.557 E.01894
G1 X109.057 Y98.747 E.39971
G1 X109.057 Y98.224 E.01894
G1 X100.724 Y106.557 E.4265
G1 X100.2 Y106.557 E.01894
G1 X109.057 Y97.7 E.45329
G1 X109.057 Y97.177 E.01894
