; HEADER_BLOCK_START
; generated by OrcaSlicer-WaveOverhangs 2.4.0-dev on 2026-04-24 at 00:15:04
; WAVE_OVERHANG_BUILD wave_overhangs_version=0.2.1 orca_base=2.4.0-dev
; WAVE_OVERHANG_CONFIG region=0 algo=andersons outer_perim=1 spacing=0.400 flow_mm3_per_mm=0.200 speed=2.0 travel=40.0 fan=100 floor_layers=2 min_angle=0.0 min_length=0.00 max_iterations=0 ring_overlap=0.15 pattern=zigzag spacing_mode=uniform seam_mode=alternating perimeter_overlap=0.10 minimum_wave_width=0.70 min_new_area=0.0100 nozzle_temp_override=0 min_wave_time=0.00 min_layer_time=0.00 wall_loops=3 top_shell_layers=5 bottom_shell_layers=4 infill_density=15 infill_pattern=rectilinear support_remainder=1 instead_of_bridges=0
; total layer number: 43
; filament_density: 1.24
; filament_diameter: 1.75
; max_z_height: 10.28
; filament: 1
; HEADER_BLOCK_END

; THUMBNAIL_BLOCK_START

;
; THUMBNAIL_BLOCK_END

; external perimeters extrusion width = 0.42mm
; perimeters extrusion width = 0.45mm
; infill extrusion width = 0.44mm
; solid infill extrusion width = 0.44mm
; top infill extrusion width = 0.38mm
; first layer extrusion width = 0.42mm

; EXECUTABLE_BLOCK_START
EXCLUDE_OBJECT_DEFINE NAME=monolayer_l_id_0_copy_0 CENTER=125,125 POLYGON=[[110,107.5],[125,107.5],[140,127.5],[140,142.5],[110,142.5],[110,107.5]]
M106 S0
M106 P2 S0
;TYPE:Custom
G9111 bedTemp=65 extruderTemp=220
M117
M106 P3 S153
G90
G21
M83 ; use relative distances for extrusion
; filament start gcode
SET_PRESSURE_ADVANCE ADVANCE=0.026; Override pressure advance value
M106 S0
M106 P2 S0
;LAYER_CHANGE
;Z:0.2
;HEIGHT:0.2
; BEFORE_LAYER_CHANGE 0 @ 0.2mm
G1 E-.8 F1800
; AFTER_LAYER_CHANGE 0 @ 0.2mm
;_SET_FAN_SPEED_CHANGING_LAYER
SET_VELOCITY_LIMIT ACCEL=2000 ACCEL_TO_DECEL=1000
G1 X108.206 Y105.796 F24000
G1 Z.2
G1 Z.2
G1 E.8 F1800
;TYPE:Skirt
;WIDTH:0.42
G1 F3000
G1 X108.883 Y105.19 E.02735
G1 X110 Y104.934 E.03448
G1 X125 Y104.934 E.4515
G1 X126.363 Y105.327 E.0427
G1 X127.31 Y106.383 E.0427
G1 X127.566 Y107.5 E.03448
G1 X127.566 Y122.5 E.4515
G1 X127.173 Y123.863 E.0427
G1 X126.117 Y124.81 E.0427
G1 X125 Y125.066 E.03448
G1 X110 Y125.066 E.4515
G1 X108.637 Y124.673 E.0427
G1 X107.69 Y123.617 E.0427
G1 X107.434 Y122.5 E.03448
G1 X107.434 Y107.5 E.4515
G1 X107.827 Y106.137 E.0427
G1 X108.177 Y105.823 E.01415
G1 X108.394 Y106.103 F24000
G1 F3000
G1 X109.235 Y105.449 E.03206
G1 X110 Y105.311 E.02339
G1 X125 Y105.311 E.4515
G1 X126.248 Y105.702 E.03937
G1 X127.051 Y106.735 E.03937
G1 X127.189 Y107.5 E.02339
G1 X127.189 Y122.5 E.4515
G1 X126.798 Y123.748 E.03937
G1 X125.765 Y124.551 E.03937
G1 X125 Y124.689 E.02339
G1 X110 Y124.689 E.4515
G1 X108.752 Y124.298 E.03937
G1 X107.949 Y123.265 E.03937
G1 X107.811 Y122.5 E.02339
G1 X107.811 Y107.5 E.4515
G1 X108.202 Y106.252 E.03937
G1 X108.362 Y106.127 E.0061
; printing object monolayer l id:0 copy 0
;WIPE_START
G1 X109.235 Y105.449 E-.4421
G1 X110 Y105.311 E-.31082
G1 X110.118 Y105.311 E-.04709
;WIPE_END
EXCLUDE_OBJECT_START NAME=monolayer_l_id_0_copy_0
G1 X124.59 Y122.09 F24000
G1 E.8 F1800
;TYPE:Outer wall
;WIDTH:0.419999
G1 F4800
G1 X110.41 Y122.09 E.42682
G1 X110.41 Y107.91 E.42682
G1 X124.59 Y107.91 E.42682
G1 X124.59 Y122.05 E.42562
G1 X124.213 Y121.713 F24000
;TYPE:Inner wall
G1 F4800
G1 X110.787 Y121.713 E.40412
G1 X110.787 Y108.287 E.40412
G1 X124.213 Y108.287 E.40412
G1 X124.213 Y121.673 E.40291
G1 X123.836 Y121.336 F24000
G1 F4800
G1 X111.164 Y121.336 E.38142
G1 X111.164 Y108.664 E.38142
G1 X123.836 Y108.664 E.38142
G1 X123.836 Y121.296 E.38021
G1 E-.05 F1800
;WIPE_START
G1 F4800
G1 X121.836 Y121.302 E-.75
;WIPE_END
G1 X123.723 Y108.948 F24000
G1 E.8 F1800
;TYPE:Bottom surface
;WIDTH:0.421197
G1 F7200
G1 X111.447 Y108.948 E.37068
G1 X111.447 Y109.326 E.01142
G1 X123.553 Y109.326 E.36555
G1 X123.553 Y109.704 E.01142
G1 X111.447 Y109.704 E.36555
G1 X111.447 Y110.082 E.01142
G1 X123.553 Y110.082 E.36555
G1 X123.553 Y110.461 E.01142
G1 X111.447 Y110.461 E.36555
G1 X111.447 Y110.839 E.01142
G1 X123.553 Y110.839 E.36555
G1 X123.553 Y111.217 E.01142
G1 X111.447 Y111.217 E.36555
G1 X111.447 Y111.596 E.01142
G1 X123.553 Y111.596 E.36555
G1 X123.553 Y111.974 E.01142
G1 X111.447 Y111.974 E.36555
G1 X111.447 Y112.352 E.01142
G1 X123.553 Y112.352 E.36555
G1 X123.553 Y112.73 E.01142
G1 X111.447 Y112.73 E.36555
G1 X111.447 Y113.109 E.01142
G1 X123.553 Y113.109 E.36555
G1 X123.553 Y113.487 E.01142
G1 X111.447 Y113.487 E.36555
G1 X111.447 Y113.865 E.01142
G1 X123.553 Y113.865 E.36555
G1 X123.553 Y114.243 E.01142
G1 X111.447 Y114.243 E.36555
G1 X111.447 Y114.622 E.01142
G1 X123.553 Y114.622 E.36555
G1 X123.553 Y115 E.01142
G1 X111.447 Y115 E.36555
G1 X111.447 Y115.378 E.01142
G1 X123.553 Y115.378 E.36555
G1 X123.553 Y115.757 E.01142
G1 X111.447 Y115.757 E.36555
G1 X111.447 Y116.135 E.01142
G1 X123.553 Y116.135 E.36555
G1 X123.553 Y116.513 E.01142
G1 X111.447 Y116.513 E.36555
G1 X111.447 Y116.891 E.01142
G1 X123.553 Y116.891 E.36555
G1 X123.553 Y117.27 E.01142
G1 X111.447 Y117.27 E.36555
G1 X111.447 Y117.648 E.01142
G1 X123.553 Y117.648 E.36555
G1 X123.553 Y118.026 E.01142
G1 X111.447 Y118.026 E.36555
G1 X111.447 Y118.405 E.01142
G1 X123.553 Y118.405 E.36555
G1 X123.553 Y118.783 E.01142
G1 X111.447 Y118.783 E.36555
G1 X111.447 Y119.161 E.01142
G1 X123.553 Y119.161 E.36555
G1 X123.553 Y119.539 E.01142
G1 X111.447 Y119.539 E.36555
G1 X111.447 Y119.918 E.01142
G1 X123.553 Y119.918 E.36555
G1 X123.553 Y120.296 E.01142
G1 X111.447 Y120.296 E.36555
G1 X111.447 Y120.674 E.01142
G1 X123.553 Y120.674 E.36555
G1 X123.553 Y121.052 E.01142
G1 X111.277 Y121.052 E.37068
; stop printing object monolayer l id:0 copy 0
M106 S250
M106 P2 S153
;LAYER_CHANGE
;Z:0.44
;HEIGHT:0.24
; BEFORE_LAYER_CHANGE 1 @ 0.44mm
G1 E-.3 F1800
;WIPE_START
G1 F7200
G1 X113.277 Y121.052 E-.5
;WIPE_END
EXCLUDE_OBJECT_END NAME=monolayer_l_id_0_copy_0
; AFTER_LAYER_CHANGE 1 @ 0.44mm
;_SET_FAN_SPEED_CHANGING_LAYER
SET_VELOCITY_LIMIT ACCEL=10000 ACCEL_TO_DECEL=5000
M104 S210 ; set nozzle temperature
M140 S65 ; set bed temperature
G1 X113.277 Y125.066 Z.84 F24000
G1 Z.44
G1 E.8 F1800
;TYPE:Skirt
;WIDTH:0.42
G1 F3000
G1 X110 Y125.066 E.11568
G1 X108.637 Y124.673 E.05007
G1 X107.69 Y123.617 E.05007
G1 X107.434 Y122.5 E.04044
G1 X107.434 Y107.5 E.52947
G1 X107.827 Y106.137 E.05007
G1 X108.883 Y105.19 E.05007
G1 X110 Y104.934 E.04044
G1 X125 Y104.934 E.52947
G1 X126.363 Y105.327 E.05007
G1 X127.31 Y106.383 E.05007
G1 X127.566 Y107.5 E.04044
G1 X127.566 Y122.5 E.52947
G1 X127.173 Y123.863 E.05007
G1 X126.117 Y124.81 E.05007
G1 X125 Y125.066 E.04044
G1 X113.317 Y125.066 E.41238
G1 X113.317 Y124.689 F24000
G1 F3000
G1 X110 Y124.689 E.11709
G1 X108.752 Y124.298 E.04617
G1 X107.949 Y123.265 E.04617
G1 X107.811 Y122.5 E.02743
G1 X107.811 Y107.5 E.52947
G1 X108.202 Y106.252 E.04617
G1 X109.235 Y105.449 E.04617
G1 X110 Y105.311 E.02743
G1 X125 Y105.311 E.52947
G1 X126.248 Y105.702 E.04617
G1 X127.051 Y106.735 E.04617
G1 X127.189 Y107.5 E.02743
G1 X127.189 Y122.5 E.52947
G1 X126.798 Y123.748 E.04617
G1 X125.765 Y124.551 E.04617
G1 X125 Y124.689 E.02743
G1 X113.357 Y124.689 E.41096
; printing object monolayer l id:0 copy 0
;WIPE_START
G1 X111.357 Y124.689 E-.8
;WIPE_END
EXCLUDE_OBJECT_START NAME=monolayer_l_id_0_copy_0
G1 X118.871 Y123.347 Z.84 F24000
G1 X124.79 Y122.29 Z.84
G1 Z.44
G1 E.8 F1800
;TYPE:Outer wall
;WIDTH:0.419999
G1 F12000
G1 X110.21 Y122.29 E.51464
G1 X110.21 Y107.71 E.51464
G1 X124.79 Y107.71 E.51464
G1 X124.79 Y122.25 E.51323
G1 X124.407 Y121.907 F24000
;TYPE:Inner wall
;WIDTH:0.449999
G1 F13070.01
G1 X110.593 Y121.907 E.52726
G1 X110.593 Y108.093 E.52726
G1 X124.407 Y108.093 E.52726
G1 X124.407 Y121.867 E.52574
G1 X124.008 Y121.508 F24000
G1 F13070.01
G1 X110.992 Y121.508 E.49684
G1 X110.992 Y108.492 E.49684
G1 X124.008 Y108.492 E.49684
G1 X124.008 Y121.468 E.49531
G1 X123.65 Y121.329 F24000
;TYPE:Internal solid infill
;WIDTH:0.448292
G1 F13126.237
G1 X123.65 Y108.846 E.47447
G1 X123.253 Y108.846 E.01508
G1 X123.253 Y121.154 E.46783
G1 X122.857 Y121.154 E.01508
G1 X122.857 Y108.846 E.46783
G1 X122.46 Y108.846 E.01508
G1 X122.46 Y121.154 E.46783
G1 X122.063 Y121.154 E.01508
G1 X122.063 Y108.846 E.46783
G1 X121.666 Y108.846 E.01508
G1 X121.666 Y121.154 E.46783
G1 X121.269 Y121.154 E.01508
G1 X121.269 Y108.846 E.46783
G1 X120.873 Y108.846 E.01508
G1 X120.873 Y121.154 E.46783
G1 X120.476 Y121.154 E.01508
G1 X120.476 Y108.846 E.46783
G1 X120.079 Y108.846 E.01508
G1 X120.079 Y121.154 E.46783
G1 X119.682 Y121.154 E.01508
G1 X119.682 Y108.846 E.46783
G1 X119.286 Y108.846 E.01508
G1 X119.286 Y121.154 E.46783
G1 X118.889 Y121.154 E.01508
G1 X118.889 Y108.846 E.46783
G1 X118.492 Y108.846 E.01508
G1 X118.492 Y121.154 E.46783
G1 X118.095 Y121.154 E.01508
G1 X118.095 Y108.846 E.46783
G1 X117.698 Y108.846 E.01508
G1 X117.698 Y121.154 E.46783
G1 X117.302 Y121.154 E.01508
G1 X117.302 Y108.846 E.46783
G1 X116.905 Y108.846 E.01508
G1 X116.905 Y121.154 E.46783
G1 X116.508 Y121.154 E.01508
G1 X116.508 Y108.846 E.46783
G1 X116.111 Y108.846 E.01508
G1 X116.111 Y121.154 E.46783
G1 X115.714 Y121.154 E.01508
G1 X115.714 Y108.846 E.46783
G1 X115.318 Y108.846 E.01508
G1 X115.318 Y121.154 E.46783
G1 X114.921 Y121.154 E.01508
G1 X114.921 Y108.846 E.46783
G1 X114.524 Y108.846 E.01508
G1 X114.524 Y121.154 E.46783
G1 X114.127 Y121.154 E.01508
G1 X114.127 Y108.846 E.46783
G1 X113.73 Y108.846 E.01508
G1 X113.73 Y121.154 E.46783
G1 X113.334 Y121.154 E.01508
G1 X113.334 Y108.846 E.46783
G1 X112.937 Y108.846 E.01508
G1 X112.937 Y121.154 E.46783
G1 X112.54 Y121.154 E.01508
G1 X112.54 Y108.846 E.46783
G1 X112.143 Y108.846 E.01508
G1 X112.143 Y121.154 E.46783
G1 X111.747 Y121.154 E.01508
G1 X111.747 Y108.846 E.46783
G1 X111.35 Y108.846 E.01508
G1 X111.35 Y121.329 E.47447
; stop printing object monolayer l id:0 copy 0
M106 S252
;LAYER_CHANGE
;Z:0.68
;HEIGHT:0.24
; BEFORE_LAYER_CHANGE 2 @ 0.68mm
G1 E-.52574 F1800
;WIPE_START
G1 F13126.237
G1 X111.35 Y119.329 E-.27426
;WIPE_END
EXCLUDE_OBJECT_END NAME=monolayer_l_id_0_copy_0
; AFTER_LAYER_CHANGE 2 @ 0.68mm
;_SET_FAN_SPEED_CHANGING_LAYER
; printing object monolayer l id:0 copy 0
EXCLUDE_OBJECT_START NAME=monolayer_l_id_0_copy_0
G1 X118.803 Y120.971 Z1.08 F24000
G1 X124.79 Y122.29 Z1.08
G1 Z.68
G1 E.8 F1800
;TYPE:Outer wall
;WIDTH:0.419999
G1 F8716
G1 X110.21 Y122.29 E.51464
G1 X110.21 Y107.71 E.51464
G1 X124.79 Y107.71 E.51464
G1 X124.79 Y122.25 E.51323
G1 X124.407 Y121.907 F24000
;TYPE:Inner wall
;WIDTH:0.449999
G1 F8716
G1 X110.593 Y121.907 E.52726
G1 X110.593 Y108.093 E.52726
G1 X124.407 Y108.093 E.52726
G1 X124.407 Y121.867 E.52574
G1 X124.008 Y121.508 F24000
G1 F8716
G1 X110.992 Y121.508 E.49684
G1 X110.992 Y108.492 E.49684
G1 X124.008 Y108.492 E.49684
G1 X124.008 Y121.468 E.49531
G1 X123.829 Y108.85 F24000
;TYPE:Internal solid infill
;WIDTH:0.448292
G1 F8716
G1 X111.346 Y108.85 E.47447
G1 X111.346 Y109.247 E.01508
G1 X123.654 Y109.247 E.46783
G1 X123.654 Y109.643 E.01508
G1 X111.346 Y109.643 E.46783
G1 X111.346 Y110.04 E.01508
G1 X123.654 Y110.04 E.46783
G1 X123.654 Y110.437 E.01508
G1 X111.346 Y110.437 E.46783
G1 X111.346 Y110.834 E.01508
G1 X123.654 Y110.834 E.46783
G1 X123.654 Y111.231 E.01508
G1 X111.346 Y111.231 E.46783
G1 X111.346 Y111.627 E.01508
G1 X123.654 Y111.627 E.46783
G1 X123.654 Y112.024 E.01508
G1 X111.346 Y112.024 E.46783
G1 X111.346 Y112.421 E.01508
G1 X123.654 Y112.421 E.46783
G1 X123.654 Y112.818 E.01508
G1 X111.346 Y112.818 E.46783
G1 X111.346 Y113.214 E.01508
G1 X123.654 Y113.215 E.46783
G1 X123.654 Y113.611 E.01508
G1 X111.346 Y113.611 E.46783
G1 X111.346 Y114.008 E.01508
G1 X123.654 Y114.008 E.46783
G1 X123.654 Y114.405 E.01508
G1 X111.346 Y114.405 E.46783
G1 X111.346 Y114.802 E.01508
G1 X123.654 Y114.802 E.46783
G1 X123.654 Y115.198 E.01508
G1 X111.346 Y115.198 E.46783
G1 X111.346 Y115.595 E.01508
G1 X123.654 Y115.595 E.46783
G1 X123.654 Y115.992 E.01508
G1 X111.346 Y115.992 E.46783
G1 X111.346 Y116.389 E.01508
G1 X123.654 Y116.389 E.46783
G1 X123.654 Y116.786 E.01508
G1 X111.346 Y116.786 E.46783
G1 X111.346 Y117.182 E.01508
G1 X123.654 Y117.182 E.46783
G1 X123.654 Y117.579 E.01508
G1 X111.346 Y117.579 E.46783
G1 X111.346 Y117.976 E.01508
G1 X123.654 Y117.976 E.46783
G1 X123.654 Y118.373 E.01508
G1 X111.346 Y118.373 E.46783
G1 X111.346 Y118.77 E.01508
G1 X123.654 Y118.77 E.46783
G1 X123.654 Y119.166 E.01508
G1 X111.346 Y119.166 E.46783
G1 X111.346 Y119.563 E.01508
G1 X123.654 Y119.563 E.46783
G1 X123.654 Y119.96 E.01508
G1 X111.346 Y119.96 E.46783
G1 X111.346 Y120.357 E.01508
G1 X123.654 Y120.357 E.46783
G1 X123.654 Y120.753 E.01508
G1 X111.346 Y120.753 E.46783
G1 X111.346 Y121.15 E.01508
G1 X123.829 Y121.15 E.47447
; stop printing object monolayer l id:0 copy 0
;LAYER_CHANGE
;Z:0.92
;HEIGHT:0.24
; BEFORE_LAYER_CHANGE 3 @ 0.92mm
G1 E-.52574 F1800
;WIPE_START
G1 F13126.237
G1 X121.829 Y121.15 E-.27426
;WIPE_END
EXCLUDE_OBJECT_END NAME=monolayer_l_id_0_copy_0
; AFTER_LAYER_CHANGE 3 @ 0.92mm
;_SET_FAN_SPEED_CHANGING_LAYER
; printing object monolayer l id:0 copy 0
EXCLUDE_OBJECT_START NAME=monolayer_l_id_0_copy_0
G1 X124.79 Y122.29 Z1.32 F24000
G1 Z.92
G1 E.8 F1800
;TYPE:Outer wall
;WIDTH:0.419999
G1 F8615
G1 X110.21 Y122.29 E.51464
G1 X110.21 Y107.71 E.51464
G1 X124.79 Y107.71 E.51464
G1 X124.79 Y122.25 E.51323
G1 X124.407 Y121.907 F24000
;TYPE:Inner wall
;WIDTH:0.449999
G1 F8615
G1 X110.593 Y121.907 E.52726
G1 X110.593 Y108.093 E.52726
G1 X124.407 Y108.093 E.52726
G1 X124.407 Y121.867 E.52574
G1 X124.008 Y121.508 F24000
G1 F8615
G1 X110.992 Y121.508 E.49684
G1 X110.992 Y108.492 E.49684
G1 X124.008 Y108.492 E.49684
G1 X124.008 Y121.468 E.49531
G1 X123.65 Y121.329 F24000
;TYPE:Internal solid infill
;WIDTH:0.448292
G1 F8615
G1 X123.65 Y108.846 E.47447
G1 X123.253 Y108.846 E.01508
G1 X123.253 Y121.154 E.46783
G1 X122.857 Y121.154 E.01508
G1 X122.857 Y108.846 E.46783
G1 X122.46 Y108.846 E.01508
G1 X122.46 Y121.154 E.46783
G1 X122.063 Y121.154 E.01508
G1 X122.063 Y108.846 E.46783
G1 X121.666 Y108.846 E.01508
G1 X121.666 Y121.154 E.46783
G1 X121.269 Y121.154 E.01508
G1 X121.269 Y108.846 E.46783
G1 X120.873 Y108.846 E.01508
G1 X120.873 Y121.154 E.46783
G1 X120.476 Y121.154 E.01508
G1 X120.476 Y108.846 E.46783
G1 X120.079 Y108.846 E.01508
G1 X120.079 Y121.154 E.46783
G1 X119.682 Y121.154 E.01508
G1 X119.682 Y108.846 E.46783
G1 X119.286 Y108.846 E.01508
G1 X119.286 Y121.154 E.46783
G1 X118.889 Y121.154 E.01508
G1 X118.889 Y108.846 E.46783
G1 X118.492 Y108.846 E.01508
G1 X118.492 Y121.154 E.46783
G1 X118.095 Y121.154 E.01508
G1 X118.095 Y108.846 E.46783
G1 X117.698 Y108.846 E.01508
G1 X117.698 Y121.154 E.46783
G1 X117.302 Y121.154 E.01508
G1 X117.302 Y108.846 E.46783
G1 X116.905 Y108.846 E.01508
G1 X116.905 Y121.154 E.46783
G1 X116.508 Y121.154 E.01508
G1 X116.508 Y108.846 E.46783
G1 X116.111 Y108.846 E.01508
G1 X116.111 Y121.154 E.46783
G1 X115.714 Y121.154 E.01508
G1 X115.714 Y108.846 E.46783
G1 X115.318 Y108.846 E.01508
G1 X115.318 Y121.154 E.46783
G1 X114.921 Y121.154 E.01508
G1 X114.921 Y108.846 E.46783
G1 X114.524 Y108.846 E.01508
G1 X114.524 Y121.154 E.46783
G1 X114.127 Y121.154 E.01508
G1 X114.127 Y108.846 E.46783
G1 X113.73 Y108.846 E.01508
G1 X113.73 Y121.154 E.46783
G1 X113.334 Y121.154 E.01508
G1 X113.334 Y108.846 E.46783
G1 X112.937 Y108.846 E.01508
G1 X112.937 Y121.154 E.46783
G1 X112.54 Y121.154 E.01508
G1 X112.54 Y108.846 E.46783
G1 X112.143 Y108.846 E.01508
G1 X112.143 Y121.154 E.46783
G1 X111.747 Y121.154 E.01508
G1 X111.747 Y108.846 E.46783
G1 X111.35 Y108.846 E.01508
G1 X111.35 Y121.329 E.47447
; stop printing object monolayer l id:0 copy 0
;LAYER_CHANGE
;Z:1.16
;HEIGHT:0.24
; BEFORE_LAYER_CHANGE 4 @ 1.16mm
G1 E-.52574 F1800
;WIPE_START
G1 F13126.237
G1 X111.35 Y119.329 E-.27426
;WIPE_END
EXCLUDE_OBJECT_END NAME=monolayer_l_id_0_copy_0
; AFTER_LAYER_CHANGE 4 @ 1.16mm
;_SET_FAN_SPEED_CHANGING_LAYER
; printing object monolayer l id:0 copy 0
EXCLUDE_OBJECT_START NAME=monolayer_l_id_0_copy_0
G1 X118.803 Y120.971 Z1.56 F24000
G1 X124.79 Y122.29 Z1.56
G1 Z1.16
G1 E.8 F1800
;TYPE:Outer wall
;WIDTH:0.419999
G1 F3753
G1 X110.21 Y122.29 E.51464
G1 X110.21 Y107.71 E.51464
G1 X124.79 Y107.71 E.51464
G1 X124.79 Y122.25 E.51323
