; HEADER_BLOCK_START
; generated by OrcaSlicer-WaveOverhangs 2.4.0-dev on 2026-04-24 at 15:49:23
; WAVE_OVERHANG_BUILD wave_overhangs_version=dev orca_base=2.4.0-dev
; WAVE_OVERHANG_CONFIG region=0 algo=andersons outer_perim=1 spacing=0.400 flow_mm3_per_mm=0.220 speed=2.0 travel=40.0 fan=100 floor_layers=2 min_angle=0.0 min_length=0.00 max_iterations=0 ring_overlap=0.15 pattern=smart spacing_mode=uniform seam_mode=alternating perimeter_overlap=0.10 minimum_wave_width=0.70 min_new_area=0.0100 nozzle_temp_override=0 min_wave_time=0.00 min_layer_time=0.00 wall_loops=2 top_shell_layers=5 bottom_shell_layers=4 infill_density=15 infill_pattern=rectilinear support_remainder=1 instead_of_bridges=0
; total layer number: 43
; filament_density: 1.24
; filament_diameter: 1.75
; max_z_height: 10.28
; filament: 1
; HEADER_BLOCK_END

; THUMBNAIL_BLOCK_START

;
; THUMBNAIL_BLOCK_END

; external perimeters extrusion width = 0.42mm
; perimeters extrusion width = 0.45mm
; infill extrusion width = 0.44mm
; solid infill extrusion width = 0.44mm
; top infill extrusion width = 0.38mm
; first layer extrusion width = 0.42mm

; EXECUTABLE_BLOCK_START
EXCLUDE_OBJECT_DEFINE NAME=monolayer_l_id_0_copy_0 CENTER=125,125 POLYGON=[[110,107.5],[125,107.5],[140,127.5],[140,142.5],[110,142.5],[110,107.5]]
M106 S0
M106 P2 S0
;TYPE:Custom
G9111 bedTemp=55 extruderTemp=220
M117
G90
G21
M83 ; use relative distances for extrusion
; Filament gcode
M106 S0
M106 P2 S0
;LAYER_CHANGE
;Z:0.2
;HEIGHT:0.2
; BEFORE_LAYER_CHANGE 0 @ 0.2mm
G1 E-.8 F2400
; AFTER_LAYER_CHANGE 0 @ 0.2mm
;_SET_FAN_SPEED_CHANGING_LAYER
SET_VELOCITY_LIMIT ACCEL=2000 ACCEL_TO_DECEL=1000
G1 X108.206 Y105.796 F24000
G1 Z.2
G1 Z.2
G1 E.8 F2400
;TYPE:Skirt
;WIDTH:0.42
G1 F3000
G1 X108.883 Y105.19 E.02706
G1 X110 Y104.934 E.03412
G1 X125 Y104.934 E.4468
G1 X126.363 Y105.327 E.04226
G1 X127.31 Y106.383 E.04226
G1 X127.566 Y107.5 E.03412
G1 X127.566 Y122.5 E.4468
G1 X127.173 Y123.863 E.04226
G1 X126.117 Y124.81 E.04226
G1 X125 Y125.066 E.03412
G1 X110 Y125.066 E.4468
G1 X108.637 Y124.673 E.04226
G1 X107.69 Y123.617 E.04226
G1 X107.434 Y122.5 E.03412
G1 X107.434 Y107.5 E.4468
G1 X107.827 Y106.137 E.04226
G1 X108.177 Y105.823 E.014
G1 X108.394 Y106.103 F24000
G1 F3000
G1 X109.235 Y105.449 E.03173
G1 X110 Y105.311 E.02315
G1 X125 Y105.311 E.4468
G1 X126.248 Y105.702 E.03896
G1 X127.051 Y106.735 E.03896
G1 X127.189 Y107.5 E.02315
G1 X127.189 Y122.5 E.4468
G1 X126.798 Y123.748 E.03896
G1 X125.765 Y124.551 E.03896
G1 X125 Y124.689 E.02315
G1 X110 Y124.689 E.4468
G1 X108.752 Y124.298 E.03896
G1 X107.949 Y123.265 E.03896
G1 X107.811 Y122.5 E.02315
G1 X107.811 Y107.5 E.4468
G1 X108.202 Y106.252 E.03896
G1 X108.362 Y106.127 E.00604
; printing object monolayer l id:0 copy 0
;WIPE_START
G1 X109.152 Y105.514 E-.8
;WIPE_END
EXCLUDE_OBJECT_START NAME=monolayer_l_id_0_copy_0
G1 X124.59 Y122.09 F24000
G1 E.8 F2400
;TYPE:Outer wall
G1 F4800
G1 X110.41 Y122.09 E.42237
G1 X110.41 Y107.91 E.42237
G1 X124.59 Y107.91 E.42237
G1 X124.59 Y122.05 E.42118
G1 X124.213 Y121.713 F24000
;TYPE:Inner wall
G1 F4800
G1 X110.787 Y121.713 E.39991
G1 X110.787 Y108.287 E.39991
G1 X124.213 Y108.287 E.39991
G1 X124.213 Y121.673 E.39872
G1 E-.3 F2400
;WIPE_START
G1 F4800
G1 X123.213 Y121.676 E-.5
;WIPE_END
G1 X124.1 Y108.571 F24000
G1 E.8 F2400
;TYPE:Bottom surface
;WIDTH:0.421128
G1 F7200
G1 X111.07 Y108.571 E.38928
G1 X111.07 Y108.949 E.0113
G1 X123.93 Y108.949 E.38421
G1 X123.93 Y109.327 E.0113
G1 X111.07 Y109.327 E.38421
G1 X111.07 Y109.705 E.0113
G1 X123.93 Y109.705 E.38421
G1 X123.93 Y110.083 E.0113
G1 X111.07 Y110.083 E.38421
G1 X111.07 Y110.462 E.0113
G1 X123.93 Y110.462 E.38421
G1 X123.93 Y110.84 E.0113
G1 X111.07 Y110.84 E.38421
G1 X111.07 Y111.218 E.0113
G1 X123.93 Y111.218 E.38421
G1 X123.93 Y111.596 E.0113
G1 X111.07 Y111.596 E.38421
G1 X111.07 Y111.974 E.0113
G1 X123.93 Y111.974 E.38421
G1 X123.93 Y112.353 E.0113
G1 X111.07 Y112.353 E.38421
G1 X111.07 Y112.731 E.0113
G1 X123.93 Y112.731 E.38421
G1 X123.93 Y113.109 E.0113
G1 X111.07 Y113.109 E.38421
G1 X111.07 Y113.487 E.0113
G1 X123.93 Y113.487 E.38421
G1 X123.93 Y113.865 E.0113
G1 X111.07 Y113.865 E.38421
G1 X111.07 Y114.244 E.0113
G1 X123.93 Y114.244 E.38421
G1 X123.93 Y114.622 E.0113
G1 X111.07 Y114.622 E.38421
G1 X111.07 Y115 E.0113
G1 X123.93 Y115 E.38421
G1 X123.93 Y115.378 E.0113
G1 X111.07 Y115.378 E.38421
G1 X111.07 Y115.756 E.0113
G1 X123.93 Y115.756 E.38421
G1 X123.93 Y116.135 E.0113
G1 X111.07 Y116.135 E.38421
G1 X111.07 Y116.513 E.0113
G1 X123.93 Y116.513 E.38421
G1 X123.93 Y116.891 E.0113
G1 X111.07 Y116.891 E.38421
G1 X111.07 Y117.269 E.0113
G1 X123.93 Y117.269 E.38421
G1 X123.93 Y117.647 E.0113
G1 X111.07 Y117.647 E.38421
G1 X111.07 Y118.026 E.0113
G1 X123.93 Y118.026 E.38421
G1 X123.93 Y118.404 E.0113
G1 X111.07 Y118.404 E.38421
G1 X111.07 Y118.782 E.0113
G1 X123.93 Y118.782 E.38421
G1 X123.93 Y119.16 E.0113
G1 X111.07 Y119.16 E.38421
G1 X111.07 Y119.539 E.0113
G1 X123.93 Y119.539 E.38421
G1 X123.93 Y119.917 E.0113
G1 X111.07 Y119.917 E.38421
G1 X111.07 Y120.295 E.0113
G1 X123.93 Y120.295 E.38421
G1 X123.93 Y120.673 E.0113
G1 X111.07 Y120.673 E.38421
G1 X111.07 Y121.051 E.0113
G1 X123.93 Y121.051 E.38421
G1 X123.93 Y121.43 E.0113
G1 X110.9 Y121.43 E.38928
; stop printing object monolayer l id:0 copy 0
M106 S255
M106 P2 S178
;LAYER_CHANGE
;Z:0.44
;HEIGHT:0.24
; BEFORE_LAYER_CHANGE 1 @ 0.44mm
G1 E-.46667 F2400
;WIPE_START
G1 F7200
G1 X111.9 Y121.43 E-.33333
;WIPE_END
EXCLUDE_OBJECT_END NAME=monolayer_l_id_0_copy_0
; AFTER_LAYER_CHANGE 1 @ 0.44mm
;_SET_FAN_SPEED_CHANGING_LAYER
SET_VELOCITY_LIMIT ACCEL=10000 ACCEL_TO_DECEL=5000
M140 S55 ; set bed temperature
G1 X111.9 Y125.066 Z.84 F24000
G1 Z.44
G1 E.8 F2400
;TYPE:Skirt
;WIDTH:0.42
G1 F3000
G1 X110 Y125.066 E.06637
G1 X108.637 Y124.673 E.04955
G1 X107.69 Y123.617 E.04955
G1 X107.434 Y122.5 E.04002
G1 X107.434 Y107.5 E.52395
G1 X107.827 Y106.137 E.04955
G1 X108.883 Y105.19 E.04955
G1 X110 Y104.934 E.04002
G1 X125 Y104.934 E.52395
G1 X126.363 Y105.327 E.04955
G1 X127.31 Y106.383 E.04955
G1 X127.566 Y107.5 E.04002
G1 X127.566 Y122.5 E.52395
G1 X127.173 Y123.863 E.04955
G1 X126.117 Y124.81 E.04955
G1 X125 Y125.066 E.04002
G1 X111.94 Y125.066 E.45618
G1 X111.94 Y124.689 F24000
G1 F3000
G1 X110 Y124.689 E.06777
G1 X108.752 Y124.298 E.04569
G1 X107.949 Y123.265 E.04569
G1 X107.811 Y122.5 E.02714
G1 X107.811 Y107.5 E.52395
G1 X108.202 Y106.252 E.04569
G1 X109.235 Y105.449 E.04569
G1 X110 Y105.311 E.02714
G1 X125 Y105.311 E.52395
G1 X126.248 Y105.702 E.04569
G1 X127.051 Y106.735 E.04569
G1 X127.189 Y107.5 E.02714
G1 X127.189 Y122.5 E.52395
G1 X126.798 Y123.748 E.04569
G1 X125.765 Y124.551 E.04569
G1 X125 Y124.689 E.02714
G1 X111.98 Y124.689 E.45478
; printing object monolayer l id:0 copy 0
;WIPE_START
G1 X110.98 Y124.689 E-.8
;WIPE_END
EXCLUDE_OBJECT_START NAME=monolayer_l_id_0_copy_0
G1 X118.5 Y123.382 Z.84 F24000
G1 X124.79 Y122.29 Z.84
G1 Z.44
G1 E.8 F2400
;TYPE:Outer wall
G1 F8569.696
G1 X110.21 Y122.29 E.50928
G1 X110.21 Y107.71 E.50928
G1 X124.79 Y107.71 E.50928
G1 X124.79 Y122.25 E.50789
G1 X124.407 Y121.907 F24000
;TYPE:Inner wall
;WIDTH:0.45
G1 F7924.542
G1 X110.593 Y121.907 E.52177
G1 X110.593 Y108.093 E.52177
G1 X124.407 Y108.093 E.52177
G1 X124.407 Y121.867 E.52026
G1 X124.048 Y121.727 F24000
;TYPE:Internal solid infill
;WIDTH:0.448363
G1 F7957.222
G1 X124.048 Y108.448 E.49956
G1 X123.651 Y108.448 E.01493
G1 X123.651 Y121.552 E.49298
G1 X123.254 Y121.552 E.01493
G1 X123.254 Y108.448 E.49298
G1 X122.858 Y108.448 E.01493
G1 X122.858 Y121.552 E.49298
G1 X122.461 Y121.552 E.01493
G1 X122.461 Y108.448 E.49298
G1 X122.064 Y108.448 E.01493
G1 X122.064 Y121.552 E.49298
G1 X121.667 Y121.552 E.01493
G1 X121.667 Y108.448 E.49298
G1 X121.27 Y108.448 E.01493
G1 X121.27 Y121.552 E.49298
G1 X120.873 Y121.552 E.01493
G1 X120.873 Y108.448 E.49298
G1 X120.476 Y108.448 E.01493
G1 X120.476 Y121.552 E.49298
G1 X120.08 Y121.552 E.01493
G1 X120.08 Y108.448 E.49298
G1 X119.683 Y108.448 E.01493
G1 X119.683 Y121.552 E.49298
G1 X119.286 Y121.552 E.01493
G1 X119.286 Y108.448 E.49298
G1 X118.889 Y108.448 E.01493
G1 X118.889 Y121.552 E.49298
G1 X118.492 Y121.552 E.01493
G1 X118.492 Y108.448 E.49298
G1 X118.095 Y108.448 E.01493
G1 X118.095 Y121.552 E.49298
G1 X117.698 Y121.552 E.01493
G1 X117.698 Y108.448 E.49298
G1 X117.302 Y108.448 E.01493
G1 X117.302 Y121.552 E.49298
G1 X116.905 Y121.552 E.01493
G1 X116.905 Y108.448 E.49298
G1 X116.508 Y108.448 E.01493
G1 X116.508 Y121.552 E.49298
G1 X116.111 Y121.552 E.01493
G1 X116.111 Y108.448 E.49298
G1 X115.714 Y108.448 E.01493
G1 X115.714 Y121.552 E.49298
G1 X115.317 Y121.552 E.01493
G1 X115.317 Y108.448 E.49298
G1 X114.92 Y108.448 E.01493
G1 X114.92 Y121.552 E.49298
G1 X114.524 Y121.552 E.01493
G1 X114.524 Y108.448 E.49298
G1 X114.127 Y108.448 E.01493
G1 X114.127 Y121.552 E.49298
G1 X113.73 Y121.552 E.01493
G1 X113.73 Y108.448 E.49298
G1 X113.333 Y108.448 E.01493
G1 X113.333 Y121.552 E.49298
G1 X112.936 Y121.552 E.01493
G1 X112.936 Y108.448 E.49298
G1 X112.539 Y108.448 E.01493
G1 X112.539 Y121.552 E.49298
G1 X112.142 Y121.552 E.01493
G1 X112.142 Y108.448 E.49298
G1 X111.746 Y108.448 E.01493
G1 X111.746 Y121.552 E.49298
G1 X111.349 Y121.552 E.01493
G1 X111.349 Y108.448 E.49298
G1 X110.952 Y108.448 E.01493
G1 X110.952 Y121.727 E.49956
; stop printing object monolayer l id:0 copy 0
;LAYER_CHANGE
;Z:0.68
;HEIGHT:0.24
; BEFORE_LAYER_CHANGE 2 @ 0.68mm
G1 E-.49839 F2400
;WIPE_START
G1 F7957.222
G1 X110.952 Y120.727 E-.30161
;WIPE_END
EXCLUDE_OBJECT_END NAME=monolayer_l_id_0_copy_0
; AFTER_LAYER_CHANGE 2 @ 0.68mm
;_SET_FAN_SPEED_CHANGING_LAYER
; printing object monolayer l id:0 copy 0
EXCLUDE_OBJECT_START NAME=monolayer_l_id_0_copy_0
G1 X118.536 Y121.584 Z1.08 F24000
G1 X124.79 Y122.29 Z1.08
G1 Z.68
G1 E.8 F2400
;TYPE:Outer wall
;WIDTH:0.42
G1 F8569.696
G1 X110.21 Y122.29 E.50928
G1 X110.21 Y107.71 E.50928
G1 X124.79 Y107.71 E.50928
G1 X124.79 Y122.25 E.50789
G1 X124.407 Y121.907 F24000
;TYPE:Inner wall
;WIDTH:0.45
G1 F7924.542
G1 X110.593 Y121.907 E.52177
G1 X110.593 Y108.093 E.52177
G1 X124.407 Y108.093 E.52177
G1 X124.407 Y121.867 E.52026
G1 X124.227 Y108.452 F24000
;TYPE:Internal solid infill
;WIDTH:0.448363
G1 F7957.222
G1 X110.948 Y108.452 E.49956
G1 X110.948 Y108.849 E.01493
G1 X124.052 Y108.849 E.49298
G1 X124.052 Y109.246 E.01493
G1 X110.948 Y109.246 E.49298
G1 X110.948 Y109.642 E.01493
G1 X124.052 Y109.642 E.49298
G1 X124.052 Y110.039 E.01493
G1 X110.948 Y110.039 E.49298
G1 X110.948 Y110.436 E.01493
G1 X124.052 Y110.436 E.49298
G1 X124.052 Y110.833 E.01493
G1 X110.948 Y110.833 E.49298
G1 X110.948 Y111.23 E.01493
G1 X124.052 Y111.23 E.49298
G1 X124.052 Y111.627 E.01493
G1 X110.948 Y111.627 E.49298
G1 X110.948 Y112.024 E.01493
G1 X124.052 Y112.024 E.49298
G1 X124.052 Y112.42 E.01493
G1 X110.948 Y112.42 E.49298
G1 X110.948 Y112.817 E.01493
G1 X124.052 Y112.817 E.49298
G1 X124.052 Y113.214 E.01493
G1 X110.948 Y113.214 E.49298
G1 X110.948 Y113.611 E.01493
G1 X124.052 Y113.611 E.49298
G1 X124.052 Y114.008 E.01493
G1 X110.948 Y114.008 E.49298
G1 X110.948 Y114.405 E.01493
G1 X124.052 Y114.405 E.49298
G1 X124.052 Y114.802 E.01493
G1 X110.948 Y114.802 E.49298
G1 X110.948 Y115.198 E.01493
G1 X124.052 Y115.198 E.49298
G1 X124.052 Y115.595 E.01493
G1 X110.948 Y115.595 E.49298
G1 X110.948 Y115.992 E.01493
G1 X124.052 Y115.992 E.49298
G1 X124.052 Y116.389 E.01493
G1 X110.948 Y116.389 E.49298
G1 X110.948 Y116.786 E.01493
G1 X124.052 Y116.786 E.49298
G1 X124.052 Y117.183 E.01493
G1 X110.948 Y117.183 E.49298
G1 X110.948 Y117.58 E.01493
G1 X124.052 Y117.58 E.49298
G1 X124.052 Y117.976 E.01493
G1 X110.948 Y117.976 E.49298
G1 X110.948 Y118.373 E.01493
G1 X124.052 Y118.373 E.49298
G1 X124.052 Y118.77 E.01493
G1 X110.948 Y118.77 E.49298
G1 X110.948 Y119.167 E.01493
G1 X124.052 Y119.167 E.49298
G1 X124.052 Y119.564 E.01493
G1 X110.948 Y119.564 E.49298
G1 X110.948 Y119.961 E.01493
G1 X124.052 Y119.961 E.49298
G1 X124.052 Y120.358 E.01493
G1 X110.948 Y120.358 E.49298
G1 X110.948 Y120.755 E.01493
G1 X124.052 Y120.755 E.49298
G1 X124.052 Y121.151 E.01493
G1 X110.948 Y121.151 E.49298
G1 X110.948 Y121.548 E.01493
G1 X124.227 Y121.548 E.49956
; stop printing object monolayer l id:0 copy 0
;LAYER_CHANGE
;Z:0.92
;HEIGHT:0.24
; BEFORE_LAYER_CHANGE 3 @ 0.92mm
G1 E-.49839 F2400
;WIPE_START
G1 F7957.222
G1 X123.227 Y121.548 E-.30161
;WIPE_END
EXCLUDE_OBJECT_END NAME=monolayer_l_id_0_copy_0
; AFTER_LAYER_CHANGE 3 @ 0.92mm
;_SET_FAN_SPEED_CHANGING_LAYER
; printing object monolayer l id:0 copy 0
EXCLUDE_OBJECT_START NAME=monolayer_l_id_0_copy_0
G1 X124.79 Y122.29 Z1.32 F24000
G1 Z.92
G1 E.8 F2400
;TYPE:Outer wall
;WIDTH:0.42
G1 F8569.696
G1 X110.21 Y122.29 E.50928
G1 X110.21 Y107.71 E.50928
G1 X124.79 Y107.71 E.50928
G1 X124.79 Y122.25 E.50789
G1 X124.407 Y121.907 F24000
;TYPE:Inner wall
;WIDTH:0.45
G1 F7924.542
G1 X110.593 Y121.907 E.52177
G1 X110.593 Y108.093 E.52177
G1 X124.407 Y108.093 E.52177
G1 X124.407 Y121.867 E.52026
G1 X124.048 Y121.727 F24000
;TYPE:Internal solid infill
;WIDTH:0.448363
G1 F7957.222
G1 X124.048 Y108.448 E.49956
G1 X123.651 Y108.448 E.01493
G1 X123.651 Y121.552 E.49298
G1 X123.254 Y121.552 E.01493
G1 X123.254 Y108.448 E.49298
G1 X122.858 Y108.448 E.01493
G1 X122.858 Y121.552 E.49298
G1 X122.461 Y121.552 E.01493
G1 X122.461 Y108.448 E.49298
G1 X122.064 Y108.448 E.01493
G1 X122.064 Y121.552 E.49298
G1 X121.667 Y121.552 E.01493
G1 X121.667 Y108.448 E.49298
G1 X121.27 Y108.448 E.01493
G1 X121.27 Y121.552 E.49298
G1 X120.873 Y121.552 E.01493
G1 X120.873 Y108.448 E.49298
G1 X120.476 Y108.448 E.01493
G1 X120.476 Y121.552 E.49298
G1 X120.08 Y121.552 E.01493
G1 X120.08 Y108.448 E.49298
G1 X119.683 Y108.448 E.01493
G1 X119.683 Y121.552 E.49298
G1 X119.286 Y121.552 E.01493
G1 X119.286 Y108.448 E.49298
G1 X118.889 Y108.448 E.01493
G1 X118.889 Y121.552 E.49298
G1 X118.492 Y121.552 E.01493
G1 X118.492 Y108.448 E.49298
G1 X118.095 Y108.448 E.01493
G1 X118.095 Y121.552 E.49298
G1 X117.698 Y121.552 E.01493
G1 X117.698 Y108.448 E.49298
G1 X117.302 Y108.448 E.01493
G1 X117.302 Y121.552 E.49298
G1 X116.905 Y121.552 E.01493
G1 X116.905 Y108.448 E.49298
G1 X116.508 Y108.448 E.01493
G1 X116.508 Y121.552 E.49298
G1 X116.111 Y121.552 E.01493
G1 X116.111 Y108.448 E.49298
G1 X115.714 Y108.448 E.01493
G1 X115.714 Y121.552 E.49298
G1 X115.317 Y121.552 E.01493
G1 X115.317 Y108.448 E.49298
G1 X114.92 Y108.448 E.01493
G1 X114.92 Y121.552 E.49298
G1 X114.524 Y121.552 E.01493
G1 X114.524 Y108.448 E.49298
G1 X114.127 Y108.448 E.01493
G1 X114.127 Y121.552 E.49298
G1 X113.73 Y121.552 E.01493
G1 X113.73 Y108.448 E.49298
G1 X113.333 Y108.448 E.01493
G1 X113.333 Y121.552 E.49298
G1 X112.936 Y121.552 E.01493
G1 X112.936 Y108.448 E.49298
G1 X112.539 Y108.448 E.01493
G1 X112.539 Y121.552 E.49298
G1 X112.142 Y121.552 E.01493
G1 X112.142 Y108.448 E.49298
G1 X111.746 Y108.448 E.01493
G1 X111.746 Y121.552 E.49298
G1 X111.349 Y121.552 E.01493
G1 X111.349 Y108.448 E.49298
G1 X110.952 Y108.448 E.01493
G1 X110.952 Y121.727 E.49956
; stop printing object monolayer l id:0 copy 0
;LAYER_CHANGE
;Z:1.16
;HEIGHT:0.24
; BEFORE_LAYER_CHANGE 4 @ 1.16mm
G1 E-.49839 F2400
;WIPE_START
G1 F7957.222
G1 X110.952 Y120.727 E-.30161
;WIPE_END
EXCLUDE_OBJECT_END NAME=monolayer_l_id_0_copy_0
; AFTER_LAYER_CHANGE 4 @ 1.16mm
;_SET_FAN_SPEED_CHANGING_LAYER
; printing object monolayer l id:0 copy 0
EXCLUDE_OBJECT_START NAME=monolayer_l_id_0_copy_0
G1 X118.536 Y121.584 Z1.56 F24000
G1 X124.79 Y122.29 Z1.56
G1 Z1.16
G1 E.8 F2400
;TYPE:Outer wall
;WIDTH:0.42
G1 F3077
G1 X110.21 Y122.29 E.50928
G1 X110.21 Y107.71 E.50928
G1 X124.79 Y107.71 E.50928
G1 X124.79 Y122.25 E.50789
G1 X124.407 Y121.907 F24000
;TYPE:Inner wall
;WIDTH:0.45
G1 F3077
G1 X110.593 Y121.907 E.52177
G1 X110.593 Y108.093 E.52177
G1 X124.407 Y108.093 E.52177
G1 X124.407 Y121.867 E.52026
G1 X124.227 Y109.576 F24000
;TYPE:Sparse infill
;WIDTH:0.44
G1 F3077
G1 X123.099 Y108.448 E.05877
G1 X119.436 Y108.448 E.13489
G1 X124.052 Y113.064 E.24042
G1 X124.052 Y116.727 E.13489
G1 X115.773 Y108.448 E.43118
G1 X112.11 Y108.448 E.13489
G1 X124.052 Y120.39 E.62194
G1 X124.052 Y121.552 E.04282
