; HEADER_BLOCK_START
; generated by OrcaSlicer-WaveOverhangs 2.4.0-dev on 2026-04-25 at 19:54:44
; WAVE_OVERHANG_BUILD wave_overhangs_version=0.2.3 orca_base=2.4.0-dev
; WAVE_OVERHANG_CONFIG region=0 algo=andersons outer_perim=1 spacing=0.440 flow_mm3_per_mm=0.200 speed=2.0 travel=40.0 fan=100 floor_layers=2 min_angle=0.0 min_length=0.00 max_iterations=0 ring_overlap=0.15 pattern=zigzag spacing_mode=uniform seam_mode=alternating perimeter_overlap=0.10 minimum_wave_width=0.70 min_new_area=0.0100 end_retract=0.00 nozzle_temp_override=0 min_wave_time=0.00 min_layer_time=0.00 wall_loops=3 top_shell_layers=5 bottom_shell_layers=4 infill_density=15 infill_pattern=rectilinear support_remainder=1 instead_of_bridges=0
; total layer number: 104
; filament_density: 1.24
; filament_diameter: 1.75
; max_z_height: 24.92
; filament: 1
; HEADER_BLOCK_END

; THUMBNAIL_BLOCK_START

;
; THUMBNAIL_BLOCK_END

; external perimeters extrusion width = 0.42mm
; perimeters extrusion width = 0.45mm
; infill extrusion width = 0.44mm
; solid infill extrusion width = 0.44mm
; top infill extrusion width = 0.38mm
; first layer extrusion width = 0.42mm

; EXECUTABLE_BLOCK_START
EXCLUDE_OBJECT_DEFINE NAME=Body1_id_0_copy_0 CENTER=125,125 POLYGON=[[102.829,124.355],[102.904,123.069],[103.053,121.788],[103.277,120.519],[103.574,119.265],[103.943,118.03],[104.384,116.818],[104.894,115.634],[105.472,114.482],[106.116,113.366],[106.824,112.288],[107.593,111.254],[108.421,110.266],[109.304,109.328],[109.723,108.953],[110.18,108.628],[110.671,108.357],[111.19,108.142],[111.729,107.986],[112.282,107.892],[112.843,107.861],[137.157,107.861],[137.718,107.892],[138.271,107.986],[138.81,108.142],[139.329,108.357],[139.82,108.628],[140.277,108.953],[140.696,109.328],[141.579,110.266],[142.407,111.254],[143.176,112.288],[143.884,113.366],[144.528,114.482],[145.106,115.634],[145.616,116.818],[146.057,118.03],[146.426,119.265],[146.723,120.519],[146.947,121.788],[147.096,123.069],[147.171,124.355],[147.171,125.645],[147.096,126.931],[146.947,128.212],[146.723,129.481],[146.426,130.735],[146.057,131.97],[145.616,133.182],[145.106,134.366],[144.528,135.518],[143.884,136.634],[143.176,137.712],[142.407,138.746],[141.579,139.734],[140.696,140.672],[140.277,141.047],[139.82,141.372],[139.329,141.643],[138.81,141.858],[138.271,142.014],[137.718,142.108],[137.157,142.139],[112.843,142.139],[112.282,142.108],[111.729,142.014],[111.19,141.858],[110.671,141.643],[110.18,141.372],[109.723,141.047],[109.304,140.672],[108.421,139.734],[107.593,138.746],[106.824,137.712],[106.116,136.634],[105.472,135.518],[104.894,134.366],[104.384,133.182],[103.943,131.97],[103.574,130.735],[103.277,129.481],[103.053,128.212],[102.904,126.931],[102.829,125.645],[102.829,124.355]]
M106 S0
M106 P2 S0
;TYPE:Custom
G9111 bedTemp=55 extruderTemp=210
M117
G90
G21
M83 ; use relative distances for extrusion
; Filament gcode
M106 S0
M106 P2 S0
;LAYER_CHANGE
;Z:0.2
;HEIGHT:0.2
; BEFORE_LAYER_CHANGE 0 @ 0.2mm
G1 E-.8 F2400
; AFTER_LAYER_CHANGE 0 @ 0.2mm
;_SET_FAN_SPEED_CHANGING_LAYER
SET_VELOCITY_LIMIT ACCEL=2000 ACCEL_TO_DECEL=1000
; printing object Body1 id:0 copy 0
EXCLUDE_OBJECT_START NAME=Body1_id_0_copy_0
G1 X125.415 Y115.429 F24000
G1 Z.2
G1 Z.2
G1 E.8 F2400
;TYPE:Outer wall
;WIDTH:0.419999
G1 F4800
G1 X125.42 Y115.429 E.00016
G1 X126.251 Y115.502 E.02564
G1 X127.074 Y115.647 E.02567
G1 X127.881 Y115.863 E.02568
G1 X128.666 Y116.149 E.02568
G1 X129.424 Y116.502 E.02568
G1 X130.148 Y116.92 E.02568
G1 X130.832 Y117.399 E.02568
G1 X131.473 Y117.937 E.02568
G1 X132.064 Y118.528 E.02568
G1 X132.601 Y119.168 E.02568
G1 X133.08 Y119.853 E.02569
G1 X133.498 Y120.577 E.02569
G1 X133.852 Y121.336 E.02573
G1 X134.136 Y122.117 E.02555
G1 X134.356 Y122.941 E.0262
G1 X134.499 Y123.752 E.02529
G1 X134.571 Y124.584 E.02568
G1 X134.571 Y125.416 E.02555
G1 X134.496 Y126.265 E.0262
G1 X134.353 Y127.076 E.02529
G1 X134.137 Y127.882 E.02564
G1 X133.851 Y128.667 E.02567
G1 X133.498 Y129.424 E.02568
G1 X133.08 Y130.148 E.02568
G1 X132.601 Y130.832 E.02568
G1 X132.063 Y131.473 E.02568
G1 X131.472 Y132.064 E.02568
G1 X130.832 Y132.601 E.02568
G1 X130.147 Y133.08 E.02569
G1 X129.423 Y133.498 E.02569
G1 X128.664 Y133.852 E.02572
G1 X127.883 Y134.136 E.02555
G1 X127.059 Y134.356 E.0262
G1 X126.248 Y134.499 E.02529
G1 X125.416 Y134.571 E.02568
G1 X124.584 Y134.571 E.02555
G1 X123.735 Y134.496 E.0262
G1 X122.924 Y134.353 E.02529
G1 X122.118 Y134.137 E.02564
G1 X121.333 Y133.851 E.02567
G1 X120.576 Y133.498 E.02568
G1 X119.852 Y133.08 E.02569
G1 X119.166 Y132.599 E.02572
G1 X118.529 Y132.065 E.02555
G1 X117.927 Y131.461 E.0262
G1 X117.398 Y130.83 E.02529
G1 X116.92 Y130.147 E.02564
G1 X116.502 Y129.423 E.02567
G1 X116.149 Y128.666 E.02568
G1 X115.863 Y127.881 E.02568
G1 X115.647 Y127.073 E.02569
G1 X115.501 Y126.25 E.02569
G1 X115.429 Y125.416 E.02573
G1 X115.429 Y124.584 E.02555
G1 X115.504 Y123.735 E.0262
G1 X115.647 Y122.924 E.02529
G1 X115.863 Y122.118 E.02564
G1 X116.149 Y121.333 E.02567
G1 X116.502 Y120.576 E.02568
G1 X116.92 Y119.852 E.02569
G1 X117.401 Y119.166 E.02572
G1 X117.935 Y118.529 E.02555
G1 X118.539 Y117.927 E.0262
G1 X119.17 Y117.398 E.02529
G1 X119.853 Y116.92 E.02564
G1 X120.577 Y116.502 E.02567
G1 X121.334 Y116.149 E.02568
G1 X122.12 Y115.863 E.02569
G1 X122.929 Y115.646 E.02572
G1 X123.747 Y115.502 E.02555
G1 X124.597 Y115.428 E.0262
G1 X125.375 Y115.429 E.0239
G1 X125.404 Y115.805 F24000
;TYPE:Inner wall
G1 F4800
G1 X126.202 Y115.875 E.02462
G1 X126.992 Y116.015 E.02466
G1 X127.768 Y116.223 E.02467
G1 X128.522 Y116.497 E.02467
G1 X129.25 Y116.837 E.02467
G1 X129.945 Y117.238 E.02467
G1 X130.603 Y117.698 E.02467
G1 X131.218 Y118.215 E.02467
G1 X131.786 Y118.782 E.02467
G1 X132.302 Y119.397 E.02467
G1 X132.762 Y120.055 E.02468
G1 X133.164 Y120.751 E.02468
G1 X133.504 Y121.48 E.02471
G1 X133.777 Y122.23 E.02454
G1 X133.988 Y123.022 E.02518
G1 X134.125 Y123.801 E.02429
G1 X134.195 Y124.601 E.02467
G1 X134.195 Y125.399 E.02454
G1 X134.122 Y126.216 E.02518
G1 X133.985 Y126.994 E.02429
G1 X133.777 Y127.768 E.02463
G1 X133.503 Y128.522 E.02466
G1 X133.163 Y129.25 E.02467
G1 X132.762 Y129.945 E.02467
G1 X132.301 Y130.603 E.02467
G1 X131.785 Y131.218 E.02467
G1 X131.218 Y131.786 E.02467
G1 X130.603 Y132.302 E.02467
G1 X129.945 Y132.762 E.02468
G1 X129.249 Y133.164 E.02468
G1 X128.52 Y133.504 E.02471
G1 X127.77 Y133.777 E.02454
G1 X126.978 Y133.988 E.02518
G1 X126.199 Y134.125 E.02429
G1 X125.399 Y134.195 E.02467
G1 X124.601 Y134.195 E.02454
G1 X123.784 Y134.122 E.02518
G1 X123.006 Y133.985 E.02429
G1 X122.232 Y133.777 E.02463
G1 X121.478 Y133.503 E.02466
G1 X120.75 Y133.163 E.02467
G1 X120.054 Y132.762 E.02468
G1 X119.396 Y132.3 E.02471
G1 X118.784 Y131.787 E.02454
G1 X118.205 Y131.207 E.02518
G1 X117.697 Y130.601 E.02429
G1 X117.238 Y129.944 E.02463
G1 X116.836 Y129.249 E.02466
G1 X116.497 Y128.522 E.02467
G1 X116.222 Y127.767 E.02467
G1 X116.015 Y126.992 E.02467
G1 X115.875 Y126.201 E.02468
G1 X115.805 Y125.399 E.02472
G1 X115.805 Y124.601 E.02454
G1 X115.878 Y123.784 E.02518
G1 X116.015 Y123.006 E.02429
G1 X116.223 Y122.232 E.02463
G1 X116.497 Y121.478 E.02466
G1 X116.837 Y120.75 E.02467
G1 X117.238 Y120.054 E.02468
G1 X117.7 Y119.396 E.02471
G1 X118.213 Y118.784 E.02454
G1 X118.793 Y118.205 E.02518
G1 X119.399 Y117.697 E.02429
G1 X120.056 Y117.238 E.02462
G1 X120.751 Y116.836 E.02466
G1 X121.478 Y116.497 E.02467
G1 X122.233 Y116.222 E.02468
G1 X123.01 Y116.014 E.02471
G1 X123.797 Y115.876 E.02454
G1 X124.613 Y115.805 E.02518
G1 X125.364 Y115.805 E.02306
G1 X125.387 Y116.182 F24000
G1 F4800
G1 X126.153 Y116.249 E.02361
G1 X126.911 Y116.383 E.02365
G1 X127.654 Y116.582 E.02366
G1 X128.378 Y116.846 E.02366
G1 X129.076 Y117.171 E.02366
G1 X129.742 Y117.556 E.02366
G1 X130.373 Y117.998 E.02366
G1 X130.963 Y118.493 E.02366
G1 X131.508 Y119.037 E.02366
G1 X132.003 Y119.627 E.02366
G1 X132.444 Y120.258 E.02367
G1 X132.829 Y120.925 E.02367
G1 X133.155 Y121.624 E.0237
G1 X133.417 Y122.344 E.02353
G1 X133.62 Y123.104 E.02416
G1 X133.751 Y123.85 E.02329
G1 X133.818 Y124.617 E.02366
G1 X133.818 Y125.383 E.02353
G1 X133.749 Y126.166 E.02416
G1 X133.617 Y126.913 E.02329
G1 X133.418 Y127.655 E.02361
G1 X133.154 Y128.378 E.02365
G1 X132.829 Y129.076 E.02366
G1 X132.444 Y129.743 E.02366
G1 X132.002 Y130.373 E.02366
G1 X131.507 Y130.963 E.02366
G1 X130.963 Y131.508 E.02366
G1 X130.373 Y132.003 E.02366
G1 X129.742 Y132.444 E.02366
G1 X129.075 Y132.829 E.02367
G1 X128.376 Y133.155 E.0237
G1 X127.656 Y133.417 E.02353
G1 X126.896 Y133.62 E.02416
G1 X126.15 Y133.751 E.02329
G1 X125.383 Y133.818 E.02366
G1 X124.617 Y133.818 E.02353
G1 X123.834 Y133.749 E.02416
G1 X123.087 Y133.617 E.02329
G1 X122.345 Y133.418 E.02361
G1 X121.622 Y133.154 E.02365
G1 X120.924 Y132.829 E.02366
G1 X120.257 Y132.444 E.02367
G1 X119.625 Y132.001 E.0237
G1 X119.039 Y131.509 E.02353
G1 X118.483 Y130.952 E.02416
G1 X117.996 Y130.371 E.02329
G1 X117.556 Y129.742 E.02361
G1 X117.171 Y129.075 E.02365
G1 X116.845 Y128.377 E.02366
G1 X116.582 Y127.654 E.02366
G1 X116.383 Y126.91 E.02366
G1 X116.249 Y126.151 E.02367
G1 X116.182 Y125.383 E.0237
G1 X116.182 Y124.617 E.02353
G1 X116.251 Y123.834 E.02416
G1 X116.383 Y123.087 E.02329
G1 X116.582 Y122.345 E.02361
G1 X116.846 Y121.622 E.02365
G1 X117.171 Y120.924 E.02366
G1 X117.556 Y120.257 E.02367
G1 X117.999 Y119.625 E.0237
G1 X118.491 Y119.039 E.02353
G1 X119.048 Y118.483 E.02416
G1 X119.629 Y117.996 E.02329
G1 X120.258 Y117.556 E.02361
G1 X120.925 Y117.171 E.02365
G1 X121.623 Y116.845 E.02366
G1 X122.347 Y116.582 E.02367
G1 X123.092 Y116.382 E.0237
G1 X123.846 Y116.249 E.02353
G1 X124.629 Y116.182 E.02416
G1 X125.347 Y116.182 E.02206
G1 E-.3 F2400
;WIPE_START
G1 F4800
G1 X126.153 Y116.249 E-.40418
G1 X126.341 Y116.283 E-.09582
;WIPE_END
G1 X123.309 Y116.45 F24000
G1 E.8 F2400
;TYPE:Bottom surface
;WIDTH:0.422928
G1 F7200
G1 X125.039 Y116.45 E.05355
G1 X125.745 Y116.481 E.0219
G1 X126.485 Y116.578 E.0231
G1 X127.213 Y116.74 E.0231
G1 X127.5 Y116.83 E.0093
G1 X122.5 Y116.83 E.15481
G1 X122.075 Y116.964 E.0138
G1 X121.481 Y117.21 E.0199
G1 X128.519 Y117.21 E.21792
G1 X129.268 Y117.59 E.02602
G1 X120.732 Y117.59 E.26433
G1 X120.134 Y117.97 E.02194
G1 X129.866 Y117.97 E.30136
G1 X130.368 Y118.35 E.01949
G1 X119.632 Y118.35 E.33244
G1 X119.197 Y118.73 E.01789
G1 X130.804 Y118.73 E.35941
G1 X131.191 Y119.11 E.0168
G1 X118.809 Y119.11 E.38341
G1 X118.461 Y119.49 E.01596
G1 X131.539 Y119.49 E.40497
G1 X131.833 Y119.87 E.01487
G1 X118.167 Y119.87 E.42315
G1 X117.896 Y120.25 E.01446
G1 X132.104 Y120.25 E.43996
G1 X132.346 Y120.63 E.01395
G1 X117.654 Y120.63 E.45495
G1 X117.445 Y121.01 E.01343
G1 X132.555 Y121.01 E.46788
G1 X132.752 Y121.39 E.01326
G1 X117.248 Y121.39 E.48011
G1 X117.09 Y121.77 E.01274
G1 X132.91 Y121.77 E.48985
G1 X133.06 Y122.15 E.01265
G1 X116.94 Y122.15 E.49914
G1 X116.821 Y122.53 E.01234
G1 X133.179 Y122.53 E.50656
G1 X133.287 Y122.91 E.01223
G1 X116.712 Y122.91 E.51326
G1 X116.628 Y123.29 E.01205
G1 X133.371 Y123.29 E.51847
G1 X133.442 Y123.67 E.01197
G1 X116.558 Y123.67 E.52282
G1 X116.508 Y124.05 E.01187
G1 X133.492 Y124.05 E.52593
G1 X133.527 Y124.43 E.01182
G1 X116.473 Y124.43 E.52808
G1 X116.457 Y124.81 E.01178
G1 X133.543 Y124.81 E.52911
G1 X133.552 Y125 E.00588
G1 X133.543 Y125.19 E.0059
G1 X116.457 Y125.19 E.5291
G1 X116.473 Y125.57 E.01178
G1 X133.527 Y125.57 E.52808
G1 X133.492 Y125.95 E.01182
G1 X116.508 Y125.95 E.52593
G1 X116.558 Y126.33 E.01187
G1 X133.442 Y126.33 E.52282
G1 X133.372 Y126.71 E.01196
G1 X116.628 Y126.71 E.51848
G1 X116.712 Y127.09 E.01205
G1 X133.288 Y127.09 E.51326
G1 X133.179 Y127.47 E.01224
G1 X116.821 Y127.47 E.50655
G1 X116.941 Y127.85 E.01234
G1 X133.059 Y127.85 E.49913
G1 X132.909 Y128.23 E.01265
G1 X117.091 Y128.23 E.48984
G1 X117.248 Y128.61 E.01274
G1 X132.752 Y128.61 E.48009
G1 X132.555 Y128.99 E.01326
G1 X117.445 Y128.99 E.46787
G1 X117.654 Y129.37 E.01343
G1 X132.346 Y129.37 E.45494
G1 X132.104 Y129.75 E.01395
G1 X117.896 Y129.75 E.43994
G1 X118.168 Y130.13 E.01446
G1 X131.832 Y130.13 E.42313
G1 X131.539 Y130.51 E.01487
G1 X118.462 Y130.51 E.40492
G1 X118.81 Y130.89 E.01595
G1 X131.19 Y130.89 E.38337
G1 X130.803 Y131.27 E.0168
G1 X119.197 Y131.27 E.3594
G1 X119.633 Y131.65 E.0179
G1 X130.367 Y131.65 E.33241
G1 X129.865 Y132.03 E.0195
G1 X120.135 Y132.03 E.30132
G1 X120.733 Y132.41 E.02194
G1 X129.267 Y132.41 E.26428
G1 X128.518 Y132.79 E.02603
G1 X121.482 Y132.79 E.21785
G1 X122.075 Y133.036 E.01987
G1 X122.502 Y133.17 E.01385
G1 X127.498 Y133.17 E.15473
G1 X127.214 Y133.26 E.00924
G1 X126.477 Y133.423 E.02337
G1 X125.745 Y133.519 E.02285
G1 X125.029 Y133.55 E.02221
G1 X123.311 Y133.55 E.05318
; stop printing object Body1 id:0 copy 0
M106 S255
M106 P2 S178
;LAYER_CHANGE
;Z:0.44
;HEIGHT:0.24
; BEFORE_LAYER_CHANGE 1 @ 0.44mm
G1 E-.46667 F2400
;WIPE_START
G1 F7200
G1 X124.311 Y133.55 E-.33333
;WIPE_END
EXCLUDE_OBJECT_END NAME=Body1_id_0_copy_0
; AFTER_LAYER_CHANGE 1 @ 0.44mm
;_SET_FAN_SPEED_CHANGING_LAYER
SET_VELOCITY_LIMIT ACCEL=10000 ACCEL_TO_DECEL=5000
M140 S55 ; set bed temperature
; printing object Body1 id:0 copy 0
EXCLUDE_OBJECT_START NAME=Body1_id_0_copy_0
G1 X124.77 Y125.932 Z.84 F24000
G1 X125.414 Y115.229 Z.84
G1 Z.44
G1 E.8 F2400
;TYPE:Outer wall
;WIDTH:0.419999
G1 F8307.371
G1 X125.434 Y115.229 E.00072
G1 X126.279 Y115.303 E.03057
G1 X127.118 Y115.452 E.0307
G1 X127.942 Y115.672 E.03073
G1 X128.743 Y115.964 E.03074
G1 X129.516 Y116.325 E.03074
G1 X130.255 Y116.751 E.03074
G1 X130.954 Y117.241 E.03074
G1 X131.608 Y117.789 E.03074
G1 X132.211 Y118.393 E.03074
G1 X132.759 Y119.046 E.03074
G1 X133.249 Y119.745 E.03075
G1 X133.675 Y120.484 E.03074
G1 X134.036 Y121.257 E.03074
G1 X134.328 Y122.059 E.03075
G1 X134.549 Y122.883 E.03074
G1 X134.697 Y123.723 E.03075
G1 X134.771 Y124.573 E.03074
G1 X134.771 Y125.427 E.03074
G1 X134.697 Y126.277 E.03074
G1 X134.549 Y127.117 E.03075
G1 X134.328 Y127.941 E.03074
G1 X134.036 Y128.743 E.03075
G1 X133.675 Y129.516 E.03074
G1 X133.249 Y130.255 E.03075
G1 X132.759 Y130.954 E.03074
G1 X132.211 Y131.608 E.03074
G1 X131.608 Y132.211 E.03075
G1 X130.954 Y132.759 E.03074
G1 X130.255 Y133.249 E.03075
G1 X129.516 Y133.675 E.03074
G1 X128.743 Y134.036 E.03075
G1 X127.941 Y134.328 E.03075
G1 X127.117 Y134.549 E.03074
G1 X126.277 Y134.697 E.03075
G1 X125.427 Y134.771 E.03074
G1 X124.573 Y134.771 E.03074
G1 X123.723 Y134.697 E.03074
G1 X122.883 Y134.549 E.03075
G1 X122.059 Y134.328 E.03074
G1 X121.257 Y134.036 E.03075
G1 X120.484 Y133.675 E.03074
G1 X119.745 Y133.249 E.03075
G1 X119.046 Y132.759 E.03074
G1 X118.392 Y132.211 E.03074
G1 X117.789 Y131.608 E.03074
G1 X117.241 Y130.954 E.03075
G1 X116.751 Y130.255 E.03074
G1 X116.325 Y129.516 E.03074
G1 X115.964 Y128.743 E.03075
G1 X115.672 Y127.941 E.03075
G1 X115.451 Y127.117 E.03074
G1 X115.303 Y126.277 E.03075
G1 X115.229 Y125.427 E.03074
G1 X115.229 Y124.573 E.03074
G1 X115.303 Y123.723 E.03074
G1 X115.451 Y122.883 E.03075
G1 X115.672 Y122.059 E.03074
G1 X115.964 Y121.257 E.03075
G1 X116.325 Y120.484 E.03074
G1 X116.751 Y119.745 E.03075
G1 X117.241 Y119.046 E.03074
G1 X117.789 Y118.392 E.03075
G1 X118.393 Y117.789 E.03075
G1 X119.046 Y117.24 E.03075
G1 X119.745 Y116.751 E.03075
G1 X120.484 Y116.324 E.03075
G1 X121.258 Y115.964 E.03076
G1 X122.061 Y115.671 E.03079
G1 X122.89 Y115.45 E.0309
G1 X123.717 Y115.304 E.03027
G1 X124.621 Y115.228 E.03271
G1 X125.374 Y115.229 E.02712
G1 X125.413 Y115.612 F24000
;TYPE:Inner wall
;WIDTH:0.449999
G1 F7681.965
G1 X125.417 Y115.612 E.00015
G1 X126.229 Y115.684 E.03175
G1 X127.035 Y115.826 E.0319
G1 X127.826 Y116.038 E.03192
G1 X128.597 Y116.319 E.03194
G1 X129.339 Y116.665 E.03194
G1 X130.049 Y117.075 E.03194
G1 X130.721 Y117.545 E.03194
G1 X131.349 Y118.072 E.03194
G1 X131.928 Y118.652 E.03194
G1 X132.455 Y119.28 E.03194
G1 X132.925 Y119.951 E.03194
G1 X133.335 Y120.661 E.03194
G1 X133.682 Y121.404 E.03194
G1 X133.962 Y122.174 E.03195
G1 X134.174 Y122.966 E.03194
G1 X134.317 Y123.774 E.03195
G1 X134.388 Y124.59 E.03194
G1 X134.388 Y125.41 E.03194
G1 X134.317 Y126.227 E.03194
G1 X134.174 Y127.034 E.03195
