; HEADER_BLOCK_START
; generated by OrcaSlicer-WaveOverhangs 2.4.0-dev on 2026-04-26 at 17:22:48
; WAVE_OVERHANG_BUILD wave_overhangs_version=0.2.3 orca_base=2.4.0-dev
; WAVE_OVERHANG_CONFIG region=0 algo=andersons outer_perim=1 spacing=0.480 flow_mm3_per_mm=0.200 speed=2.0 travel=40.0 fan=100 floor_layers=2 min_angle=0.0 min_length=0.00 max_iterations=0 ring_overlap=0.15 pattern=zigzag spacing_mode=uniform seam_mode=alternating perimeter_overlap=0.20 minimum_wave_width=0.70 min_new_area=0.0100 end_retract=0.40 nozzle_temp_override=0 min_wave_time=0.00 min_layer_time=0.00 wall_loops=3 top_shell_layers=5 bottom_shell_layers=4 infill_density=15 infill_pattern=rectilinear support_remainder=1 instead_of_bridges=0
; total layer number: 43
; filament_density: 1.24
; filament_diameter: 1.75
; max_z_height: 10.28
; filament: 1
; HEADER_BLOCK_END

; THUMBNAIL_BLOCK_START

;
; THUMBNAIL_BLOCK_END

; external perimeters extrusion width = 0.42mm
; perimeters extrusion width = 0.45mm
; infill extrusion width = 0.44mm
; solid infill extrusion width = 0.44mm
; top infill extrusion width = 0.38mm
; first layer extrusion width = 0.42mm

; EXECUTABLE_BLOCK_START
EXCLUDE_OBJECT_DEFINE NAME=monolayer_l_id_0_copy_0 CENTER=125,125 POLYGON=[[110,107.5],[125,107.5],[140,127.5],[140,142.5],[110,142.5],[110,107.5]]
M106 S0
M106 P2 S0
;TYPE:Custom
G9111 bedTemp=55 extruderTemp=210
M117
G90
G21
M83 ; use relative distances for extrusion
; Filament gcode
M106 S0
M106 P2 S0
;LAYER_CHANGE
;Z:0.2
;HEIGHT:0.2
; BEFORE_LAYER_CHANGE 0 @ 0.2mm
G1 E-.8 F2400
; AFTER_LAYER_CHANGE 0 @ 0.2mm
;_SET_FAN_SPEED_CHANGING_LAYER
SET_VELOCITY_LIMIT ACCEL=2000 ACCEL_TO_DECEL=1000
; printing object monolayer l id:0 copy 0
EXCLUDE_OBJECT_START NAME=monolayer_l_id_0_copy_0
G1 X124.59 Y122.09 F24000
G1 Z.2
G1 Z.2
G1 E.8 F2400
;TYPE:Outer wall
;WIDTH:0.419999
G1 F4800
G1 X110.41 Y122.09 E.43571
G1 X110.41 Y107.91 E.43571
G1 X124.59 Y107.91 E.43571
G1 X124.59 Y122.05 E.43448
G1 X124.213 Y121.713 F24000
;TYPE:Inner wall
G1 F4800
G1 X110.787 Y121.713 E.41254
G1 X110.787 Y108.287 E.41254
G1 X124.213 Y108.287 E.41254
G1 X124.213 Y121.673 E.41131
G1 X123.836 Y121.336 F24000
G1 F4800
G1 X111.164 Y121.336 E.38936
G1 X111.164 Y108.664 E.38936
G1 X123.836 Y108.664 E.38936
G1 X123.836 Y121.296 E.38814
G1 E-.3 F2400
;WIPE_START
G1 F4800
G1 X122.836 Y121.299 E-.5
;WIPE_END
G1 X123.723 Y108.948 F24000
G1 E.8 F2400
;TYPE:Bottom surface
;WIDTH:0.421197
G1 F7200
G1 X111.447 Y108.948 E.3784
G1 X111.447 Y109.326 E.01166
G1 X123.553 Y109.326 E.37317
G1 X123.553 Y109.704 E.01166
G1 X111.447 Y109.704 E.37317
G1 X111.447 Y110.082 E.01166
G1 X123.553 Y110.082 E.37317
G1 X123.553 Y110.461 E.01166
G1 X111.447 Y110.461 E.37317
G1 X111.447 Y110.839 E.01166
G1 X123.553 Y110.839 E.37317
G1 X123.553 Y111.217 E.01166
G1 X111.447 Y111.217 E.37317
G1 X111.447 Y111.596 E.01166
G1 X123.553 Y111.596 E.37317
G1 X123.553 Y111.974 E.01166
G1 X111.447 Y111.974 E.37317
G1 X111.447 Y112.352 E.01166
G1 X123.553 Y112.352 E.37317
G1 X123.553 Y112.73 E.01166
G1 X111.447 Y112.73 E.37317
G1 X111.447 Y113.109 E.01166
G1 X123.553 Y113.109 E.37317
G1 X123.553 Y113.487 E.01166
G1 X111.447 Y113.487 E.37317
G1 X111.447 Y113.865 E.01166
G1 X123.553 Y113.865 E.37317
G1 X123.553 Y114.243 E.01166
G1 X111.447 Y114.243 E.37317
G1 X111.447 Y114.622 E.01166
G1 X123.553 Y114.622 E.37317
G1 X123.553 Y115 E.01166
G1 X111.447 Y115 E.37317
G1 X111.447 Y115.378 E.01166
G1 X123.553 Y115.378 E.37317
G1 X123.553 Y115.757 E.01166
G1 X111.447 Y115.757 E.37317
G1 X111.447 Y116.135 E.01166
G1 X123.553 Y116.135 E.37317
G1 X123.553 Y116.513 E.01166
G1 X111.447 Y116.513 E.37317
G1 X111.447 Y116.891 E.01166
G1 X123.553 Y116.891 E.37317
G1 X123.553 Y117.27 E.01166
G1 X111.447 Y117.27 E.37317
G1 X111.447 Y117.648 E.01166
G1 X123.553 Y117.648 E.37317
G1 X123.553 Y118.026 E.01166
G1 X111.447 Y118.026 E.37317
G1 X111.447 Y118.405 E.01166
G1 X123.553 Y118.405 E.37317
G1 X123.553 Y118.783 E.01166
G1 X111.447 Y118.783 E.37317
G1 X111.447 Y119.161 E.01166
G1 X123.553 Y119.161 E.37317
G1 X123.553 Y119.539 E.01166
G1 X111.447 Y119.539 E.37317
G1 X111.447 Y119.918 E.01166
G1 X123.553 Y119.918 E.37317
G1 X123.553 Y120.296 E.01166
G1 X111.447 Y120.296 E.37317
G1 X111.447 Y120.674 E.01166
G1 X123.553 Y120.674 E.37317
G1 X123.553 Y121.052 E.01166
G1 X111.277 Y121.052 E.3784
; stop printing object monolayer l id:0 copy 0
M106 S255
M106 P2 S178
;LAYER_CHANGE
;Z:0.44
;HEIGHT:0.24
; BEFORE_LAYER_CHANGE 1 @ 0.44mm
G1 E-.46667 F2400
;WIPE_START
G1 F7200
G1 X112.277 Y121.052 E-.33333
;WIPE_END
EXCLUDE_OBJECT_END NAME=monolayer_l_id_0_copy_0
; AFTER_LAYER_CHANGE 1 @ 0.44mm
;_SET_FAN_SPEED_CHANGING_LAYER
SET_VELOCITY_LIMIT ACCEL=10000 ACCEL_TO_DECEL=5000
M140 S55 ; set bed temperature
; printing object monolayer l id:0 copy 0
EXCLUDE_OBJECT_START NAME=monolayer_l_id_0_copy_0
G1 X119.873 Y121.804 Z.84 F24000
G1 X124.79 Y122.29 Z.84
G1 Z.44
G1 E.8 F2400
;TYPE:Outer wall
;WIDTH:0.419999
G1 F8307.371
G1 X110.21 Y122.29 E.52536
G1 X110.21 Y107.71 E.52536
G1 X124.79 Y107.71 E.52536
G1 X124.79 Y122.25 E.52392
G1 X124.407 Y121.907 F24000
;TYPE:Inner wall
;WIDTH:0.449999
G1 F7681.965
G1 X110.593 Y121.907 E.53825
G1 X110.593 Y108.093 E.53825
G1 X124.407 Y108.093 E.53825
G1 X124.407 Y121.867 E.53669
G1 X124.008 Y121.508 F24000
G1 F7681.965
G1 X110.992 Y121.508 E.50719
G1 X110.992 Y108.492 E.50719
G1 X124.008 Y108.492 E.50719
G1 X124.008 Y121.468 E.50563
G1 X123.65 Y121.329 F24000
;TYPE:Internal solid infill
;WIDTH:0.448292
G1 F7715.013
G1 X123.65 Y108.846 E.48436
G1 X123.253 Y108.846 E.0154
G1 X123.253 Y121.154 E.47758
G1 X122.857 Y121.154 E.0154
G1 X122.857 Y108.846 E.47758
G1 X122.46 Y108.846 E.0154
G1 X122.46 Y121.154 E.47758
G1 X122.063 Y121.154 E.0154
G1 X122.063 Y108.846 E.47758
G1 X121.666 Y108.846 E.0154
G1 X121.666 Y121.154 E.47758
G1 X121.269 Y121.154 E.0154
G1 X121.269 Y108.846 E.47758
G1 X120.873 Y108.846 E.0154
G1 X120.873 Y121.154 E.47758
G1 X120.476 Y121.154 E.0154
G1 X120.476 Y108.846 E.47758
G1 X120.079 Y108.846 E.0154
G1 X120.079 Y121.154 E.47758
G1 X119.682 Y121.154 E.0154
G1 X119.682 Y108.846 E.47758
G1 X119.286 Y108.846 E.0154
G1 X119.286 Y121.154 E.47758
G1 X118.889 Y121.154 E.0154
G1 X118.889 Y108.846 E.47758
G1 X118.492 Y108.846 E.0154
G1 X118.492 Y121.154 E.47758
G1 X118.095 Y121.154 E.0154
G1 X118.095 Y108.846 E.47758
G1 X117.698 Y108.846 E.0154
G1 X117.698 Y121.154 E.47758
G1 X117.302 Y121.154 E.0154
G1 X117.302 Y108.846 E.47758
G1 X116.905 Y108.846 E.0154
G1 X116.905 Y121.154 E.47758
G1 X116.508 Y121.154 E.0154
G1 X116.508 Y108.846 E.47758
G1 X116.111 Y108.846 E.0154
G1 X116.111 Y121.154 E.47758
G1 X115.714 Y121.154 E.0154
G1 X115.714 Y108.846 E.47758
G1 X115.318 Y108.846 E.0154
G1 X115.318 Y121.154 E.47758
G1 X114.921 Y121.154 E.0154
G1 X114.921 Y108.846 E.47758
G1 X114.524 Y108.846 E.0154
G1 X114.524 Y121.154 E.47758
G1 X114.127 Y121.154 E.0154
G1 X114.127 Y108.846 E.47758
G1 X113.73 Y108.846 E.0154
G1 X113.73 Y121.154 E.47758
G1 X113.334 Y121.154 E.0154
G1 X113.334 Y108.846 E.47758
G1 X112.937 Y108.846 E.0154
G1 X112.937 Y121.154 E.47758
G1 X112.54 Y121.154 E.0154
G1 X112.54 Y108.846 E.47758
G1 X112.143 Y108.846 E.0154
G1 X112.143 Y121.154 E.47758
G1 X111.747 Y121.154 E.0154
G1 X111.747 Y108.846 E.47758
G1 X111.35 Y108.846 E.0154
G1 X111.35 Y121.329 E.48436
; stop printing object monolayer l id:0 copy 0
;LAYER_CHANGE
;Z:0.68
;HEIGHT:0.24
; BEFORE_LAYER_CHANGE 2 @ 0.68mm
G1 E-.48892 F2400
;WIPE_START
G1 F7715.013
G1 X111.35 Y120.329 E-.31108
;WIPE_END
EXCLUDE_OBJECT_END NAME=monolayer_l_id_0_copy_0
; AFTER_LAYER_CHANGE 2 @ 0.68mm
;_SET_FAN_SPEED_CHANGING_LAYER
; printing object monolayer l id:0 copy 0
EXCLUDE_OBJECT_START NAME=monolayer_l_id_0_copy_0
G1 X118.902 Y121.431 Z1.08 F24000
G1 X124.79 Y122.29 Z1.08
G1 Z.68
G1 E.8 F2400
;TYPE:Outer wall
;WIDTH:0.419999
G1 F8280
G1 F8307.371
G1 X110.21 Y122.29 E.52536
G1 X110.21 Y107.71 E.52536
G1 X124.79 Y107.71 E.52536
G1 X124.79 Y122.25 E.52392
G1 X124.407 Y121.907 F24000
;TYPE:Inner wall
;WIDTH:0.449999
G1 F7681.965
G1 X110.593 Y121.907 E.53825
G1 X110.593 Y108.093 E.53825
G1 X124.407 Y108.093 E.53825
G1 X124.407 Y121.867 E.53669
G1 X124.008 Y121.508 F24000
G1 F7681.965
G1 X110.992 Y121.508 E.50719
G1 X110.992 Y108.492 E.50719
G1 X124.008 Y108.492 E.50719
G1 X124.008 Y121.468 E.50563
G1 X123.829 Y108.85 F24000
;TYPE:Internal solid infill
;WIDTH:0.448292
G1 F7715.013
G1 X111.346 Y108.85 E.48436
G1 X111.346 Y109.247 E.0154
G1 X123.654 Y109.247 E.47758
G1 X123.654 Y109.643 E.0154
G1 X111.346 Y109.643 E.47758
G1 X111.346 Y110.04 E.0154
G1 X123.654 Y110.04 E.47758
G1 X123.654 Y110.437 E.0154
G1 X111.346 Y110.437 E.47758
G1 X111.346 Y110.834 E.0154
G1 X123.654 Y110.834 E.47758
G1 X123.654 Y111.231 E.0154
G1 X111.346 Y111.231 E.47758
G1 X111.346 Y111.627 E.0154
G1 X123.654 Y111.627 E.47758
G1 X123.654 Y112.024 E.0154
G1 X111.346 Y112.024 E.47758
G1 X111.346 Y112.421 E.0154
G1 X123.654 Y112.421 E.47758
G1 X123.654 Y112.818 E.0154
G1 X111.346 Y112.818 E.47758
G1 X111.346 Y113.214 E.0154
G1 X123.654 Y113.215 E.47758
G1 X123.654 Y113.611 E.0154
G1 X111.346 Y113.611 E.47758
G1 X111.346 Y114.008 E.0154
G1 X123.654 Y114.008 E.47758
G1 X123.654 Y114.405 E.0154
G1 X111.346 Y114.405 E.47758
G1 X111.346 Y114.802 E.0154
G1 X123.654 Y114.802 E.47758
G1 X123.654 Y115.198 E.0154
G1 X111.346 Y115.198 E.47758
G1 X111.346 Y115.595 E.0154
G1 X123.654 Y115.595 E.47758
G1 X123.654 Y115.992 E.0154
G1 X111.346 Y115.992 E.47758
G1 X111.346 Y116.389 E.0154
G1 X123.654 Y116.389 E.47758
G1 X123.654 Y116.786 E.0154
G1 X111.346 Y116.786 E.47758
G1 X111.346 Y117.182 E.0154
G1 X123.654 Y117.182 E.47758
G1 X123.654 Y117.579 E.0154
G1 X111.346 Y117.579 E.47758
G1 X111.346 Y117.976 E.0154
G1 X123.654 Y117.976 E.47758
G1 X123.654 Y118.373 E.0154
G1 X111.346 Y118.373 E.47758
G1 X111.346 Y118.77 E.0154
G1 X123.654 Y118.77 E.47758
G1 X123.654 Y119.166 E.0154
G1 X111.346 Y119.166 E.47758
G1 X111.346 Y119.563 E.0154
G1 X123.654 Y119.563 E.47758
G1 X123.654 Y119.96 E.0154
G1 X111.346 Y119.96 E.47758
G1 X111.346 Y120.357 E.0154
G1 X123.654 Y120.357 E.47758
G1 X123.654 Y120.753 E.0154
G1 X111.346 Y120.753 E.47758
G1 X111.346 Y121.15 E.0154
G1 X123.829 Y121.15 E.48436
; stop printing object monolayer l id:0 copy 0
;LAYER_CHANGE
;Z:0.92
;HEIGHT:0.24
; BEFORE_LAYER_CHANGE 3 @ 0.92mm
G1 E-.48892 F2400
;WIPE_START
G1 F7715.013
G1 X122.829 Y121.15 E-.31108
;WIPE_END
EXCLUDE_OBJECT_END NAME=monolayer_l_id_0_copy_0
; AFTER_LAYER_CHANGE 3 @ 0.92mm
;_SET_FAN_SPEED_CHANGING_LAYER
; printing object monolayer l id:0 copy 0
EXCLUDE_OBJECT_START NAME=monolayer_l_id_0_copy_0
G1 X124.79 Y122.29 Z1.32 F24000
G1 Z.92
G1 E.8 F2400
;TYPE:Outer wall
;WIDTH:0.419999
G1 F8307.371
G1 X110.21 Y122.29 E.52536
G1 X110.21 Y107.71 E.52536
G1 X124.79 Y107.71 E.52536
G1 X124.79 Y122.25 E.52392
G1 X124.407 Y121.907 F24000
;TYPE:Inner wall
;WIDTH:0.449999
G1 F7681.965
G1 X110.593 Y121.907 E.53825
G1 X110.593 Y108.093 E.53825
G1 X124.407 Y108.093 E.53825
G1 X124.407 Y121.867 E.53669
G1 X124.008 Y121.508 F24000
G1 F7681.965
G1 X110.992 Y121.508 E.50719
G1 X110.992 Y108.492 E.50719
G1 X124.008 Y108.492 E.50719
G1 X124.008 Y121.468 E.50563
G1 X123.65 Y121.329 F24000
;TYPE:Internal solid infill
;WIDTH:0.448292
G1 F7715.013
G1 X123.65 Y108.846 E.48436
G1 X123.253 Y108.846 E.0154
G1 X123.253 Y121.154 E.47758
G1 X122.857 Y121.154 E.0154
G1 X122.857 Y108.846 E.47758
G1 X122.46 Y108.846 E.0154
G1 X122.46 Y121.154 E.47758
G1 X122.063 Y121.154 E.0154
G1 X122.063 Y108.846 E.47758
G1 X121.666 Y108.846 E.0154
G1 X121.666 Y121.154 E.47758
G1 X121.269 Y121.154 E.0154
G1 X121.269 Y108.846 E.47758
G1 X120.873 Y108.846 E.0154
G1 X120.873 Y121.154 E.47758
G1 X120.476 Y121.154 E.0154
G1 X120.476 Y108.846 E.47758
G1 X120.079 Y108.846 E.0154
G1 X120.079 Y121.154 E.47758
G1 X119.682 Y121.154 E.0154
G1 X119.682 Y108.846 E.47758
G1 X119.286 Y108.846 E.0154
G1 X119.286 Y121.154 E.47758
G1 X118.889 Y121.154 E.0154
G1 X118.889 Y108.846 E.47758
G1 X118.492 Y108.846 E.0154
G1 X118.492 Y121.154 E.47758
G1 X118.095 Y121.154 E.0154
G1 X118.095 Y108.846 E.47758
G1 X117.698 Y108.846 E.0154
G1 X117.698 Y121.154 E.47758
G1 X117.302 Y121.154 E.0154
G1 X117.302 Y108.846 E.47758
G1 X116.905 Y108.846 E.0154
G1 X116.905 Y121.154 E.47758
G1 X116.508 Y121.154 E.0154
G1 X116.508 Y108.846 E.47758
G1 X116.111 Y108.846 E.0154
G1 X116.111 Y121.154 E.47758
G1 X115.714 Y121.154 E.0154
G1 X115.714 Y108.846 E.47758
G1 X115.318 Y108.846 E.0154
G1 X115.318 Y121.154 E.47758
G1 X114.921 Y121.154 E.0154
G1 X114.921 Y108.846 E.47758
G1 X114.524 Y108.846 E.0154
G1 X114.524 Y121.154 E.47758
G1 X114.127 Y121.154 E.0154
G1 X114.127 Y108.846 E.47758
G1 X113.73 Y108.846 E.0154
G1 X113.73 Y121.154 E.47758
G1 X113.334 Y121.154 E.0154
G1 X113.334 Y108.846 E.47758
G1 X112.937 Y108.846 E.0154
G1 X112.937 Y121.154 E.47758
G1 X112.54 Y121.154 E.0154
G1 X112.54 Y108.846 E.47758
G1 X112.143 Y108.846 E.0154
G1 X112.143 Y121.154 E.47758
G1 X111.747 Y121.154 E.0154
G1 X111.747 Y108.846 E.47758
G1 X111.35 Y108.846 E.0154
G1 X111.35 Y121.329 E.48436
; stop printing object monolayer l id:0 copy 0
;LAYER_CHANGE
;Z:1.16
;HEIGHT:0.24
; BEFORE_LAYER_CHANGE 4 @ 1.16mm
G1 E-.48892 F2400
;WIPE_START
G1 F7715.013
G1 X111.35 Y120.329 E-.31108
;WIPE_END
EXCLUDE_OBJECT_END NAME=monolayer_l_id_0_copy_0
; AFTER_LAYER_CHANGE 4 @ 1.16mm
;_SET_FAN_SPEED_CHANGING_LAYER
; printing object monolayer l id:0 copy 0
EXCLUDE_OBJECT_START NAME=monolayer_l_id_0_copy_0
G1 X118.902 Y121.431 Z1.56 F24000
G1 X124.79 Y122.29 Z1.56
G1 Z1.16
G1 E.8 F2400
;TYPE:Outer wall
;WIDTH:0.419999
G1 F3754
G1 X110.21 Y122.29 E.52536
G1 X110.21 Y107.71 E.52536
G1 X124.79 Y107.71 E.52536
G1 X124.79 Y122.25 E.52392
G1 X124.407 Y121.907 F24000
;TYPE:Inner wall
;WIDTH:0.449999
G1 F3754
G1 X110.593 Y121.907 E.53825
G1 X110.593 Y108.093 E.53825
G1 X124.407 Y108.093 E.53825
G1 X124.407 Y121.867 E.53669
G1 X124.008 Y121.508 F24000
G1 F3754
G1 X110.992 Y121.508 E.50719
G1 X110.992 Y108.492 E.50719
G1 X124.008 Y108.492 E.50719
G1 X124.008 Y121.468 E.50563
G1 X123.829 Y109.178 F24000
;TYPE:Sparse infill
;WIDTH:0.44
G1 F3754
G1 X123.497 Y108.846 E.01786
G1 X119.834 Y108.846 E.13914
G1 X123.654 Y112.666 E.20525
G1 X123.654 Y116.329 E.13914
G1 X116.171 Y108.846 E.40203
G1 X112.508 Y108.846 E.13914
G1 X123.654 Y119.992 E.59881
G1 X123.654 Y121.154 E.04417
G1 X121.154 Y121.154 E.09497
G1 X111.346 Y111.346 E.52697
G1 X111.346 Y115.008 E.13914
G1 X117.492 Y121.154 E.33019
G1 X113.829 Y121.154 E.13914
G1 X111.171 Y118.496 E.1428
; stop printing object monolayer l id:0 copy 0
;LAYER_CHANGE
;Z:1.4
;HEIGHT:0.24
; BEFORE_LAYER_CHANGE 5 @ 1.4mm
G1 E-.49542 F2400
;WIPE_START
G1 F7879.69
G1 X111.878 Y119.203 E-.30458
;WIPE_END
EXCLUDE_OBJECT_END NAME=monolayer_l_id_0_copy_0
; AFTER_LAYER_CHANGE 5 @ 1.4mm
;_SET_FAN_SPEED_CHANGING_LAYER
; printing object monolayer l id:0 copy 0
EXCLUDE_OBJECT_START NAME=monolayer_l_id_0_copy_0
G1 X119.301 Y120.978 Z1.8 F24000
G1 X124.79 Y122.29 Z1.8
G1 Z1.4
G1 E.8 F2400
;TYPE:Outer wall
;WIDTH:0.419999
G1 F3738
G1 X110.21 Y122.29 E.52536
G1 X110.21 Y107.71 E.52536
G1 X124.79 Y107.71 E.52536
G1 X124.79 Y122.25 E.52392
G1 X124.407 Y121.907 F24000
;TYPE:Inner wall
;WIDTH:0.449999
G1 F3738
G1 X110.593 Y121.907 E.53825
G1 X110.593 Y108.093 E.53825
G1 X124.407 Y108.093 E.53825
G1 X124.407 Y121.867 E.53669
G1 X124.008 Y121.508 F24000
G1 F3738
G1 X110.992 Y121.508 E.50719
G1 X110.992 Y108.492 E.50719
G1 X124.008 Y108.492 E.50719
G1 X124.008 Y121.468 E.50563
G1 X121.345 Y121.329 F24000
;TYPE:Sparse infill
;WIDTH:0.44
G1 F3738
G1 X123.654 Y119.02 E.12406
G1 X123.654 Y115.357 E.13914
G1 X117.857 Y121.154 E.31144
G1 X114.195 Y121.154 E.13914
G1 X123.654 Y111.695 E.50822
G1 X123.654 Y108.846 E.10823
G1 X122.841 Y108.846 E.03092
G1 X111.346 Y120.341 E.61756
G1 X111.346 Y116.678 E.13914
G1 X119.178 Y108.846 E.42078
G1 X115.515 Y108.846 E.13914
G1 X111.346 Y113.015 E.224
G1 X111.346 Y109.352 E.13914
G1 X112.027 Y108.671 E.03661
; stop printing object monolayer l id:0 copy 0
;LAYER_CHANGE
;Z:1.64
;HEIGHT:0.24
; BEFORE_LAYER_CHANGE 6 @ 1.64mm
G1 E-.49542 F2400
;WIPE_START
G1 F7879.69
