;FLAVOR:Marlin
;TIME:927.21
;Filament used:0.59m
;Layer height:0.24
; HEADER_BLOCK_START
; generated by OrcaSlicer-WaveOverhangs 2.4.0-dev on 2026-04-28 at 12:30:07
; WAVE_OVERHANG_BUILD wave_overhangs_version=0.2.4 orca_base=2.4.0-dev
; WAVE_OVERHANG_CONFIG region=0 algo=andersons outer_perim=1 spacing=0.440 flow_mm3_per_mm=0.200 speed=2.0 travel=40.0 fan=100 floor_layers=2 min_angle=0.0 min_length=0.00 max_iterations=0 ring_overlap=0.15 pattern=zigzag spacing_mode=uniform seam_mode=alternating perimeter_overlap=0.10 minimum_wave_width=0.70 min_new_area=0.0100 end_retract=0.00 nozzle_temp_override=0 min_wave_time=0.00 min_layer_time=0.00 wall_loops=2 top_shell_layers=4 bottom_shell_layers=4 infill_density=15 infill_pattern=crosshatch support_remainder=1 instead_of_bridges=0
; total layer number: 43
; filament_density: 1.24
; filament_diameter: 1.75
; max_z_height: 10.28
; filament: 1
; HEADER_BLOCK_END

; external perimeters extrusion width = 0.42mm
; perimeters extrusion width = 0.45mm
; infill extrusion width = 0.45mm
; solid infill extrusion width = 0.42mm
; top infill extrusion width = 0.42mm
; first layer extrusion width = 0.46mm

; EXECUTABLE_BLOCK_START
M201 X2500 Y2500 Z500 E5000
M203 X250 Y250 Z5 E40
M204 P2500 R500 T2500 ; sets acceleration (P, T) and retract acceleration (R), mm/sec^2
M205 X10.00 Y10.00 Z0.40 E5.00 ; sets the jerk limits, mm/sec
M205 J0.010
;TYPE:Custom
M220 S100 ;Reset Feedrate 
M221 S100 ;Reset Flowrate 
 
M104 S190 ;Set final nozzle temp 
M190 S0 ;Set and wait for bed temp to stabilize 
G28 ;Home 
G92 E0 ;Reset Extruder 
G1 Z2.0 F3000 ;Move Z Axis up 
G1 X-2.1 Y20 Z0.28 F5000.0 ;Move to start position 
M109 S190 ;Wait for nozzle temp to stabilize 
G1 X-2.1 Y145.0 Z0.28 F1500.0 E15 ;Draw the first line 
G1 X-2.4 Y145.0 Z0.28 F5000.0 ;Move to side a little 
G1 X-2.4 Y20 Z0.28 F1500.0 E30 ;Draw the second line 
G92 E0  ;Reset Extruder 
G1 E-1.0000 F1800 ;Retract a bit 
G1 Z2.0 F3000 ;Move Z Axis up 
G1 E0.0000 F1800
G90
G21
M83 ; use relative distances for extrusion
; Filament gcode
M106 S0
;LAYER_CHANGE
;Z:0.2
;HEIGHT:0.2
;BEFORE_LAYER_CHANGE
;0.2
G92 E0

G1 E-1.2 F2400
;_SET_FAN_SPEED_CHANGING_LAYER
M204 P500
; printing object monolayer l id:0 copy 0
M204 T500
G1 X92.23 Y89.532 F9000
G1 Z.6
G1 Z.2
G1 E1.2 F1800
;TYPE:Brim
;WIDTH:0.46
G1 X92.707 Y89.147 E.02083
G1 X93.238 Y88.841 E.02081
G1 X93.853 Y88.608 E.02237
G1 X94.508 Y88.469 E.02274
G1 X95.007 Y88.438 E.01699
G1 X109.992 Y88.438 E.5093
G1 X110.611 Y88.486 E.02111
G1 X111.206 Y88.626 E.02076
G1 X111.921 Y88.935 E.02647
G1 X112.515 Y89.319 E.02404
G1 X112.968 Y89.73 E.0208
G1 X113.353 Y90.207 E.02083
G1 X113.659 Y90.738 E.02081
G1 X113.892 Y91.353 E.02237
G1 X114.031 Y92.008 E.02274
G1 X114.062 Y92.507 E.01699
G1 X114.062 Y107.492 E.5093
G1 X114.014 Y108.111 E.02111
G1 X113.874 Y108.706 E.02076
G1 X113.565 Y109.421 E.02647
G1 X113.181 Y110.015 E.02404
G1 X112.77 Y110.468 E.0208
G1 X112.293 Y110.853 E.02083
G1 X111.763 Y111.158 E.02079
G1 X111.095 Y111.407 E.02422
G1 X110.493 Y111.531 E.02089
G1 X109.993 Y111.562 E.01701
G1 X95.008 Y111.562 E.5093
G1 X94.389 Y111.514 E.02111
G1 X93.794 Y111.374 E.02076
G1 X93.079 Y111.065 E.02647
G1 X92.485 Y110.681 E.02404
G1 X92.032 Y110.27 E.0208
G1 X91.647 Y109.793 E.02083
G1 X91.342 Y109.263 E.02079
G1 X91.093 Y108.595 E.02422
G1 X90.969 Y107.993 E.02089
G1 X90.938 Y107.493 E.01701
G1 X90.938 Y92.508 E.5093
G1 X90.986 Y91.889 E.02111
G1 X91.126 Y91.294 E.02076
G1 X91.435 Y90.579 E.02647
G1 X91.819 Y89.985 E.02404
G1 X92.203 Y89.562 E.01944
G1 X92.512 Y89.844 F9000
G1 F1800
G1 X92.525 Y89.83 E.00062
G1 X92.936 Y89.499 E.01797
G1 X93.409 Y89.224 E.01856
G1 X93.981 Y89.007 E.0208
G1 X94.573 Y88.883 E.02059
G1 X95.023 Y88.855 E.01533
G1 X109.981 Y88.855 E.50834
G1 X110.556 Y88.901 E.01962
G1 X111.084 Y89.028 E.01845
G1 X111.714 Y89.3 E.02333
G1 X112.268 Y89.657 E.02239
G1 X112.67 Y90.025 E.0185
G1 X113.001 Y90.436 E.01797
G1 X113.276 Y90.909 E.01856
G1 X113.488 Y91.462 E.02014
G1 X113.615 Y92.055 E.02062
G1 X113.645 Y92.524 E.01595
G1 X113.645 Y107.481 E.50834
G1 X113.599 Y108.056 E.01962
G1 X113.472 Y108.584 E.01845
G1 X113.2 Y109.214 E.02333
G1 X112.843 Y109.768 E.02239
G1 X112.475 Y110.17 E.0185
G1 X112.064 Y110.501 E.01797
G1 X111.593 Y110.774 E.01848
G1 X110.97 Y111.007 E.02262
G1 X110.446 Y111.115 E.01817
G1 X109.976 Y111.145 E.016
G1 X95.019 Y111.145 E.50834
G1 X94.444 Y111.099 E.01962
G1 X93.916 Y110.972 E.01845
G1 X93.286 Y110.7 E.02333
G1 X92.732 Y110.343 E.02239
G1 X92.33 Y109.975 E.0185
G1 X91.999 Y109.564 E.01797
G1 X91.726 Y109.093 E.01848
G1 X91.493 Y108.47 E.02262
G1 X91.385 Y107.946 E.01817
G1 X91.355 Y107.477 E.016
G1 X91.355 Y92.519 E.50834
G1 X91.401 Y91.944 E.01962
G1 X91.528 Y91.416 E.01845
G1 X91.8 Y90.786 E.02333
G1 X92.157 Y90.232 E.02239
G1 X92.485 Y89.873 E.01652
G1 X92.793 Y90.155 F9000
G1 F1800
G1 X92.805 Y90.142 E.00058
G1 X93.166 Y89.849 E.01581
G1 X93.58 Y89.607 E.01629
G1 X94.089 Y89.412 E.01854
G1 X94.638 Y89.297 E.01908
G1 X95.04 Y89.272 E.01369
G1 X109.959 Y89.272 E.50703
G1 X110.481 Y89.314 E.01778
G1 X110.961 Y89.43 E.01681
G1 X111.526 Y89.675 E.02092
G1 X112.02 Y89.996 E.02003
G1 X112.358 Y90.305 E.01555
G1 X112.651 Y90.666 E.01581
G1 X112.893 Y91.08 E.01632
G1 X113.089 Y91.59 E.01857
G1 X113.201 Y92.122 E.01846
G1 X113.228 Y92.541 E.01427
G1 X113.228 Y107.459 E.50701
G1 X113.186 Y107.981 E.01778
G1 X113.07 Y108.461 E.01681
G1 X112.825 Y109.026 E.02092
G1 X112.504 Y109.52 E.02003
G1 X112.182 Y109.871 E.01619
G1 X111.819 Y110.162 E.01581
G1 X111.424 Y110.391 E.01552
G1 X110.845 Y110.607 E.021
G1 X110.399 Y110.699 E.01547
G1 X109.959 Y110.728 E.01499
G1 X95.031 Y110.727 E.50735
G1 X94.519 Y110.686 E.01744
G1 X94.039 Y110.57 E.01681
G1 X93.474 Y110.325 E.02092
G1 X92.98 Y110.004 E.02003
G1 X92.629 Y109.682 E.01619
G1 X92.338 Y109.319 E.01581
G1 X92.109 Y108.924 E.01552
G1 X91.893 Y108.345 E.021
G1 X91.801 Y107.899 E.01547
G1 X91.772 Y107.459 E.01499
G1 X91.773 Y92.531 E.50735
G1 X91.814 Y92.019 E.01744
G1 X91.93 Y91.539 E.01681
G1 X92.175 Y90.974 E.02092
G1 X92.496 Y90.48 E.02003
G1 X92.766 Y90.184 E.01361
G1 X93.074 Y90.468 F9000
G1 F1800
G1 X93.099 Y90.441 E.00125
G1 X93.396 Y90.199 E.01303
G1 X93.77 Y89.981 E.01472
G1 X94.217 Y89.811 E.01624
G1 X94.685 Y89.713 E.01627
G1 X95.049 Y89.689 E.01239
G1 X109.937 Y89.689 E.506
G1 X110.405 Y89.726 E.01594
G1 X110.838 Y89.831 E.01516
G1 X111.336 Y90.049 E.01848
G1 X111.772 Y90.334 E.01768
G1 X112.059 Y90.599 E.01328
G1 X112.301 Y90.896 E.01303
G1 X112.511 Y91.253 E.01405
G1 X112.684 Y91.7 E.0163
G1 X112.787 Y92.188 E.01696
G1 X112.811 Y92.559 E.01262
G1 X112.811 Y107.437 E.50568
G1 X112.774 Y107.905 E.01594
G1 X112.669 Y108.338 E.01516
G1 X112.451 Y108.836 E.01848
G1 X112.166 Y109.271 E.01766
G1 X111.903 Y109.558 E.01324
G1 X111.589 Y109.811 E.01367
G1 X111.235 Y110.016 E.01393
G1 X110.72 Y110.207 E.01867
G1 X110.334 Y110.285 E.01336
G1 X109.941 Y110.311 E.01341
G1 X95.053 Y110.31 E.506
G1 X94.595 Y110.274 E.0156
G1 X94.162 Y110.169 E.01516
G1 X93.664 Y109.951 E.01848
G1 X93.229 Y109.666 E.01766
G1 X92.942 Y109.403 E.01324
G1 X92.689 Y109.089 E.01367
G1 X92.484 Y108.735 E.01393
G1 X92.293 Y108.22 E.01867
G1 X92.215 Y107.834 E.01336
G1 X92.189 Y107.441 E.0134
G1 X92.19 Y92.553 E.506
G1 X92.226 Y92.095 E.0156
G1 X92.331 Y91.662 E.01516
G1 X92.549 Y91.164 E.01848
G1 X92.834 Y90.728 E.01768
G1 X93.047 Y90.497 E.01068
G1 X93.354 Y90.78 F9000
G1 F1800
G1 X93.379 Y90.752 E.00126
G1 X93.627 Y90.549 E.01089
G1 X93.961 Y90.355 E.01313
G1 X94.344 Y90.211 E.01392
G1 X94.733 Y90.129 E.01352
G1 X95.059 Y90.107 E.01109
G1 X109.916 Y90.106 E.50495
G1 X110.329 Y90.139 E.01408
G1 X110.715 Y90.232 E.01348
G1 X111.146 Y90.423 E.01603
G1 X111.522 Y90.671 E.01532
G1 X111.748 Y90.879 E.01041
G1 X111.951 Y91.128 E.01093
G1 X112.129 Y91.426 E.0118
G1 X112.285 Y91.829 E.01469
G1 X112.374 Y92.254 E.01475
G1 X112.394 Y92.576 E.01096
G1 X112.394 Y107.416 E.50438
G1 X112.361 Y107.829 E.01408
G1 X112.268 Y108.215 E.01348
G1 X112.077 Y108.646 E.01603
G1 X111.829 Y109.022 E.01531
G1 X111.609 Y109.259 E.01098
G1 X111.36 Y109.46 E.01088
G1 X111.047 Y109.641 E.01231
G1 X110.596 Y109.807 E.01632
G1 X110.271 Y109.871 E.01126
G1 X109.923 Y109.894 E.01184
G1 X95.074 Y109.893 E.50466
G1 X94.671 Y109.862 E.01375
G1 X94.285 Y109.768 E.01349
G1 X93.854 Y109.577 E.01603
G1 X93.478 Y109.329 E.01531
G1 X93.241 Y109.109 E.01098
G1 X93.04 Y108.86 E.01088
G1 X92.859 Y108.547 E.01231
G1 X92.693 Y108.096 E.01632
G1 X92.629 Y107.771 E.01126
G1 X92.606 Y107.423 E.01184
G1 X92.607 Y92.574 E.50466
G1 X92.638 Y92.171 E.01375
G1 X92.732 Y91.785 E.01349
G1 X92.923 Y91.354 E.01603
G1 X93.171 Y90.978 E.01532
G1 X93.327 Y90.809 E.00779
G1 X93.654 Y91.093 F9000
G1 F1800
G1 X93.682 Y91.061 E.00146
G1 X94.024 Y90.803 E.01457
G1 X94.332 Y90.656 E.01158
G1 X94.67 Y90.563 E.01192
G1 X95.032 Y90.523 E.01239
G1 X109.961 Y90.523 E.50739
G1 X110.468 Y90.598 E.0174
G1 X110.898 Y90.759 E.0156
G1 X111.119 Y90.903 E.00899
G1 X111.465 Y91.209 E.01569
G1 X111.545 Y91.3 E.00414
G1 X111.749 Y91.617 E.01279
G1 X111.873 Y91.909 E.01078
G1 X111.937 Y92.167 E.00903
G1 X111.977 Y92.532 E.0125
G1 X111.977 Y107.469 E.50766
G1 X111.915 Y107.919 E.01541
G1 X111.759 Y108.358 E.01585
G1 X111.591 Y108.627 E.01079
G1 X111.291 Y108.966 E.01537
G1 X111.2 Y109.045 E.00411
G1 X110.883 Y109.249 E.0128
G1 X110.591 Y109.373 E.01078
G1 X110.333 Y109.437 E.00903
G1 X109.968 Y109.477 E.0125
G1 X95.031 Y109.477 E.50766
G1 X94.581 Y109.415 E.01541
G1 X94.142 Y109.259 E.01585
G1 X93.873 Y109.091 E.01079
G1 X93.534 Y108.791 E.01537
G1 X93.455 Y108.7 E.00411
G1 X93.251 Y108.383 E.0128
G1 X93.127 Y108.091 E.01078
G1 X93.063 Y107.833 E.00903
G1 X93.023 Y107.468 E.0125
G1 X93.028 Y92.466 E.50987
G1 X93.093 Y92.044 E.01449
G1 X93.211 Y91.702 E.01231
G1 X93.395 Y91.391 E.01228
G1 X93.627 Y91.123 E.01205
G1 X93.932 Y91.394 F9000
G1 F1800
G1 X94.204 Y91.179 E.01181
G1 X94.444 Y91.058 E.00913
G1 X94.711 Y90.978 E.00946
G1 X95.026 Y90.94 E.01078
G1 X109.971 Y90.94 E.50793
G1 X110.323 Y90.988 E.01208
G1 X110.671 Y91.108 E.01252
G1 X110.836 Y91.21 E.0066
G1 X111.195 Y91.527 E.01627
G1 X111.365 Y91.78 E.01035
G1 X111.468 Y92.011 E.00862
G1 X111.522 Y92.209 E.00696
G1 X111.56 Y92.526 E.01084
G1 X111.56 Y107.478 E.50818
G1 X111.522 Y107.78 E.01033
G1 X111.404 Y108.139 E.01287
G1 X111.285 Y108.343 E.00802
G1 X110.973 Y108.695 E.01599
G1 X110.72 Y108.865 E.01035
G1 X110.489 Y108.968 E.00862
G1 X110.291 Y109.022 E.00696
G1 X109.974 Y109.06 E.01084
G1 X95.022 Y109.06 E.50818
G1 X94.72 Y109.022 E.01033
G1 X94.361 Y108.904 E.01287
G1 X94.157 Y108.785 E.00802
G1 X93.805 Y108.473 E.01599
G1 X93.635 Y108.22 E.01035
G1 X93.532 Y107.989 E.00862
G1 X93.478 Y107.791 E.00696
G1 X93.44 Y107.474 E.01084
G1 X93.44 Y92.529 E.50793
G1 X93.489 Y92.176 E.01214
G1 X93.57 Y91.914 E.0093
G1 X93.712 Y91.662 E.00984
G1 X93.906 Y91.425 E.01041
G1 X94.228 Y91.69 F9000
G1 F1800
G1 X94.262 Y91.649 E.00182
G1 X94.45 Y91.516 E.00782
G1 X94.628 Y91.432 E.0067
G1 X94.757 Y91.392 E.00456
G1 X95.018 Y91.357 E.00896
G1 X109.979 Y91.357 E.50847
G1 X110.269 Y91.402 E.00998
G1 X110.459 Y91.467 E.00682
G1 X110.565 Y91.527 E.00412
G1 X110.851 Y91.762 E.0126
G1 X110.984 Y91.95 E.00782
G1 X111.068 Y92.128 E.0067
G1 X111.108 Y92.257 E.00456
G1 X111.143 Y92.518 E.00896
G1 X111.143 Y107.486 E.5087
G1 X111.126 Y107.651 E.00565
G1 X111.04 Y107.938 E.01018
G1 X110.97 Y108.07 E.00506
G1 X110.738 Y108.351 E.0124
G1 X110.55 Y108.484 E.00782
G1 X110.372 Y108.568 E.0067
G1 X110.243 Y108.608 E.00456
G1 X109.982 Y108.643 E.00896
G1 X95.014 Y108.643 E.5087
G1 X94.849 Y108.626 E.00565
G1 X94.562 Y108.54 E.01018
G1 X94.43 Y108.47 E.00506
G1 X94.149 Y108.238 E.0124
G1 X94.016 Y108.05 E.00782
G1 X93.932 Y107.872 E.0067
G1 X93.892 Y107.743 E.00456
G1 X93.857 Y107.482 E.00896
G1 X93.857 Y92.521 E.50847
G1 X93.902 Y92.231 E.00998
G1 X93.967 Y92.041 E.00682
G1 X94.027 Y91.935 E.00412
G1 X94.203 Y91.721 E.00943
G1 X94.514 Y91.98 F9000
G1 F1800
G1 X94.618 Y91.898 E.00451
G1 X94.814 Y91.805 E.00738
G1 X95.01 Y91.774 E.00673
G1 X109.989 Y91.774 E.50908
G1 X110.202 Y91.813 E.00736
G1 X110.31 Y91.856 E.00395
G1 X110.52 Y92.014 E.00892
G1 X110.602 Y92.118 E.00451
G1 X110.695 Y92.314 E.00738
G1 X110.726 Y92.51 E.00673
G1 X110.726 Y107.492 E.5092
G1 X110.711 Y107.607 E.00395
G1 X110.642 Y107.813 E.00736
G1 X110.486 Y108.02 E.0088
G1 X110.382 Y108.102 E.00451
G1 X110.186 Y108.195 E.00738
G1 X109.99 Y108.226 E.00673
G1 X95.008 Y108.226 E.5092
G1 X94.893 Y108.211 E.00395
G1 X94.687 Y108.142 E.00736
G1 X94.48 Y107.986 E.0088
G1 X94.398 Y107.882 E.00451
G1 X94.305 Y107.686 E.00738
G1 X94.274 Y107.49 E.00673
G1 X94.274 Y92.511 E.50908
G1 X94.313 Y92.298 E.00736
G1 X94.356 Y92.19 E.00395
G1 X94.49 Y92.012 E.00756
G1 X94.764 Y92.314 F9000
G1 F1800
G1 X94.889 Y92.215 E.00542
G1 X95 Y92.191 E.00385
G1 X110 Y92.191 E.5098
G1 X110.101 Y92.218 E.00354
G1 X110.186 Y92.264 E.00329
G1 X110.285 Y92.389 E.00542
G1 X110.309 Y92.5 E.00385
G1 X110.309 Y107.5 E.5098
G1 X110.282 Y107.601 E.00354
G1 X110.236 Y107.686 E.00329
G1 X110.111 Y107.785 E.00542
G1 X110 Y107.809 E.00385
G1 X95 Y107.809 E.5098
G1 X94.899 Y107.782 E.00354
G1 X94.814 Y107.736 E.00329
G1 X94.715 Y107.611 E.00542
G1 X94.691 Y107.5 E.00385
G1 X94.691 Y92.5 E.5098
G1 X94.718 Y92.399 E.00354
G1 X94.745 Y92.349 E.00193
G1 E-.84 F2400
;WIPE_START
G1 F1800
G1 X94.889 Y92.215 E-.07098
G1 X95 Y92.191 E-.04075
G1 X95.69 Y92.191 E-.24827
;WIPE_END
G1 F9000
G1 X95.9732 Y92.7003 Z0.230769
G1 X95.9878 Y93.2825 Z0.261538
G1 X95.7302 Y93.8049 Z0.292308
G1 X95.2593 Y94.1478 Z0.323077
G1 X94.683 Y94.2325 Z0.353846
G1 X94.1334 Y94.0397 Z0.384615
G1 X93.7363 Y93.6136 Z0.415385
G1 X93.5827 Y93.0517 Z0.446154
G1 X93.7078 Y92.4828 Z0.476923
G1 X94.083 Y92.0372 Z0.507692
G1 X94.6223 Y91.8171 Z0.538462
G1 X95.2021 Y91.8727 Z0.569231
G1 X95.6896 Y92.1915 Z0.6
G1 X109.331 Y106.831 Z.6
G1 Z.2
G1 E1.2 F1800
;TYPE:Inner wall
;WIDTH:0.459999
G1 X95.669 Y106.831 E.46436
G1 X95.669 Y93.169 E.46436
G1 X109.331 Y93.169 E.46436
G1 X109.331 Y106.791 E.463
G1 X109.77 Y107.27 F9000
;TYPE:Outer wall
G1 F1800
G1 X95.23 Y107.27 E.49417
G1 X95.23 Y92.73 E.49417
G1 X109.77 Y92.73 E.49417
G1 X109.77 Y107.23 E.49281
G1 E-.84 F2400
;WIPE_START
G1 F1800
G1 X108.77 Y107.233 E-.36
;WIPE_END
G1 F9000
G1 X108.928 Y106.672 Z0.230769
G1 X109.329 Y106.249 Z0.261538
G1 X109.88 Y106.061 Z0.292308
G1 X110.456 Y106.15 Z0.323077
G1 X110.924 Y106.497 Z0.353846
G1 X111.177 Y107.022 Z0.384615
G1 X111.158 Y107.604 Z0.415385
G1 X110.87 Y108.11 Z0.446154
G1 X110.38 Y108.425 Z0.476923
G1 X109.799 Y108.476 Z0.507692
G1 X109.262 Y108.251 Z0.538462
G1 X108.89 Y107.803 Z0.569231
G1 X108.77 Y107.233 Z0.6
G1 X109.206 Y94.149 Z.6
G1 Z.2
G1 E1.2 F1800
;TYPE:Bottom surface
;WIDTH:0.46575
G1 F4800
G1 X108.539 Y93.481 E.03253
G1 X107.941 Y93.481 E.0206
G1 X109.019 Y94.559 E.05252
G1 X109.019 Y95.157 E.0206
G1 X107.343 Y93.481 E.08166
G1 X106.745 Y93.481 E.0206
G1 X109.019 Y95.755 E.1108
G1 X109.019 Y96.353 E.0206
G1 X106.147 Y93.481 E.13994
G1 X105.549 Y93.481 E.0206
G1 X109.019 Y96.951 E.16907
G1 X109.019 Y97.549 E.0206
G1 X104.951 Y93.481 E.19821
G1 X104.353 Y93.481 E.0206
G1 X109.019 Y98.147 E.22735
G1 X109.019 Y98.745 E.0206
G1 X103.755 Y93.481 E.25649
G1 X103.157 Y93.481 E.0206
G1 X109.019 Y99.343 E.28562
G1 X109.019 Y99.941 E.0206
G1 X102.559 Y93.481 E.31476
G1 X101.961 Y93.481 E.0206
G1 X109.019 Y100.539 E.3439
G1 X109.019 Y101.137 E.0206
G1 X101.363 Y93.481 E.37304
G1 X100.765 Y93.481 E.0206
G1 X109.019 Y101.735 E.40217
G1 X109.019 Y102.333 E.0206
G1 X100.167 Y93.481 E.43131
G1 X99.569 Y93.481 E.0206
G1 X109.019 Y102.931 E.46045
G1 X109.019 Y103.529 E.0206
G1 X98.971 Y93.481 E.48959
G1 X98.373 Y93.481 E.0206
G1 X109.019 Y104.127 E.51872
G1 X109.019 Y104.725 E.0206
G1 X97.775 Y93.481 E.54786
G1 X97.177 Y93.481 E.0206
G1 X109.019 Y105.323 E.577
G1 X109.019 Y105.921 E.0206
G1 X96.579 Y93.481 E.60614
G1 X95.981 Y93.481 E.0206
G1 X109.019 Y106.519 E.63527
G1 X108.421 Y106.519 E.0206
G1 X95.981 Y94.079 E.60613
G1 X95.981 Y94.677 E.0206
G1 X107.823 Y106.519 E.57699
G1 X107.225 Y106.519 E.0206
