; HEADER_BLOCK_START
; generated by OrcaSlicer-WaveOverhangs 2.4.0-dev on 2026-04-29 at 10:48:14
; WAVE_OVERHANG_BUILD wave_overhangs_version=0.3.0 orca_base=2.4.0-dev
; WAVE_OVERHANG_CONFIG region=0 algo=andersons outer_perim=1 spacing=0.440 flow_mm3_per_mm=0.230 speed=2.0 travel=40.0 fan=100 floor_layers=2 min_angle=0.0 min_length=0.00 max_iterations=0 ring_overlap=0.15 pattern=zigzag spacing_mode=uniform seam_mode=alternating perimeter_overlap=0.10 minimum_wave_width=0.70 min_new_area=0.0100 corner_enable=0 corner_spacing=0.000 corner_taper=0.00 corner_angle=90 end_retract=0.00 nozzle_temp_override=0 min_wave_time=0.00 min_layer_time=0.00 wall_loops=3 top_shell_layers=5 bottom_shell_layers=4 infill_density=15 infill_pattern=rectilinear support_remainder=1 instead_of_bridges=0
; total layer number: 43
; filament_density: 1.24
; filament_diameter: 1.75
; max_z_height: 10.28
; filament: 1
; HEADER_BLOCK_END

; THUMBNAIL_BLOCK_START

;
; THUMBNAIL_BLOCK_END

; external perimeters extrusion width = 0.42mm
; perimeters extrusion width = 0.45mm
; infill extrusion width = 0.44mm
; solid infill extrusion width = 0.44mm
; top infill extrusion width = 0.38mm
; first layer extrusion width = 0.42mm

; EXECUTABLE_BLOCK_START
EXCLUDE_OBJECT_DEFINE NAME=monolayer_l_id_0_copy_0 CENTER=125,125 POLYGON=[[110,107.5],[125,107.5],[140,127.5],[140,142.5],[110,142.5],[110,107.5]]
M106 S0
M106 P2 S0
;TYPE:Custom
G9111 bedTemp=0 extruderTemp=190
M117
G90
G21
M83 ; use relative distances for extrusion
; Filament gcode
M106 S0
M106 P2 S0
;LAYER_CHANGE
;Z:0.2
;HEIGHT:0.2
; BEFORE_LAYER_CHANGE 0 @ 0.2mm
G1 E-.8 F2400
; AFTER_LAYER_CHANGE 0 @ 0.2mm
;_SET_FAN_SPEED_CHANGING_LAYER
SET_VELOCITY_LIMIT ACCEL=2000 ACCEL_TO_DECEL=1000
; printing object monolayer l id:0 copy 0
EXCLUDE_OBJECT_START NAME=monolayer_l_id_0_copy_0
G1 X104.811 Y102.013 F24000
G1 Z.2
G1 Z.2
G1 E.8 F2400
;TYPE:Brim
;WIDTH:0.42
G1 F2700
G1 X105.46 Y101.47 E.02919
G1 X106.167 Y101.005 E.02919
G1 X106.933 Y100.617 E.02961
G1 X107.723 Y100.309 E.02925
G1 X108.542 Y100.093 E.02919
G1 X109.381 Y99.973 E.02924
G1 X110.004 Y99.947 E.0215
G1 X124.995 Y99.947 E.51702
G1 X125.845 Y99.996 E.02938
G1 X126.677 Y100.141 E.02915
G1 X127.689 Y100.455 E.03653
G1 X128.464 Y100.795 E.0292
G1 X129.195 Y101.221 E.02919
G1 X129.872 Y101.729 E.02919
G1 X130.487 Y102.311 E.02919
G1 X131.03 Y102.96 E.02919
G1 X131.495 Y103.667 E.02919
G1 X131.883 Y104.433 E.02961
G1 X132.191 Y105.223 E.02925
G1 X132.407 Y106.042 E.02919
G1 X132.527 Y106.881 E.02924
G1 X132.553 Y107.504 E.02151
G1 X132.553 Y122.495 E.51702
G1 X132.504 Y123.345 E.02938
G1 X132.359 Y124.178 E.02917
G1 X132.093 Y125.06 E.03176
G1 X131.705 Y125.965 E.03397
G1 X131.279 Y126.695 E.02916
G1 X130.771 Y127.372 E.02919
G1 X130.189 Y127.987 E.02919
G1 X129.54 Y128.53 E.02919
G1 X128.833 Y128.995 E.02919
G1 X128.067 Y129.383 E.02961
G1 X127.277 Y129.691 E.02925
G1 X126.458 Y129.907 E.02919
G1 X125.619 Y130.027 E.02924
G1 X124.996 Y130.053 E.0215
G1 X110.005 Y130.053 E.51702
G1 X109.155 Y130.004 E.02938
G1 X108.322 Y129.859 E.02917
G1 X107.44 Y129.593 E.03176
G1 X106.535 Y129.205 E.03397
G1 X105.805 Y128.779 E.02916
G1 X105.128 Y128.271 E.02919
G1 X104.513 Y127.689 E.02919
G1 X103.97 Y127.04 E.02919
G1 X103.505 Y126.333 E.02919
G1 X103.117 Y125.567 E.02961
G1 X102.809 Y124.777 E.02925
G1 X102.593 Y123.958 E.02919
G1 X102.473 Y123.119 E.02924
G1 X102.447 Y122.496 E.0215
G1 X102.447 Y107.505 E.51702
G1 X102.496 Y106.655 E.02938
G1 X102.641 Y105.822 E.02917
G1 X102.907 Y104.94 E.03176
G1 X103.295 Y104.035 E.03397
G1 X103.721 Y103.305 E.02916
G1 X104.229 Y102.628 E.02919
G1 X104.784 Y102.042 E.02781
G1 X105.058 Y102.301 F24000
G1 F2700
G1 X105.066 Y102.293 E.00039
G1 X105.691 Y101.769 E.02814
G1 X106.362 Y101.329 E.0277
G1 X107.092 Y100.96 E.02821
G1 X107.847 Y100.666 E.02792
G1 X108.623 Y100.463 E.02769
G1 X109.41 Y100.35 E.02742
G1 X110.014 Y100.324 E.02086
G1 X124.987 Y100.324 E.5164
G1 X125.795 Y100.371 E.02792
G1 X126.582 Y100.507 E.02754
G1 X127.551 Y100.807 E.03499
G1 X128.299 Y101.135 E.02816
G1 X128.992 Y101.54 E.02769
G1 X129.624 Y102.014 E.02724
G1 X130.216 Y102.575 E.02814
G1 X130.731 Y103.191 E.02769
G1 X131.165 Y103.851 E.02726
G1 X131.536 Y104.582 E.02828
G1 X131.83 Y105.334 E.02784
G1 X132.035 Y106.11 E.02769
G1 X132.15 Y106.91 E.02787
G1 X132.176 Y107.514 E.02086
G1 X132.176 Y122.487 E.5164
G1 X132.129 Y123.295 E.02792
G1 X131.992 Y124.084 E.02763
G1 X131.74 Y124.925 E.03026
G1 X131.37 Y125.789 E.03241
G1 X130.96 Y126.492 E.02807
G1 X130.478 Y127.134 E.02769
G1 X129.925 Y127.716 E.02769
G1 X129.309 Y128.231 E.02769
G1 X128.649 Y128.665 E.02726
G1 X127.917 Y129.036 E.02828
G1 X127.153 Y129.334 E.02829
G1 X126.377 Y129.537 E.02769
G1 X125.579 Y129.651 E.02781
G1 X124.986 Y129.676 E.02047
G1 X110.02 Y129.676 E.51618
G1 X109.205 Y129.629 E.02814
G1 X108.402 Y129.489 E.0281
G1 X107.564 Y129.235 E.03023
G1 X106.711 Y128.87 E.03198
G1 X106.008 Y128.46 E.02807
G1 X105.366 Y127.978 E.02769
G1 X104.784 Y127.425 E.02769
G1 X104.269 Y126.809 E.02769
G1 X103.835 Y126.149 E.02726
G1 X103.464 Y125.417 E.02828
G1 X103.166 Y124.653 E.02829
G1 X102.963 Y123.877 E.02769
G1 X102.849 Y123.079 E.02781
G1 X102.824 Y122.486 E.02047
G1 X102.824 Y107.52 E.51618
G1 X102.871 Y106.705 E.02814
G1 X103.011 Y105.902 E.0281
G1 X103.265 Y105.063 E.03023
G1 X103.63 Y104.211 E.03198
G1 X104.04 Y103.508 E.02807
G1 X104.514 Y102.876 E.02724
G1 X105.03 Y102.33 E.02592
G1 X105.304 Y102.59 F24000
G1 F2700
G1 X105.32 Y102.573 E.00079
G1 X105.922 Y102.069 E.02708
G1 X106.557 Y101.653 E.0262
G1 X107.251 Y101.303 E.02681
G1 X107.97 Y101.024 E.02658
G1 X108.704 Y100.832 E.02619
G1 X109.44 Y100.727 E.02562
G1 X110.025 Y100.701 E.02021
G1 X124.973 Y100.701 E.51555
G1 X125.745 Y100.746 E.02669
G1 X126.486 Y100.873 E.02593
G1 X127.413 Y101.159 E.03345
G1 X128.133 Y101.475 E.02711
G1 X128.777 Y101.851 E.02574
G1 X129.375 Y102.299 E.02574
G1 X129.945 Y102.839 E.02708
G1 X130.423 Y103.411 E.02574
G1 X130.835 Y104.035 E.02578
G1 X131.189 Y104.732 E.02695
G1 X131.468 Y105.445 E.02643
G1 X131.663 Y106.179 E.02619
G1 X131.773 Y106.94 E.0265
G1 X131.799 Y107.525 E.0202
G1 X131.799 Y122.479 E.51578
G1 X131.754 Y123.245 E.02646
G1 X131.626 Y123.991 E.02609
G1 X131.387 Y124.79 E.02876
G1 X131.035 Y125.612 E.03085
G1 X130.641 Y126.288 E.02698
G1 X130.193 Y126.884 E.02573
G1 X129.671 Y127.436 E.02619
G1 X129.089 Y127.923 E.02619
G1 X128.465 Y128.335 E.02578
G1 X127.758 Y128.693 E.02732
G1 X127.03 Y128.976 E.02694
G1 X126.296 Y129.168 E.02618
G1 X125.538 Y129.275 E.02638
G1 X124.975 Y129.299 E.01943
G1 X110.034 Y129.299 E.51534
G1 X109.255 Y129.254 E.0269
G1 X108.483 Y129.12 E.02702
G1 X107.687 Y128.878 E.0287
G1 X106.888 Y128.535 E.02999
G1 X106.212 Y128.141 E.02698
G1 X105.616 Y127.693 E.02573
G1 X105.064 Y127.171 E.02619
G1 X104.577 Y126.589 E.02619
G1 X104.165 Y125.965 E.02578
G1 X103.807 Y125.258 E.02732
G1 X103.524 Y124.53 E.02694
G1 X103.332 Y123.796 E.02618
G1 X103.225 Y123.038 E.02638
G1 X103.201 Y122.475 E.01943
G1 X103.201 Y107.534 E.51534
G1 X103.246 Y106.755 E.0269
G1 X103.38 Y105.983 E.02702
G1 X103.622 Y105.187 E.0287
G1 X103.965 Y104.388 E.02999
G1 X104.359 Y103.712 E.02699
G1 X104.807 Y103.115 E.02574
G1 X105.277 Y102.619 E.02357
G1 X105.551 Y102.879 F24000
G1 F2700
G1 X105.584 Y102.844 E.00165
G1 X106.142 Y102.376 E.0251
G1 X106.741 Y101.983 E.02471
G1 X107.4 Y101.65 E.02547
G1 X108.092 Y101.381 E.02561
G1 X108.773 Y101.204 E.02426
G1 X109.469 Y101.103 E.02427
G1 X110.036 Y101.078 E.01956
G1 X124.959 Y101.078 E.5147
G1 X125.696 Y101.121 E.02546
G1 X126.391 Y101.24 E.02432
G1 X127.275 Y101.511 E.0319
G1 X127.967 Y101.815 E.02606
G1 X128.574 Y102.17 E.02424
G1 X129.126 Y102.583 E.0238
G1 X129.674 Y103.102 E.02602
G1 X130.124 Y103.642 E.02424
G1 X130.505 Y104.22 E.02387
G1 X130.842 Y104.882 E.02562
G1 X131.107 Y105.557 E.02502
G1 X131.291 Y106.249 E.02469
G1 X131.397 Y106.969 E.02512
G1 X131.422 Y107.536 E.01955
G1 X131.421 Y122.472 E.51514
G1 X131.379 Y123.196 E.02502
G1 X131.259 Y123.898 E.02456
G1 X131.033 Y124.655 E.02726
G1 X130.7 Y125.436 E.02929
G1 X130.323 Y126.084 E.02588
G1 X129.9 Y126.645 E.02422
G1 X129.407 Y127.165 E.0247
G1 X128.868 Y127.616 E.02425
G1 X128.28 Y128.005 E.0243
G1 X127.609 Y128.346 E.02597
G1 X126.908 Y128.619 E.02596
G1 X126.215 Y128.799 E.02468
G1 X125.498 Y128.9 E.02496
G1 X124.965 Y128.922 E.01841
G1 X110.041 Y128.922 E.51472
G1 X109.292 Y128.878 E.02589
G1 X108.564 Y128.75 E.02548
G1 X107.811 Y128.521 E.02716
G1 X107.064 Y128.201 E.02802
G1 X106.416 Y127.823 E.02589
G1 X105.855 Y127.4 E.02422
G1 X105.335 Y126.907 E.0247
G1 X104.884 Y126.368 E.02425
G1 X104.495 Y125.78 E.0243
G1 X104.154 Y125.109 E.02597
G1 X103.881 Y124.408 E.02596
G1 X103.701 Y123.715 E.02468
G1 X103.6 Y122.998 E.02496
G1 X103.578 Y122.465 E.01841
G1 X103.578 Y107.541 E.51472
G1 X103.622 Y106.792 E.02589
G1 X103.75 Y106.064 E.02548
G1 X103.979 Y105.311 E.02716
G1 X104.299 Y104.564 E.02802
G1 X104.677 Y103.915 E.02589
G1 X105.1 Y103.354 E.02424
G1 X105.523 Y102.908 E.02122
G1 X105.797 Y103.168 F24000
G1 F2700
G1 X105.848 Y103.115 E.00252
G1 X106.362 Y102.684 E.02315
G1 X106.924 Y102.314 E.02322
G1 X107.549 Y101.997 E.02413
G1 X108.202 Y101.743 E.02419
G1 X108.841 Y101.576 E.02278
G1 X109.499 Y101.48 E.02292
G1 X110.046 Y101.455 E.0189
G1 X124.945 Y101.455 E.51384
G1 X125.647 Y101.495 E.02425
G1 X126.296 Y101.606 E.02272
G1 X127.137 Y101.863 E.03034
G1 X127.801 Y102.155 E.025
G1 X128.359 Y102.481 E.0223
G1 X128.877 Y102.868 E.02231
G1 X129.403 Y103.366 E.02495
G1 X129.817 Y103.863 E.0223
G1 X130.175 Y104.404 E.02241
G1 X130.495 Y105.032 E.02429
G1 X130.746 Y105.669 E.02361
G1 X130.92 Y106.318 E.02319
G1 X131.02 Y107 E.02375
G1 X131.045 Y107.546 E.01888
G1 X131.044 Y122.464 E.51451
G1 X131.005 Y123.147 E.02358
G1 X130.892 Y123.805 E.02303
G1 X130.68 Y124.521 E.02576
G1 X130.366 Y125.26 E.02771
G1 X130.004 Y125.881 E.02477
G1 X129.607 Y126.406 E.02271
G1 X129.144 Y126.894 E.02321
G1 X128.637 Y127.317 E.02277
G1 X128.085 Y127.681 E.02282
G1 X127.45 Y128.003 E.02455
G1 X126.785 Y128.261 E.02459
G1 X126.135 Y128.429 E.02317
G1 X125.459 Y128.524 E.02355
G1 X124.955 Y128.545 E.01739
G1 X110.049 Y128.544 E.51411
G1 X109.329 Y128.502 E.02487
G1 X108.645 Y128.381 E.02395
G1 X107.935 Y128.164 E.02563
G1 X107.24 Y127.866 E.02605
G1 X106.619 Y127.504 E.02479
G1 X106.094 Y127.107 E.02271
G1 X105.606 Y126.644 E.02321
G1 X105.183 Y126.137 E.02277
G1 X104.819 Y125.585 E.02282
G1 X104.497 Y124.95 E.02455
G1 X104.239 Y124.285 E.02459
G1 X104.071 Y123.635 E.02317
G1 X103.976 Y122.959 E.02355
G1 X103.955 Y122.455 E.01739
G1 X103.956 Y107.549 E.51411
G1 X103.998 Y106.829 E.02487
G1 X104.119 Y106.145 E.02395
G1 X104.336 Y105.435 E.02564
G1 X104.634 Y104.74 E.02605
G1 X104.996 Y104.119 E.02479
G1 X105.393 Y103.593 E.02273
G1 X105.77 Y103.197 E.01887
G1 X106.043 Y103.457 F24000
G1 F2700
G1 X106.111 Y103.386 E.0034
G1 X106.593 Y102.983 E.02166
G1 X107.109 Y102.644 E.02129
G1 X107.697 Y102.345 E.02278
G1 X108.313 Y102.105 E.02278
G1 X108.91 Y101.947 E.02131
G1 X109.529 Y101.857 E.02157
G1 X110.058 Y101.832 E.01825
G1 X124.931 Y101.833 E.51298
G1 X125.598 Y101.87 E.02304
G1 X126.202 Y101.972 E.02113
G1 X127 Y102.216 E.02877
G1 X127.635 Y102.494 E.02394
G1 X128.145 Y102.793 E.02037
G1 X128.629 Y103.153 E.02081
G1 X129.131 Y103.63 E.02388
G1 X129.517 Y104.093 E.0208
G1 X129.845 Y104.589 E.02052
G1 X130.148 Y105.182 E.02296
G1 X130.385 Y105.781 E.02221
G1 X130.551 Y106.401 E.02215
G1 X130.643 Y107.03 E.02192
G1 X130.668 Y107.558 E.01822
G1 X130.667 Y122.457 E.51386
G1 X130.63 Y123.098 E.02215
G1 X130.526 Y123.712 E.0215
G1 X130.326 Y124.387 E.02425
G1 X130.031 Y125.084 E.02613
G1 X129.685 Y125.677 E.02365
G1 X129.315 Y126.167 E.02118
G1 X128.88 Y126.622 E.02172
G1 X128.406 Y127.017 E.02129
G1 X127.889 Y127.357 E.02134
G1 X127.291 Y127.661 E.02314
G1 X126.663 Y127.903 E.02321
G1 X126.055 Y128.06 E.02166
G1 X125.419 Y128.148 E.02213
G1 X124.945 Y128.168 E.01637
G1 X110.057 Y128.167 E.51349
G1 X109.38 Y128.127 E.02339
G1 X108.727 Y128.011 E.02286
G1 X108.059 Y127.807 E.02411
G1 X107.417 Y127.531 E.02409
G1 X106.823 Y127.186 E.02368
G1 X106.333 Y126.815 E.02118
G1 X105.878 Y126.38 E.02172
G1 X105.483 Y125.906 E.02129
G1 X105.143 Y125.389 E.02134
G1 X104.839 Y124.791 E.02314
G1 X104.597 Y124.163 E.02321
G1 X104.44 Y123.555 E.02166
G1 X104.352 Y122.919 E.02213
G1 X104.332 Y122.445 E.01637
G1 X104.333 Y107.557 E.51349
G1 X104.373 Y106.88 E.02339
G1 X104.489 Y106.227 E.02286
G1 X104.693 Y105.559 E.02412
G1 X104.969 Y104.917 E.02409
G1 X105.315 Y104.323 E.02369
G1 X105.685 Y103.833 E.0212
G1 X106.016 Y103.486 E.01651
G1 X106.289 Y103.747 F24000
G1 F2700
G1 X106.374 Y103.657 E.00427
G1 X106.813 Y103.291 E.01973
G1 X107.293 Y102.974 E.01982
G1 X107.847 Y102.692 E.02144
G1 X108.424 Y102.466 E.02136
G1 X108.98 Y102.319 E.01984
G1 X109.56 Y102.233 E.02022
G1 X110.069 Y102.209 E.01758
G1 X124.917 Y102.21 E.51211
G1 X125.549 Y102.245 E.02185
G1 X126.108 Y102.339 E.01953
G1 X126.862 Y102.568 E.02719
G1 X127.469 Y102.834 E.02287
G1 X127.941 Y103.112 E.01888
G1 X128.38 Y103.438 E.01887
G1 X128.86 Y103.893 E.0228
G1 X129.21 Y104.314 E.01887
G1 X129.516 Y104.775 E.01908
G1 X129.802 Y105.333 E.02163
G1 X130.024 Y105.893 E.02079
G1 X130.182 Y106.484 E.0211
G1 X130.267 Y107.061 E.0201
G1 X130.291 Y107.569 E.01755
G1 X130.289 Y122.449 E.51321
G1 X130.255 Y123.049 E.02073
G1 X130.159 Y123.621 E.01998
G1 X129.973 Y124.253 E.02274
G1 X129.696 Y124.909 E.02454
G1 X129.367 Y125.473 E.02252
G1 X129.023 Y125.927 E.01964
G1 X128.617 Y126.351 E.02023
G1 X128.176 Y126.718 E.0198
G1 X127.694 Y127.034 E.01987
G1 X127.132 Y127.318 E.02172
G1 X126.541 Y127.545 E.02183
G1 X125.975 Y127.69 E.02015
G1 X125.38 Y127.772 E.02073
G1 X124.935 Y127.791 E.01536
G1 X110.064 Y127.79 E.51287
G1 X109.431 Y127.752 E.0219
G1 X108.809 Y127.642 E.02177
G1 X108.194 Y127.454 E.02217
G1 X107.593 Y127.197 E.02256
G1 X107.027 Y126.867 E.02258
G1 X106.573 Y126.523 E.01964
G1 X106.149 Y126.117 E.02023
G1 X105.782 Y125.676 E.0198
G1 X105.466 Y125.194 E.01987
G1 X105.182 Y124.632 E.02172
G1 X104.955 Y124.041 E.02183
G1 X104.81 Y123.475 E.02015
G1 X104.728 Y122.88 E.02073
G1 X104.709 Y122.435 E.01536
G1 X104.71 Y107.564 E.51287
G1 X104.748 Y106.931 E.0219
G1 X104.858 Y106.309 E.02177
G1 X105.046 Y105.694 E.02217
G1 X105.303 Y105.093 E.02256
G1 X105.633 Y104.527 E.02258
G1 X105.978 Y104.073 E.01967
G1 X106.261 Y103.776 E.01416
G1 X106.534 Y104.037 F24000
G1 F2700
G1 X106.637 Y103.929 E.00515
G1 X107.044 Y103.59 E.01827
G1 X107.478 Y103.304 E.01792
G1 X107.996 Y103.039 E.02009
G1 X108.535 Y102.828 E.01995
G1 X109.05 Y102.691 E.01837
G1 X109.591 Y102.61 E.01886
G1 X110.08 Y102.587 E.01691
G1 X124.903 Y102.587 E.51124
G1 X125.501 Y102.62 E.02066
G1 X126.015 Y102.706 E.01794
G1 X126.725 Y102.92 E.0256
G1 X127.303 Y103.174 E.02178
G1 X127.727 Y103.423 E.01696
G1 X128.132 Y103.723 E.01737
G1 X128.589 Y104.157 E.02172
G1 X128.91 Y104.544 E.01737
G1 X129.186 Y104.96 E.01722
G1 X129.455 Y105.484 E.0203
G1 X129.663 Y106.006 E.01937
G1 X129.813 Y106.567 E.02004
G1 X129.89 Y107.092 E.01829
G1 X129.913 Y107.581 E.01688
G1 X129.912 Y122.441 E.51254
G1 X129.88 Y123.001 E.01933
G1 X129.792 Y123.529 E.01847
G1 X129.619 Y124.12 E.02124
G1 X129.36 Y124.733 E.02294
G1 X129.049 Y125.269 E.02138
G1 X128.731 Y125.686 E.01809
G1 X128.355 Y126.078 E.01875
G1 X127.946 Y126.418 E.01832
G1 X127.499 Y126.709 E.0184
G1 X126.973 Y126.975 E.02031
G1 X126.42 Y127.187 E.02045
G1 X125.896 Y127.32 E.01865
G1 X125.341 Y127.396 E.01933
G1 X124.925 Y127.413 E.01436
G1 X110.072 Y127.413 E.51225
G1 X109.468 Y127.376 E.02087
G1 X108.891 Y127.273 E.02023
G1 X108.319 Y127.097 E.02065
G1 X107.769 Y126.862 E.02061
G1 X107.231 Y126.549 E.02146
G1 X106.814 Y126.231 E.0181
G1 X106.422 Y125.855 E.01875
G1 X106.082 Y125.446 E.01832
G1 X105.791 Y124.999 E.0184
G1 X105.525 Y124.473 E.02031
G1 X105.313 Y123.92 E.02045
G1 X105.18 Y123.396 E.01865
G1 X105.104 Y122.841 E.01933
G1 X105.087 Y122.425 E.01436
G1 X105.087 Y107.572 E.51225
G1 X105.124 Y106.968 E.02087
G1 X105.227 Y106.391 E.02023
