; HEADER_BLOCK_START
; generated by OrcaSlicer-WaveOverhangs 2.4.0-dev on 2026-04-29 at 12:57:07
; WAVE_OVERHANG_BUILD wave_overhangs_version=0.3.0 orca_base=2.4.0-dev
; WAVE_OVERHANG_CONFIG region=0 algo=andersons outer_perim=1 spacing=0.440 flow_mm3_per_mm=0.220 speed=2.0 travel=40.0 fan=100 floor_layers=2 min_angle=0.0 min_length=0.00 max_iterations=0 ring_overlap=0.15 pattern=zigzag spacing_mode=uniform seam_mode=alternating perimeter_overlap=0.10 minimum_wave_width=0.70 min_new_area=0.0100 corner_enable=0 corner_spacing=0.000 corner_taper=0.00 corner_angle=90 end_retract=0.00 nozzle_temp_override=0 min_wave_time=0.00 min_layer_time=0.00 wall_loops=5 top_shell_layers=5 bottom_shell_layers=3 infill_density=40 infill_pattern=crosshatch support_remainder=1 instead_of_bridges=0
; total layer number: 43
; filament_density: 1.04
; filament_diameter: 1.75
; max_z_height: 10.32
; filament: 1
; HEADER_BLOCK_END

; THUMBNAIL_BLOCK_START

;
; THUMBNAIL_BLOCK_END

; external perimeters extrusion width = 0.42mm
; perimeters extrusion width = 0.45mm
; infill extrusion width = 0.44mm
; solid infill extrusion width = 0.44mm
; top infill extrusion width = 0.38mm
; support material extrusion width = 0.38mm
; first layer extrusion width = 0.42mm

; EXECUTABLE_BLOCK_START
EXCLUDE_OBJECT_DEFINE NAME=monolayer_l_id_0_copy_0 CENTER=125,125 POLYGON=[[110,107.5],[125,107.5],[140,127.5],[140,142.5],[110,142.5],[110,107.5]]
M106 S0
M106 P2 S0
;TYPE:Custom
G9111 bedTemp=105 extruderTemp=260
M117
G90
G21
M83 ; use relative distances for extrusion
; Filament gcode
M106 S0
M106 P2 S0
;LAYER_CHANGE
;Z:0.24
;HEIGHT:0.24
; BEFORE_LAYER_CHANGE 0 @ 0.24mm
G1 E-.8 F2400
; AFTER_LAYER_CHANGE 0 @ 0.24mm
;_SET_FAN_SPEED_CHANGING_LAYER
SET_VELOCITY_LIMIT ACCEL=500 ACCEL_TO_DECEL=250
SET_VELOCITY_LIMIT SQUARE_CORNER_VELOCITY=9
; printing object monolayer l id:0 copy 0
EXCLUDE_OBJECT_START NAME=monolayer_l_id_0_copy_0
G1 X124.715 Y122.215 F18000
G1 Z.24
G1 Z.24
G1 E.8 F2400
;TYPE:Outer wall
;WIDTH:0.42
G1 X110.285 Y122.215 E.49131
G1 X110.285 Y107.785 E.49131
G1 X124.715 Y107.785 E.49131
G1 X124.715 Y122.175 E.48995
G1 X124.347 Y121.847 F18000
;TYPE:Inner wall
G1 F2400
G1 X110.653 Y121.847 E.46622
G1 X110.653 Y108.153 E.46622
G1 X124.347 Y108.153 E.46622
G1 X124.347 Y121.807 E.46485
G1 X123.978 Y121.478 F18000
G1 F2400
G1 X111.022 Y121.478 E.44112
G1 X111.022 Y108.522 E.44112
G1 X123.978 Y108.522 E.44112
G1 X123.978 Y121.438 E.43976
G1 X123.61 Y121.11 F18000
G1 F2400
G1 X111.39 Y121.11 E.41603
G1 X111.39 Y108.89 E.41603
G1 X123.61 Y108.89 E.41603
G1 X123.61 Y121.07 E.41467
G1 X123.241 Y120.741 F18000
G1 F2400
G1 X111.759 Y120.741 E.39094
G1 X111.759 Y109.259 E.39094
G1 X123.241 Y109.259 E.39094
G1 X123.241 Y120.701 E.38958
;WIPE_START
G1 X122.241 Y120.705 E-.8
;WIPE_END
G1 X123.13 Y109.539 F18000
G1 E.8 F2400
;TYPE:Bottom surface
;WIDTH:0.428097
G1 F3600
G1 X112.035 Y109.539 E.38607
G1 X112.035 Y109.916 E.0131
G1 X122.965 Y109.916 E.3803
G1 X122.965 Y110.293 E.0131
G1 X112.035 Y110.293 E.3803
G1 X112.035 Y110.669 E.0131
G1 X122.965 Y110.669 E.3803
G1 X122.965 Y111.046 E.0131
G1 X112.035 Y111.046 E.3803
G1 X112.035 Y111.422 E.0131
G1 X122.965 Y111.422 E.3803
G1 X122.965 Y111.799 E.0131
G1 X112.035 Y111.799 E.3803
G1 X112.035 Y112.176 E.0131
G1 X122.965 Y112.176 E.3803
G1 X122.965 Y112.552 E.0131
G1 X112.035 Y112.552 E.3803
G1 X112.035 Y112.929 E.0131
G1 X122.965 Y112.929 E.3803
G1 X122.965 Y113.305 E.0131
G1 X112.035 Y113.305 E.3803
G1 X112.035 Y113.682 E.0131
G1 X122.965 Y113.682 E.3803
G1 X122.965 Y114.059 E.0131
G1 X112.035 Y114.059 E.3803
G1 X112.035 Y114.435 E.0131
G1 X122.965 Y114.435 E.3803
G1 X122.965 Y114.812 E.0131
G1 X112.035 Y114.812 E.3803
G1 X112.035 Y115.188 E.0131
G1 X122.965 Y115.188 E.3803
G1 X122.965 Y115.565 E.0131
G1 X112.035 Y115.565 E.3803
G1 X112.035 Y115.942 E.0131
G1 X122.965 Y115.942 E.3803
G1 X122.965 Y116.318 E.0131
G1 X112.035 Y116.318 E.3803
G1 X112.035 Y116.695 E.0131
G1 X122.965 Y116.695 E.3803
G1 X122.965 Y117.071 E.0131
G1 X112.035 Y117.071 E.3803
G1 X112.035 Y117.448 E.0131
G1 X122.965 Y117.448 E.3803
G1 X122.965 Y117.825 E.0131
G1 X112.035 Y117.825 E.3803
G1 X112.035 Y118.201 E.0131
G1 X122.965 Y118.201 E.3803
G1 X122.965 Y118.578 E.0131
G1 X112.035 Y118.578 E.3803
G1 X112.035 Y118.954 E.0131
G1 X122.965 Y118.954 E.3803
G1 X122.965 Y119.331 E.0131
G1 X112.035 Y119.331 E.3803
G1 X112.035 Y119.707 E.0131
G1 X122.965 Y119.707 E.3803
G1 X122.965 Y120.084 E.0131
G1 X112.035 Y120.084 E.3803
G1 X112.035 Y120.461 E.0131
G1 X123.13 Y120.461 E.38607
; stop printing object monolayer l id:0 copy 0
;LAYER_CHANGE
;Z:0.48
;HEIGHT:0.24
; BEFORE_LAYER_CHANGE 1 @ 0.48mm
G1 E-.13333 F2400
;WIPE_START
G1 F3600
G1 X122.13 Y120.461 E-.66667
;WIPE_END
EXCLUDE_OBJECT_END NAME=monolayer_l_id_0_copy_0
; AFTER_LAYER_CHANGE 1 @ 0.48mm
;_SET_FAN_SPEED_CHANGING_LAYER
SET_VELOCITY_LIMIT ACCEL=10000 ACCEL_TO_DECEL=5000
M104 S250 ; set nozzle temperature
M140 S100 ; set bed temperature
; printing object monolayer l id:0 copy 0
EXCLUDE_OBJECT_START NAME=monolayer_l_id_0_copy_0
G1 X124.79 Y122.29 Z.88 F18000
G1 Z.48
G1 E.8 F2400
SET_VELOCITY_LIMIT ACCEL=5000 ACCEL_TO_DECEL=2500
;TYPE:Outer wall
;WIDTH:0.42
G1 F3600
G1 X110.21 Y122.29 E.49642
G1 X110.21 Y107.71 E.49642
G1 X124.79 Y107.71 E.49642
G1 X124.79 Y122.25 E.49505
SET_VELOCITY_LIMIT ACCEL=10000 ACCEL_TO_DECEL=5000
G1 X124.407 Y121.907 F18000
SET_VELOCITY_LIMIT ACCEL=5000 ACCEL_TO_DECEL=2500
;TYPE:Inner wall
;WIDTH:0.45
G1 F4800
G1 X110.593 Y121.907 E.50859
G1 X110.593 Y108.093 E.50859
G1 X124.407 Y108.093 E.50859
G1 X124.407 Y121.867 E.50712
SET_VELOCITY_LIMIT ACCEL=10000 ACCEL_TO_DECEL=5000
G1 X124.008 Y121.508 F18000
SET_VELOCITY_LIMIT ACCEL=5000 ACCEL_TO_DECEL=2500
G1 F4800
G1 X110.992 Y121.508 E.47925
G1 X110.992 Y108.492 E.47925
G1 X124.008 Y108.492 E.47925
G1 X124.008 Y121.468 E.47777
SET_VELOCITY_LIMIT ACCEL=10000 ACCEL_TO_DECEL=5000
G1 X123.61 Y121.11 F18000
SET_VELOCITY_LIMIT ACCEL=5000 ACCEL_TO_DECEL=2500
G1 F4800
G1 X111.39 Y121.11 E.4499
G1 X111.39 Y108.89 E.4499
G1 X123.61 Y108.89 E.4499
G1 X123.61 Y121.07 E.44843
SET_VELOCITY_LIMIT ACCEL=10000 ACCEL_TO_DECEL=5000
G1 X123.211 Y120.711 F18000
SET_VELOCITY_LIMIT ACCEL=5000 ACCEL_TO_DECEL=2500
G1 F4800
G1 X111.789 Y120.711 E.42056
G1 X111.789 Y109.289 E.42056
G1 X123.211 Y109.289 E.42056
G1 X123.211 Y120.671 E.41908
SET_VELOCITY_LIMIT ACCEL=10000 ACCEL_TO_DECEL=5000
G1 X122.872 Y120.551 F18000
SET_VELOCITY_LIMIT ACCEL=5000 ACCEL_TO_DECEL=2500
;TYPE:Internal solid infill
;WIDTH:0.449418
G1 F4800
G1 X122.872 Y109.623 E.40178
G1 X122.474 Y109.623 E.01463
G1 X122.474 Y120.377 E.39535
G1 X122.076 Y120.377 E.01463
G1 X122.076 Y109.623 E.39535
G1 X121.678 Y109.623 E.01463
G1 X121.678 Y120.377 E.39535
G1 X121.28 Y120.377 E.01463
G1 X121.28 Y109.623 E.39535
G1 X120.882 Y109.623 E.01463
G1 X120.882 Y120.377 E.39535
G1 X120.484 Y120.377 E.01463
G1 X120.484 Y109.623 E.39535
G1 X120.086 Y109.623 E.01463
G1 X120.086 Y120.377 E.39535
G1 X119.688 Y120.377 E.01463
G1 X119.688 Y109.623 E.39535
G1 X119.291 Y109.623 E.01463
G1 X119.291 Y120.377 E.39535
G1 X118.893 Y120.377 E.01463
G1 X118.893 Y109.623 E.39535
G1 X118.495 Y109.623 E.01463
G1 X118.495 Y120.377 E.39535
G1 X118.097 Y120.377 E.01463
G1 X118.097 Y109.623 E.39535
G1 X117.699 Y109.623 E.01463
G1 X117.699 Y120.377 E.39535
G1 X117.301 Y120.377 E.01463
G1 X117.301 Y109.623 E.39535
G1 X116.903 Y109.623 E.01463
G1 X116.903 Y120.377 E.39535
G1 X116.505 Y120.377 E.01463
G1 X116.505 Y109.623 E.39535
G1 X116.107 Y109.623 E.01463
G1 X116.107 Y120.377 E.39535
G1 X115.709 Y120.377 E.01463
G1 X115.709 Y109.623 E.39535
G1 X115.311 Y109.623 E.01463
G1 X115.311 Y120.377 E.39535
G1 X114.914 Y120.377 E.01463
G1 X114.914 Y109.623 E.39535
G1 X114.516 Y109.623 E.01463
G1 X114.516 Y120.377 E.39535
G1 X114.118 Y120.377 E.01463
G1 X114.118 Y109.623 E.39535
G1 X113.72 Y109.623 E.01463
G1 X113.72 Y120.377 E.39535
G1 X113.322 Y120.377 E.01463
G1 X113.322 Y109.623 E.39535
G1 X112.924 Y109.623 E.01463
G1 X112.924 Y120.377 E.39535
G1 X112.526 Y120.377 E.01463
G1 X112.526 Y109.623 E.39535
G1 X112.128 Y109.623 E.01463
G1 X112.128 Y120.551 E.40178
; stop printing object monolayer l id:0 copy 0
;LAYER_CHANGE
;Z:0.72
;HEIGHT:0.24
; BEFORE_LAYER_CHANGE 2 @ 0.72mm
G1 E-.3 F2400
;WIPE_START
G1 F4800
G1 X112.128 Y119.551 E-.5
;WIPE_END
EXCLUDE_OBJECT_END NAME=monolayer_l_id_0_copy_0
; AFTER_LAYER_CHANGE 2 @ 0.72mm
;_SET_FAN_SPEED_CHANGING_LAYER
; printing object monolayer l id:0 copy 0
SET_VELOCITY_LIMIT ACCEL=10000 ACCEL_TO_DECEL=5000
EXCLUDE_OBJECT_START NAME=monolayer_l_id_0_copy_0
G1 X119.588 Y121.165 Z1.12 F18000
G1 X124.79 Y122.29 Z1.12
G1 Z.72
G1 E.8 F2400
SET_VELOCITY_LIMIT ACCEL=5000 ACCEL_TO_DECEL=2500
;TYPE:Outer wall
;WIDTH:0.42
G1 F3600
G1 X110.21 Y122.29 E.49642
G1 X110.21 Y107.71 E.49642
G1 X124.79 Y107.71 E.49642
G1 X124.79 Y122.25 E.49505
SET_VELOCITY_LIMIT ACCEL=10000 ACCEL_TO_DECEL=5000
G1 X124.407 Y121.907 F18000
SET_VELOCITY_LIMIT ACCEL=5000 ACCEL_TO_DECEL=2500
;TYPE:Inner wall
;WIDTH:0.45
G1 F4800
G1 X110.593 Y121.907 E.50859
G1 X110.593 Y108.093 E.50859
G1 X124.407 Y108.093 E.50859
G1 X124.407 Y121.867 E.50712
SET_VELOCITY_LIMIT ACCEL=10000 ACCEL_TO_DECEL=5000
G1 X124.008 Y121.508 F18000
SET_VELOCITY_LIMIT ACCEL=5000 ACCEL_TO_DECEL=2500
G1 F4800
G1 X110.992 Y121.508 E.47925
G1 X110.992 Y108.492 E.47925
G1 X124.008 Y108.492 E.47925
G1 X124.008 Y121.468 E.47777
SET_VELOCITY_LIMIT ACCEL=10000 ACCEL_TO_DECEL=5000
G1 X123.61 Y121.11 F18000
SET_VELOCITY_LIMIT ACCEL=5000 ACCEL_TO_DECEL=2500
G1 F4800
G1 X111.39 Y121.11 E.4499
G1 X111.39 Y108.89 E.4499
G1 X123.61 Y108.89 E.4499
G1 X123.61 Y121.07 E.44843
SET_VELOCITY_LIMIT ACCEL=10000 ACCEL_TO_DECEL=5000
G1 X123.211 Y120.711 F18000
SET_VELOCITY_LIMIT ACCEL=5000 ACCEL_TO_DECEL=2500
G1 F4800
G1 X111.789 Y120.711 E.42056
G1 X111.789 Y109.289 E.42056
G1 X123.211 Y109.289 E.42056
G1 X123.211 Y120.671 E.41908
SET_VELOCITY_LIMIT ACCEL=10000 ACCEL_TO_DECEL=5000
G1 X123.051 Y109.628 F18000
SET_VELOCITY_LIMIT ACCEL=5000 ACCEL_TO_DECEL=2500
;TYPE:Internal solid infill
;WIDTH:0.449418
G1 F4800
G1 X112.123 Y109.628 E.40178
G1 X112.123 Y110.026 E.01463
G1 X122.877 Y110.026 E.39535
G1 X122.877 Y110.424 E.01463
G1 X112.123 Y110.424 E.39535
G1 X112.123 Y110.822 E.01463
G1 X122.877 Y110.822 E.39535
G1 X122.877 Y111.22 E.01463
G1 X112.123 Y111.22 E.39535
G1 X112.123 Y111.618 E.01463
G1 X122.877 Y111.618 E.39535
G1 X122.877 Y112.016 E.01463
G1 X112.123 Y112.016 E.39535
G1 X112.123 Y112.414 E.01463
G1 X122.877 Y112.414 E.39535
G1 X122.877 Y112.812 E.01463
G1 X112.123 Y112.812 E.39535
G1 X112.123 Y113.209 E.01463
G1 X122.877 Y113.209 E.39535
G1 X122.877 Y113.607 E.01463
G1 X112.123 Y113.607 E.39535
G1 X112.123 Y114.005 E.01463
G1 X122.877 Y114.005 E.39535
G1 X122.877 Y114.403 E.01463
G1 X112.123 Y114.403 E.39535
G1 X112.123 Y114.801 E.01463
G1 X122.877 Y114.801 E.39535
G1 X122.877 Y115.199 E.01463
G1 X112.123 Y115.199 E.39535
G1 X112.123 Y115.597 E.01463
G1 X122.877 Y115.597 E.39535
G1 X122.877 Y115.995 E.01463
G1 X112.123 Y115.995 E.39535
G1 X112.123 Y116.393 E.01463
G1 X122.877 Y116.393 E.39535
G1 X122.877 Y116.791 E.01463
G1 X112.123 Y116.791 E.39535
G1 X112.123 Y117.189 E.01463
G1 X122.877 Y117.189 E.39535
G1 X122.877 Y117.586 E.01463
G1 X112.123 Y117.586 E.39535
G1 X112.123 Y117.984 E.01463
G1 X122.877 Y117.984 E.39535
G1 X122.877 Y118.382 E.01463
G1 X112.123 Y118.382 E.39535
G1 X112.123 Y118.78 E.01463
G1 X122.877 Y118.78 E.39535
G1 X122.877 Y119.178 E.01463
G1 X112.123 Y119.178 E.39535
G1 X112.123 Y119.576 E.01463
G1 X122.877 Y119.576 E.39535
G1 X122.877 Y119.974 E.01463
G1 X112.123 Y119.974 E.39535
G1 X112.123 Y120.372 E.01463
G1 X123.051 Y120.372 E.40178
; stop printing object monolayer l id:0 copy 0
M106 S189
;LAYER_CHANGE
;Z:0.96
;HEIGHT:0.24
; BEFORE_LAYER_CHANGE 3 @ 0.96mm
G1 E-.3 F2400
;WIPE_START
G1 F4800
G1 X122.051 Y120.372 E-.5
;WIPE_END
EXCLUDE_OBJECT_END NAME=monolayer_l_id_0_copy_0
; AFTER_LAYER_CHANGE 3 @ 0.96mm
;_SET_FAN_SPEED_CHANGING_LAYER
; printing object monolayer l id:0 copy 0
SET_VELOCITY_LIMIT ACCEL=10000 ACCEL_TO_DECEL=5000
EXCLUDE_OBJECT_START NAME=monolayer_l_id_0_copy_0
G1 X124.79 Y122.29 Z1.36 F18000
G1 Z.96
G1 E.8 F2400
SET_VELOCITY_LIMIT ACCEL=5000 ACCEL_TO_DECEL=2500
;TYPE:Outer wall
;WIDTH:0.42
G1 F3600
G1 X110.21 Y122.29 E.49642
G1 X110.21 Y107.71 E.49642
G1 X124.79 Y107.71 E.49642
G1 X124.79 Y122.25 E.49505
SET_VELOCITY_LIMIT ACCEL=10000 ACCEL_TO_DECEL=5000
G1 X124.407 Y121.907 F18000
SET_VELOCITY_LIMIT ACCEL=5000 ACCEL_TO_DECEL=2500
;TYPE:Inner wall
;WIDTH:0.45
G1 F4800
G1 X110.593 Y121.907 E.50859
G1 X110.593 Y108.093 E.50859
G1 X124.407 Y108.093 E.50859
G1 X124.407 Y121.867 E.50712
SET_VELOCITY_LIMIT ACCEL=10000 ACCEL_TO_DECEL=5000
G1 X124.008 Y121.508 F18000
SET_VELOCITY_LIMIT ACCEL=5000 ACCEL_TO_DECEL=2500
G1 F4800
G1 X110.992 Y121.508 E.47925
G1 X110.992 Y108.492 E.47925
G1 X124.008 Y108.492 E.47925
G1 X124.008 Y121.468 E.47777
SET_VELOCITY_LIMIT ACCEL=10000 ACCEL_TO_DECEL=5000
G1 X123.61 Y121.11 F18000
SET_VELOCITY_LIMIT ACCEL=5000 ACCEL_TO_DECEL=2500
G1 F4800
G1 X111.39 Y121.11 E.4499
G1 X111.39 Y108.89 E.4499
G1 X123.61 Y108.89 E.4499
G1 X123.61 Y121.07 E.44843
SET_VELOCITY_LIMIT ACCEL=10000 ACCEL_TO_DECEL=5000
G1 X123.211 Y120.711 F18000
SET_VELOCITY_LIMIT ACCEL=5000 ACCEL_TO_DECEL=2500
G1 F4800
G1 X111.789 Y120.711 E.42056
G1 X111.789 Y109.289 E.42056
G1 X123.211 Y109.289 E.42056
G1 X123.211 Y120.671 E.41908
SET_VELOCITY_LIMIT ACCEL=10000 ACCEL_TO_DECEL=5000
G1 X116.121 Y120.377 F18000
;TYPE:Sparse infill
;WIDTH:0.44
G1 F4800
G1 X117.41 Y120.377 E.04628
G1 X112.123 Y115.09 E.26835
G1 X112.123 Y113.607 E.05325
G1 X118.893 Y120.377 E.34366
G1 X120.377 Y120.377 E.05325
G1 X112.123 Y112.123 E.41896
G1 X112.123 Y110.64 E.05325
G1 X121.86 Y120.377 E.49427
G1 X122.877 Y120.377 E.03649
G1 X122.877 Y119.91 E.01676
G1 X112.59 Y109.623 E.52217
G1 X114.074 Y109.623 E.05325
G1 X122.877 Y118.426 E.44687
G1 X122.877 Y116.943 E.05325
G1 X115.557 Y109.623 E.37156
G1 X117.041 Y109.623 E.05325
G1 X122.877 Y115.459 E.29626
G1 X122.877 Y113.976 E.05325
G1 X118.524 Y109.623 E.22095
G1 X120.007 Y109.623 E.05325
G1 X122.877 Y112.493 E.14565
G1 X122.877 Y111.009 E.05325
G1 X121.491 Y109.623 E.07035
G1 X122.877 Y109.623 E.04974
G1 X122.877 Y109.792 E.00604
G1 X112.123 Y115.285 F18000
G1 F4800
G1 X112.123 Y116.574 E.04628
G1 X115.926 Y120.377 E.19305
G1 X114.443 Y120.377 E.05325
G1 X112.123 Y118.057 E.11774
G1 X112.123 Y119.541 E.05325
G1 X112.959 Y120.377 E.04244
G1 X112.123 Y120.377 E.03001
G1 X112.123 Y119.735 E.02304
; stop printing object monolayer l id:0 copy 0
;LAYER_CHANGE
;Z:1.2
;HEIGHT:0.24
; BEFORE_LAYER_CHANGE 4 @ 1.2mm
G1 E-.3 F2400
;WIPE_START
G1 F4800
G1 X112.123 Y120.377 E-.32087
G1 X112.482 Y120.377 E-.17913
;WIPE_END
EXCLUDE_OBJECT_END NAME=monolayer_l_id_0_copy_0
; AFTER_LAYER_CHANGE 4 @ 1.2mm
;_SET_FAN_SPEED_CHANGING_LAYER
; printing object monolayer l id:0 copy 0
EXCLUDE_OBJECT_START NAME=monolayer_l_id_0_copy_0
G1 X120.024 Y121.549 Z1.6 F18000
G1 X124.79 Y122.29 Z1.6
G1 Z1.2
G1 E.8 F2400
SET_VELOCITY_LIMIT ACCEL=5000 ACCEL_TO_DECEL=2500
;TYPE:Outer wall
;WIDTH:0.42
G1 F3600
G1 X110.21 Y122.29 E.49642
G1 X110.21 Y107.71 E.49642
G1 X124.79 Y107.71 E.49642
G1 X124.79 Y122.25 E.49505
SET_VELOCITY_LIMIT ACCEL=10000 ACCEL_TO_DECEL=5000
G1 X124.407 Y121.907 F18000
SET_VELOCITY_LIMIT ACCEL=5000 ACCEL_TO_DECEL=2500
;TYPE:Inner wall
;WIDTH:0.45
G1 F4800
G1 X110.593 Y121.907 E.50859
G1 X110.593 Y108.093 E.50859
G1 X124.407 Y108.093 E.50859
G1 X124.407 Y121.867 E.50712
SET_VELOCITY_LIMIT ACCEL=10000 ACCEL_TO_DECEL=5000
G1 X124.008 Y121.508 F18000
SET_VELOCITY_LIMIT ACCEL=5000 ACCEL_TO_DECEL=2500
G1 F4800
G1 X110.992 Y121.508 E.47925
G1 X110.992 Y108.492 E.47925
G1 X124.008 Y108.492 E.47925
G1 X124.008 Y121.468 E.47777
SET_VELOCITY_LIMIT ACCEL=10000 ACCEL_TO_DECEL=5000
G1 X123.61 Y121.11 F18000
SET_VELOCITY_LIMIT ACCEL=5000 ACCEL_TO_DECEL=2500
G1 F4800
G1 X111.39 Y121.11 E.4499
G1 X111.39 Y108.89 E.4499
G1 X123.61 Y108.89 E.4499
G1 X123.61 Y121.07 E.44843
SET_VELOCITY_LIMIT ACCEL=10000 ACCEL_TO_DECEL=5000
G1 X123.211 Y120.711 F18000
