; HEADER_BLOCK_START
; generated by OrcaSlicer-WaveOverhangs 2.4.0-dev on 2026-04-30 at 14:41:55
; WAVE_OVERHANG_BUILD wave_overhangs_version=0.3.0 orca_base=2.4.0-dev
; WAVE_OVERHANG_CONFIG region=0 algo=andersons outer_perim=1 spacing=0.390 flow_mm3_per_mm=0.220 speed=2.0 travel=40.0 fan=100 floor_layers=2 min_angle=0.0 min_length=0.00 max_iterations=0 ring_overlap=0.15 pattern=zigzag spacing_mode=uniform seam_mode=alternating perimeter_overlap=0.10 minimum_wave_width=0.70 min_new_area=0.0100 corner_enable=0 corner_spacing=0.000 corner_taper=0.00 corner_angle=90 end_retract=0.00 nozzle_temp_override=0 min_wave_time=0.00 min_layer_time=0.00 wall_loops=2 top_shell_layers=5 bottom_shell_layers=4 infill_density=15 infill_pattern=rectilinear support_remainder=1 instead_of_bridges=0
; total layer number: 43
; filament_density: 1.24
; filament_diameter: 1.75
; max_z_height: 10.28
; filament: 1
; HEADER_BLOCK_END

; THUMBNAIL_BLOCK_START

;
; THUMBNAIL_BLOCK_END

; external perimeters extrusion width = 0.42mm
; perimeters extrusion width = 0.45mm
; infill extrusion width = 0.44mm
; solid infill extrusion width = 0.44mm
; top infill extrusion width = 0.38mm
; first layer extrusion width = 0.42mm

; EXECUTABLE_BLOCK_START
EXCLUDE_OBJECT_DEFINE NAME=monolayer_l_id_0_copy_0 CENTER=125,125 POLYGON=[[110,107.5],[125,107.5],[140,127.5],[140,142.5],[110,142.5],[110,107.5]]
M106 S0
M106 P2 S0
;TYPE:Custom
G9111 bedTemp=55 extruderTemp=200
M117
G90
G21
M83 ; use relative distances for extrusion
; Filament gcode
M106 S0
M106 P2 S0
;LAYER_CHANGE
;Z:0.2
;HEIGHT:0.2
; BEFORE_LAYER_CHANGE 0 @ 0.2mm
G1 E-.8 F2400
; AFTER_LAYER_CHANGE 0 @ 0.2mm
;_SET_FAN_SPEED_CHANGING_LAYER
SET_VELOCITY_LIMIT ACCEL=2000 ACCEL_TO_DECEL=1000
; printing object monolayer l id:0 copy 0
EXCLUDE_OBJECT_START NAME=monolayer_l_id_0_copy_0
G1 X124.59 Y122.09 F24000
G1 Z.2
G1 Z.2
G1 E.8 F2400
;TYPE:Outer wall
;WIDTH:0.419999
G1 F4800
G1 X110.41 Y122.09 E.43571
G1 X110.41 Y107.91 E.43571
G1 X124.59 Y107.91 E.43571
G1 X124.59 Y122.05 E.43448
G1 X124.213 Y121.713 F24000
;TYPE:Inner wall
G1 F4800
G1 X110.787 Y121.713 E.41254
G1 X110.787 Y108.287 E.41254
G1 X124.213 Y108.287 E.41254
G1 X124.213 Y121.673 E.41131
G1 E-.3 F2400
;WIPE_START
G1 F4800
G1 X123.213 Y121.676 E-.5
;WIPE_END
G1 X124.1 Y108.571 F24000
G1 E.8 F2400
;TYPE:Bottom surface
;WIDTH:0.421128
G1 F7200
G1 X111.07 Y108.571 E.40157
G1 X111.07 Y108.949 E.01166
G1 X123.93 Y108.949 E.39634
G1 X123.93 Y109.327 E.01166
G1 X111.07 Y109.327 E.39634
G1 X111.07 Y109.705 E.01166
G1 X123.93 Y109.705 E.39634
G1 X123.93 Y110.083 E.01166
G1 X111.07 Y110.083 E.39634
G1 X111.07 Y110.462 E.01166
G1 X123.93 Y110.462 E.39634
G1 X123.93 Y110.84 E.01166
G1 X111.07 Y110.84 E.39634
G1 X111.07 Y111.218 E.01166
G1 X123.93 Y111.218 E.39634
G1 X123.93 Y111.596 E.01166
G1 X111.07 Y111.596 E.39634
G1 X111.07 Y111.974 E.01166
G1 X123.93 Y111.974 E.39634
G1 X123.93 Y112.353 E.01166
G1 X111.07 Y112.353 E.39634
G1 X111.07 Y112.731 E.01166
G1 X123.93 Y112.731 E.39634
G1 X123.93 Y113.109 E.01166
G1 X111.07 Y113.109 E.39634
G1 X111.07 Y113.487 E.01166
G1 X123.93 Y113.487 E.39634
G1 X123.93 Y113.865 E.01166
G1 X111.07 Y113.865 E.39634
G1 X111.07 Y114.244 E.01166
G1 X123.93 Y114.244 E.39634
G1 X123.93 Y114.622 E.01166
G1 X111.07 Y114.622 E.39634
G1 X111.07 Y115 E.01166
G1 X123.93 Y115 E.39634
G1 X123.93 Y115.378 E.01166
G1 X111.07 Y115.378 E.39634
G1 X111.07 Y115.756 E.01166
G1 X123.93 Y115.756 E.39634
G1 X123.93 Y116.135 E.01166
G1 X111.07 Y116.135 E.39634
G1 X111.07 Y116.513 E.01166
G1 X123.93 Y116.513 E.39634
G1 X123.93 Y116.891 E.01166
G1 X111.07 Y116.891 E.39634
G1 X111.07 Y117.269 E.01166
G1 X123.93 Y117.269 E.39634
G1 X123.93 Y117.647 E.01166
G1 X111.07 Y117.647 E.39634
G1 X111.07 Y118.026 E.01166
G1 X123.93 Y118.026 E.39634
G1 X123.93 Y118.404 E.01166
G1 X111.07 Y118.404 E.39634
G1 X111.07 Y118.782 E.01166
G1 X123.93 Y118.782 E.39634
G1 X123.93 Y119.16 E.01166
G1 X111.07 Y119.16 E.39634
G1 X111.07 Y119.539 E.01166
G1 X123.93 Y119.539 E.39634
G1 X123.93 Y119.917 E.01166
G1 X111.07 Y119.917 E.39634
G1 X111.07 Y120.295 E.01166
G1 X123.93 Y120.295 E.39634
G1 X123.93 Y120.673 E.01166
G1 X111.07 Y120.673 E.39634
G1 X111.07 Y121.051 E.01166
G1 X123.93 Y121.051 E.39634
G1 X123.93 Y121.43 E.01166
G1 X110.9 Y121.43 E.40157
; stop printing object monolayer l id:0 copy 0
M106 S255
M106 P2 S178
;LAYER_CHANGE
;Z:0.44
;HEIGHT:0.24
; BEFORE_LAYER_CHANGE 1 @ 0.44mm
G1 E-.46667 F2400
;WIPE_START
G1 F7200
G1 X111.9 Y121.43 E-.33333
;WIPE_END
EXCLUDE_OBJECT_END NAME=monolayer_l_id_0_copy_0
; AFTER_LAYER_CHANGE 1 @ 0.44mm
;_SET_FAN_SPEED_CHANGING_LAYER
SET_VELOCITY_LIMIT ACCEL=10000 ACCEL_TO_DECEL=5000
M140 S55 ; set bed temperature
; printing object monolayer l id:0 copy 0
EXCLUDE_OBJECT_START NAME=monolayer_l_id_0_copy_0
G1 X119.516 Y121.938 Z.84 F24000
G1 X124.79 Y122.29 Z.84
G1 Z.44
G1 E.8 F2400
;TYPE:Outer wall
;WIDTH:0.419999
G1 F8307.371
G1 X110.21 Y122.29 E.52536
G1 X110.21 Y107.71 E.52536
G1 X124.79 Y107.71 E.52536
G1 X124.79 Y122.25 E.52392
G1 X124.407 Y121.907 F24000
;TYPE:Inner wall
;WIDTH:0.449999
G1 F7681.965
G1 X110.593 Y121.907 E.53825
G1 X110.593 Y108.093 E.53825
G1 X124.407 Y108.093 E.53825
G1 X124.407 Y121.867 E.53669
G1 X124.049 Y121.728 F24000
;TYPE:Internal solid infill
;WIDTH:0.448392
G1 F7713.07
G1 X124.049 Y108.447 E.51541
G1 X123.652 Y108.447 E.0154
G1 X123.652 Y121.553 E.50863
G1 X123.255 Y121.553 E.0154
G1 X123.255 Y108.447 E.50863
G1 X122.858 Y108.447 E.0154
G1 X122.858 Y121.553 E.50863
G1 X122.461 Y121.553 E.0154
G1 X122.461 Y108.447 E.50863
G1 X122.064 Y108.447 E.0154
G1 X122.064 Y121.553 E.50863
G1 X121.667 Y121.553 E.0154
G1 X121.667 Y108.447 E.50863
G1 X121.27 Y108.447 E.0154
G1 X121.27 Y121.553 E.50863
G1 X120.874 Y121.553 E.0154
G1 X120.874 Y108.447 E.50863
G1 X120.477 Y108.447 E.0154
G1 X120.477 Y121.553 E.50863
G1 X120.08 Y121.553 E.0154
G1 X120.08 Y108.447 E.50863
G1 X119.683 Y108.447 E.0154
G1 X119.683 Y121.553 E.50863
G1 X119.286 Y121.553 E.0154
G1 X119.286 Y108.447 E.50863
G1 X118.889 Y108.447 E.0154
G1 X118.889 Y121.553 E.50863
G1 X118.492 Y121.553 E.0154
G1 X118.492 Y108.447 E.50863
G1 X118.095 Y108.447 E.0154
G1 X118.095 Y121.553 E.50863
G1 X117.698 Y121.553 E.0154
G1 X117.698 Y108.447 E.50863
G1 X117.302 Y108.447 E.0154
G1 X117.302 Y121.553 E.50863
G1 X116.905 Y121.553 E.0154
G1 X116.905 Y108.447 E.50863
G1 X116.508 Y108.447 E.0154
G1 X116.508 Y121.553 E.50863
G1 X116.111 Y121.553 E.0154
G1 X116.111 Y108.447 E.50863
G1 X115.714 Y108.447 E.0154
G1 X115.714 Y121.553 E.50863
G1 X115.317 Y121.553 E.0154
G1 X115.317 Y108.447 E.50863
G1 X114.92 Y108.447 E.0154
G1 X114.92 Y121.553 E.50863
G1 X114.523 Y121.553 E.0154
G1 X114.523 Y108.447 E.50863
G1 X114.126 Y108.447 E.0154
G1 X114.126 Y121.553 E.50863
G1 X113.73 Y121.553 E.0154
G1 X113.73 Y108.447 E.50863
G1 X113.333 Y108.447 E.0154
G1 X113.333 Y121.553 E.50863
G1 X112.936 Y121.553 E.0154
G1 X112.936 Y108.447 E.50863
G1 X112.539 Y108.447 E.0154
G1 X112.539 Y121.553 E.50863
G1 X112.142 Y121.553 E.0154
G1 X112.142 Y108.447 E.50863
G1 X111.745 Y108.447 E.0154
G1 X111.745 Y121.553 E.50863
G1 X111.348 Y121.553 E.0154
G1 X111.348 Y108.447 E.50863
G1 X110.951 Y108.447 E.0154
G1 X110.951 Y121.728 E.51541
; stop printing object monolayer l id:0 copy 0
;LAYER_CHANGE
;Z:0.68
;HEIGHT:0.24
; BEFORE_LAYER_CHANGE 2 @ 0.68mm
G1 E-.48884 F2400
;WIPE_START
G1 F7713.07
G1 X110.951 Y120.728 E-.31116
;WIPE_END
EXCLUDE_OBJECT_END NAME=monolayer_l_id_0_copy_0
; AFTER_LAYER_CHANGE 2 @ 0.68mm
;_SET_FAN_SPEED_CHANGING_LAYER
; printing object monolayer l id:0 copy 0
EXCLUDE_OBJECT_START NAME=monolayer_l_id_0_copy_0
G1 X118.536 Y121.584 Z1.08 F24000
G1 X124.79 Y122.29 Z1.08
G1 Z.68
G1 E.8 F2400
;TYPE:Outer wall
;WIDTH:0.419999
G1 F8280
G1 F8307.371
G1 X110.21 Y122.29 E.52536
G1 X110.21 Y107.71 E.52536
G1 X124.79 Y107.71 E.52536
G1 X124.79 Y122.25 E.52392
G1 X124.407 Y121.907 F24000
;TYPE:Inner wall
;WIDTH:0.449999
G1 F7681.965
G1 X110.593 Y121.907 E.53825
G1 X110.593 Y108.093 E.53825
G1 X124.407 Y108.093 E.53825
G1 X124.407 Y121.867 E.53669
G1 X124.228 Y108.451 F24000
;TYPE:Internal solid infill
;WIDTH:0.448392
G1 F7713.07
G1 X110.947 Y108.451 E.51541
G1 X110.947 Y108.848 E.0154
G1 X124.053 Y108.848 E.50863
G1 X124.053 Y109.245 E.0154
G1 X110.947 Y109.245 E.50863
G1 X110.947 Y109.642 E.0154
G1 X124.053 Y109.642 E.50863
G1 X124.053 Y110.039 E.0154
G1 X110.947 Y110.039 E.50863
G1 X110.947 Y110.436 E.0154
G1 X124.053 Y110.436 E.50863
G1 X124.053 Y110.833 E.0154
G1 X110.947 Y110.833 E.50863
G1 X110.947 Y111.23 E.0154
G1 X124.053 Y111.23 E.50863
G1 X124.053 Y111.626 E.0154
G1 X110.947 Y111.626 E.50863
G1 X110.947 Y112.023 E.0154
G1 X124.053 Y112.023 E.50863
G1 X124.053 Y112.42 E.0154
G1 X110.947 Y112.42 E.50863
G1 X110.947 Y112.817 E.0154
G1 X124.053 Y112.817 E.50863
G1 X124.053 Y113.214 E.0154
G1 X110.947 Y113.214 E.50863
G1 X110.947 Y113.611 E.0154
G1 X124.053 Y113.611 E.50863
G1 X124.053 Y114.008 E.0154
G1 X110.947 Y114.008 E.50863
G1 X110.947 Y114.405 E.0154
G1 X124.053 Y114.405 E.50863
G1 X124.053 Y114.802 E.0154
G1 X110.947 Y114.802 E.50863
G1 X110.947 Y115.198 E.0154
G1 X124.053 Y115.198 E.50863
G1 X124.053 Y115.595 E.0154
G1 X110.947 Y115.595 E.50863
G1 X110.947 Y115.992 E.0154
G1 X124.053 Y115.992 E.50863
G1 X124.053 Y116.389 E.0154
G1 X110.947 Y116.389 E.50863
G1 X110.947 Y116.786 E.0154
G1 X124.053 Y116.786 E.50863
G1 X124.053 Y117.183 E.0154
G1 X110.947 Y117.183 E.50863
G1 X110.947 Y117.58 E.0154
G1 X124.053 Y117.58 E.50863
G1 X124.053 Y117.977 E.0154
G1 X110.947 Y117.977 E.50863
G1 X110.947 Y118.374 E.0154
G1 X124.053 Y118.374 E.50863
G1 X124.053 Y118.77 E.0154
G1 X110.947 Y118.77 E.50863
G1 X110.947 Y119.167 E.0154
G1 X124.053 Y119.167 E.50863
G1 X124.053 Y119.564 E.0154
G1 X110.947 Y119.564 E.50863
G1 X110.947 Y119.961 E.0154
G1 X124.053 Y119.961 E.50863
G1 X124.053 Y120.358 E.0154
G1 X110.947 Y120.358 E.50863
G1 X110.947 Y120.755 E.0154
G1 X124.053 Y120.755 E.50863
G1 X124.053 Y121.152 E.0154
G1 X110.947 Y121.152 E.50863
G1 X110.947 Y121.549 E.0154
G1 X124.228 Y121.549 E.51541
; stop printing object monolayer l id:0 copy 0
;LAYER_CHANGE
;Z:0.92
;HEIGHT:0.24
; BEFORE_LAYER_CHANGE 3 @ 0.92mm
G1 E-.48884 F2400
;WIPE_START
G1 F7713.07
G1 X123.228 Y121.549 E-.31116
;WIPE_END
EXCLUDE_OBJECT_END NAME=monolayer_l_id_0_copy_0
; AFTER_LAYER_CHANGE 3 @ 0.92mm
;_SET_FAN_SPEED_CHANGING_LAYER
; printing object monolayer l id:0 copy 0
EXCLUDE_OBJECT_START NAME=monolayer_l_id_0_copy_0
G1 X124.79 Y122.29 Z1.32 F24000
G1 Z.92
G1 E.8 F2400
;TYPE:Outer wall
;WIDTH:0.419999
G1 F8307.371
G1 X110.21 Y122.29 E.52536
G1 X110.21 Y107.71 E.52536
G1 X124.79 Y107.71 E.52536
G1 X124.79 Y122.25 E.52392
G1 X124.407 Y121.907 F24000
;TYPE:Inner wall
;WIDTH:0.449999
G1 F7681.965
G1 X110.593 Y121.907 E.53825
G1 X110.593 Y108.093 E.53825
G1 X124.407 Y108.093 E.53825
G1 X124.407 Y121.867 E.53669
G1 X124.049 Y121.728 F24000
;TYPE:Internal solid infill
;WIDTH:0.448392
G1 F7713.07
G1 X124.049 Y108.447 E.51541
G1 X123.652 Y108.447 E.0154
G1 X123.652 Y121.553 E.50863
G1 X123.255 Y121.553 E.0154
G1 X123.255 Y108.447 E.50863
G1 X122.858 Y108.447 E.0154
G1 X122.858 Y121.553 E.50863
G1 X122.461 Y121.553 E.0154
G1 X122.461 Y108.447 E.50863
G1 X122.064 Y108.447 E.0154
G1 X122.064 Y121.553 E.50863
G1 X121.667 Y121.553 E.0154
G1 X121.667 Y108.447 E.50863
G1 X121.27 Y108.447 E.0154
G1 X121.27 Y121.553 E.50863
G1 X120.874 Y121.553 E.0154
G1 X120.874 Y108.447 E.50863
G1 X120.477 Y108.447 E.0154
G1 X120.477 Y121.553 E.50863
G1 X120.08 Y121.553 E.0154
G1 X120.08 Y108.447 E.50863
G1 X119.683 Y108.447 E.0154
G1 X119.683 Y121.553 E.50863
G1 X119.286 Y121.553 E.0154
G1 X119.286 Y108.447 E.50863
G1 X118.889 Y108.447 E.0154
G1 X118.889 Y121.553 E.50863
G1 X118.492 Y121.553 E.0154
G1 X118.492 Y108.447 E.50863
G1 X118.095 Y108.447 E.0154
G1 X118.095 Y121.553 E.50863
G1 X117.698 Y121.553 E.0154
G1 X117.698 Y108.447 E.50863
G1 X117.302 Y108.447 E.0154
G1 X117.302 Y121.553 E.50863
G1 X116.905 Y121.553 E.0154
G1 X116.905 Y108.447 E.50863
G1 X116.508 Y108.447 E.0154
G1 X116.508 Y121.553 E.50863
G1 X116.111 Y121.553 E.0154
G1 X116.111 Y108.447 E.50863
G1 X115.714 Y108.447 E.0154
G1 X115.714 Y121.553 E.50863
G1 X115.317 Y121.553 E.0154
G1 X115.317 Y108.447 E.50863
G1 X114.92 Y108.447 E.0154
G1 X114.92 Y121.553 E.50863
G1 X114.523 Y121.553 E.0154
G1 X114.523 Y108.447 E.50863
G1 X114.126 Y108.447 E.0154
G1 X114.126 Y121.553 E.50863
G1 X113.73 Y121.553 E.0154
G1 X113.73 Y108.447 E.50863
G1 X113.333 Y108.447 E.0154
G1 X113.333 Y121.553 E.50863
G1 X112.936 Y121.553 E.0154
G1 X112.936 Y108.447 E.50863
G1 X112.539 Y108.447 E.0154
G1 X112.539 Y121.553 E.50863
G1 X112.142 Y121.553 E.0154
G1 X112.142 Y108.447 E.50863
G1 X111.745 Y108.447 E.0154
G1 X111.745 Y121.553 E.50863
G1 X111.348 Y121.553 E.0154
G1 X111.348 Y108.447 E.50863
G1 X110.951 Y108.447 E.0154
G1 X110.951 Y121.728 E.51541
; stop printing object monolayer l id:0 copy 0
;LAYER_CHANGE
;Z:1.16
;HEIGHT:0.24
; BEFORE_LAYER_CHANGE 4 @ 1.16mm
G1 E-.48884 F2400
;WIPE_START
G1 F7713.07
G1 X110.951 Y120.728 E-.31116
;WIPE_END
EXCLUDE_OBJECT_END NAME=monolayer_l_id_0_copy_0
; AFTER_LAYER_CHANGE 4 @ 1.16mm
;_SET_FAN_SPEED_CHANGING_LAYER
; printing object monolayer l id:0 copy 0
EXCLUDE_OBJECT_START NAME=monolayer_l_id_0_copy_0
G1 X118.536 Y121.584 Z1.56 F24000
G1 X124.79 Y122.29 Z1.56
G1 Z1.16
G1 E.8 F2400
;TYPE:Outer wall
;WIDTH:0.419999
G1 F3078
G1 X110.21 Y122.29 E.52536
G1 X110.21 Y107.71 E.52536
G1 X124.79 Y107.71 E.52536
G1 X124.79 Y122.25 E.52392
G1 X124.407 Y121.907 F24000
;TYPE:Inner wall
;WIDTH:0.449999
G1 F3078
G1 X110.593 Y121.907 E.53825
G1 X110.593 Y108.093 E.53825
G1 X124.407 Y108.093 E.53825
G1 X124.407 Y121.867 E.53669
G1 X124.228 Y109.577 F24000
;TYPE:Sparse infill
;WIDTH:0.44
G1 F3078
G1 X123.098 Y108.447 E.06068
G1 X119.435 Y108.447 E.13914
G1 X124.053 Y113.065 E.24807
G1 X124.053 Y116.727 E.13914
G1 X115.773 Y108.447 E.44485
G1 X112.11 Y108.447 E.13914
G1 X124.053 Y120.39 E.64163
G1 X124.053 Y121.553 E.04417
G1 X121.553 Y121.553 E.09497
G1 X110.947 Y110.947 E.56979
G1 X110.947 Y114.61 E.13914
G1 X117.89 Y121.553 E.37301
G1 X114.227 Y121.553 E.13914
G1 X110.772 Y118.098 E.18562
; stop printing object monolayer l id:0 copy 0
;LAYER_CHANGE
;Z:1.4
;HEIGHT:0.24
; BEFORE_LAYER_CHANGE 5 @ 1.4mm
G1 E-.49542 F2400
;WIPE_START
G1 F7879.69
G1 X111.479 Y118.805 E-.30458
;WIPE_END
EXCLUDE_OBJECT_END NAME=monolayer_l_id_0_copy_0
; AFTER_LAYER_CHANGE 5 @ 1.4mm
;_SET_FAN_SPEED_CHANGING_LAYER
; printing object monolayer l id:0 copy 0
EXCLUDE_OBJECT_START NAME=monolayer_l_id_0_copy_0
G1 X118.863 Y120.738 Z1.8 F24000
G1 X124.79 Y122.29 Z1.8
G1 Z1.4
G1 E.8 F2400
;TYPE:Outer wall
;WIDTH:0.419999
G1 F3068
G1 X110.21 Y122.29 E.52536
G1 X110.21 Y107.71 E.52536
G1 X124.79 Y107.71 E.52536
G1 X124.79 Y122.25 E.52392
G1 X124.407 Y121.907 F24000
;TYPE:Inner wall
;WIDTH:0.449999
G1 F3068
G1 X110.593 Y121.907 E.53825
G1 X110.593 Y108.093 E.53825
G1 X124.407 Y108.093 E.53825
G1 X124.407 Y121.867 E.53669
G1 X120.947 Y121.728 F24000
;TYPE:Sparse infill
;WIDTH:0.44
G1 F3068
G1 X124.053 Y118.622 E.16687
G1 X124.053 Y114.959 E.13914
G1 X117.459 Y121.553 E.35426
G1 X113.796 Y121.553 E.13914
G1 X124.053 Y111.296 E.55104
G1 X124.053 Y108.447 E.10823
G1 X123.239 Y108.447 E.03092
G1 X110.947 Y120.739 E.66037
G1 X110.947 Y117.076 E.13914
G1 X119.576 Y108.447 E.46359
G1 X115.913 Y108.447 E.13914
G1 X110.947 Y113.413 E.26681
G1 X110.947 Y109.751 E.13914
G1 X112.426 Y108.272 E.07943
; stop printing object monolayer l id:0 copy 0
;LAYER_CHANGE
;Z:1.64
;HEIGHT:0.24
; BEFORE_LAYER_CHANGE 6 @ 1.64mm
G1 E-.49542 F2400
;WIPE_START
G1 F7879.69
G1 X111.718 Y108.979 E-.30458
;WIPE_END
EXCLUDE_OBJECT_END NAME=monolayer_l_id_0_copy_0
; AFTER_LAYER_CHANGE 6 @ 1.64mm
;_SET_FAN_SPEED_CHANGING_LAYER
; printing object monolayer l id:0 copy 0
EXCLUDE_OBJECT_START NAME=monolayer_l_id_0_copy_0
G1 X117.066 Y114.425 Z2.04 F24000
G1 X124.79 Y122.29 Z2.04
G1 Z1.64
G1 E.8 F2400
;TYPE:Outer wall
;WIDTH:0.419999
G1 F3078
G1 X110.21 Y122.29 E.52536
G1 X110.21 Y107.71 E.52536
G1 X124.79 Y107.71 E.52536
G1 X124.79 Y122.25 E.52392
