; HEADER_BLOCK_START
; generated by OrcaSlicer-WaveOverhangs 2.4.0-dev on 2026-05-01 at 12:58:13
; WAVE_OVERHANG_BUILD wave_overhangs_version=0.3.0 orca_base=2.4.0-dev
; WAVE_OVERHANG_CONFIG region=0 algo=andersons outer_perim=1 spacing=0.460 flow_mm3_per_mm=0.200 speed=2.0 travel=40.0 fan=100 floor_layers=2 min_angle=0.0 min_length=0.00 max_iterations=0 ring_overlap=0.15 pattern=zigzag spacing_mode=uniform seam_mode=alternating perimeter_overlap=0.20 minimum_wave_width=0.70 min_new_area=0.0100 corner_enable=0 corner_spacing=0.000 corner_taper=0.00 corner_angle=90 end_retract=0.00 nozzle_temp_override=0 min_wave_time=4.00 min_layer_time=0.00 wall_loops=3 top_shell_layers=5 bottom_shell_layers=4 infill_density=15 infill_pattern=rectilinear support_remainder=1 instead_of_bridges=1
; total layer number: 92
; filament_density: 1.24
; filament_diameter: 1.75
; max_z_height: 22.04
; filament: 1
; HEADER_BLOCK_END

; THUMBNAIL_BLOCK_START

;
; THUMBNAIL_BLOCK_END

; external perimeters extrusion width = 0.42mm
; perimeters extrusion width = 0.45mm
; infill extrusion width = 0.44mm
; solid infill extrusion width = 0.44mm
; top infill extrusion width = 0.38mm
; first layer extrusion width = 0.42mm

; EXECUTABLE_BLOCK_START
EXCLUDE_OBJECT_DEFINE NAME=waveoverhangs-142-Test_Object_1.stl_id_0_copy_0 CENTER=125,125 POLYGON=[[103,119],[117,109],[137,109],[147,119],[147,129],[119.104,140.276],[118.106,140.591],[117.084,140.818],[116.046,140.954],[115,141],[113.954,140.954],[112.916,140.818],[111.894,140.591],[110.896,140.276],[109.929,139.876],[109,139.392],[108.117,138.83],[107.287,138.193],[106.515,137.485],[105.807,136.713],[105.17,135.883],[104.608,135],[104.124,134.071],[103.724,133.104],[103.409,132.106],[103.182,131.084],[103.046,130.046],[103,129],[103,119]]
M106 S0
M106 P2 S0
;TYPE:Custom
G9111 bedTemp=55 extruderTemp=210
M117
G90
G21
M83 ; use relative distances for extrusion
; Filament gcode
M106 S0
M106 P2 S0
;LAYER_CHANGE
;Z:0.2
;HEIGHT:0.2
; BEFORE_LAYER_CHANGE 0 @ 0.2mm
G1 E-.8 F2400
; AFTER_LAYER_CHANGE 0 @ 0.2mm
;_SET_FAN_SPEED_CHANGING_LAYER
SET_VELOCITY_LIMIT ACCEL=2000 ACCEL_TO_DECEL=1000
; printing object waveoverhangs-142-Test Object 1.stl id:0 copy 0
EXCLUDE_OBJECT_START NAME=waveoverhangs-142-Test_Object_1.stl_id_0_copy_0
G1 X129.09 Y116.91 F24000
G1 Z.2
G1 Z.2
G1 E.8 F2400
;TYPE:Outer wall
;WIDTH:0.419999
G1 F4800
G1 X129.09 Y131.09 E.43571
G1 X114.91 Y131.09 E.43571
G1 X114.91 Y116.91 E.43571
G1 X129.05 Y116.91 E.43448
G1 X128.713 Y117.287 F24000
;TYPE:Inner wall
G1 F4800
G1 X128.713 Y130.713 E.41254
G1 X115.287 Y130.713 E.41254
G1 X115.287 Y117.287 E.41254
G1 X128.673 Y117.287 E.41131
G1 X128.336 Y117.664 F24000
G1 F4800
G1 X128.336 Y130.336 E.38936
G1 X115.664 Y130.336 E.38936
G1 X115.664 Y117.664 E.38936
G1 X128.296 Y117.664 E.38814
G1 X128.223 Y117.948 F24000
;TYPE:Bottom surface
;WIDTH:0.421197
G1 F7200
G1 X115.947 Y117.948 E.3784
G1 X115.947 Y118.326 E.01166
G1 X128.053 Y118.326 E.37317
G1 X128.053 Y118.704 E.01166
G1 X115.947 Y118.704 E.37317
G1 X115.947 Y119.082 E.01166
G1 X128.053 Y119.082 E.37317
G1 X128.053 Y119.461 E.01166
G1 X115.947 Y119.461 E.37317
G1 X115.947 Y119.839 E.01166
G1 X128.053 Y119.839 E.37317
G1 X128.053 Y120.217 E.01166
G1 X115.947 Y120.217 E.37317
G1 X115.947 Y120.596 E.01166
G1 X128.053 Y120.596 E.37317
G1 X128.053 Y120.974 E.01166
G1 X115.947 Y120.974 E.37317
G1 X115.947 Y121.352 E.01166
G1 X128.053 Y121.352 E.37317
G1 X128.053 Y121.73 E.01166
G1 X115.947 Y121.73 E.37317
G1 X115.947 Y122.109 E.01166
G1 X128.053 Y122.109 E.37317
G1 X128.053 Y122.487 E.01166
G1 X115.947 Y122.487 E.37317
G1 X115.947 Y122.865 E.01166
G1 X128.053 Y122.865 E.37317
G1 X128.053 Y123.243 E.01166
G1 X115.947 Y123.243 E.37317
G1 X115.947 Y123.622 E.01166
G1 X128.053 Y123.622 E.37317
G1 X128.053 Y124 E.01166
G1 X115.947 Y124 E.37317
G1 X115.947 Y124.378 E.01166
G1 X128.053 Y124.378 E.37317
G1 X128.053 Y124.757 E.01166
G1 X115.947 Y124.757 E.37317
G1 X115.947 Y125.135 E.01166
G1 X128.053 Y125.135 E.37317
G1 X128.053 Y125.513 E.01166
G1 X115.947 Y125.513 E.37317
G1 X115.947 Y125.891 E.01166
G1 X128.053 Y125.891 E.37317
G1 X128.053 Y126.27 E.01166
G1 X115.947 Y126.27 E.37317
G1 X115.947 Y126.648 E.01166
G1 X128.053 Y126.648 E.37317
G1 X128.053 Y127.026 E.01166
G1 X115.947 Y127.026 E.37317
G1 X115.947 Y127.405 E.01166
G1 X128.053 Y127.405 E.37317
G1 X128.053 Y127.783 E.01166
G1 X115.947 Y127.783 E.37317
G1 X115.947 Y128.161 E.01166
G1 X128.053 Y128.161 E.37317
G1 X128.053 Y128.539 E.01166
G1 X115.947 Y128.539 E.37317
G1 X115.947 Y128.918 E.01166
G1 X128.053 Y128.918 E.37317
G1 X128.053 Y129.296 E.01166
G1 X115.947 Y129.296 E.37317
G1 X115.947 Y129.674 E.01166
G1 X128.053 Y129.674 E.37317
G1 X128.053 Y130.052 E.01166
G1 X115.777 Y130.052 E.3784
; stop printing object waveoverhangs-142-Test Object 1.stl id:0 copy 0
M106 S255
M106 P2 S178
;LAYER_CHANGE
;Z:0.44
;HEIGHT:0.24
; BEFORE_LAYER_CHANGE 1 @ 0.44mm
G1 E-.46667 F2400
;WIPE_START
G1 F7200
G1 X116.777 Y130.052 E-.33333
;WIPE_END
EXCLUDE_OBJECT_END NAME=waveoverhangs-142-Test_Object_1.stl_id_0_copy_0
; AFTER_LAYER_CHANGE 1 @ 0.44mm
;_SET_FAN_SPEED_CHANGING_LAYER
SET_VELOCITY_LIMIT ACCEL=10000 ACCEL_TO_DECEL=5000
M140 S55 ; set bed temperature
; printing object waveoverhangs-142-Test Object 1.stl id:0 copy 0
EXCLUDE_OBJECT_START NAME=waveoverhangs-142-Test_Object_1.stl_id_0_copy_0
G1 X121.998 Y124.485 Z.84 F24000
G1 X129.29 Y116.71 Z.84
G1 Z.44
G1 E.8 F2400
;TYPE:Outer wall
;WIDTH:0.419999
G1 F8307.371
G1 X129.29 Y131.29 E.52536
G1 X114.71 Y131.29 E.52536
G1 X114.71 Y116.71 E.52536
G1 X129.25 Y116.71 E.52392
G1 X128.907 Y117.093 F24000
;TYPE:Inner wall
;WIDTH:0.449999
G1 F7681.965
G1 X128.907 Y130.907 E.53825
G1 X115.093 Y130.907 E.53825
G1 X115.093 Y117.093 E.53825
G1 X128.867 Y117.093 E.53669
G1 X128.508 Y117.492 F24000
G1 F7681.965
G1 X128.508 Y130.508 E.50719
G1 X115.492 Y130.508 E.50719
G1 X115.492 Y117.492 E.50719
G1 X128.468 Y117.492 E.50563
G1 X128.15 Y130.329 F24000
;TYPE:Internal solid infill
;WIDTH:0.448292
G1 F7715.013
G1 X128.15 Y117.846 E.48436
G1 X127.753 Y117.846 E.0154
G1 X127.753 Y130.154 E.47758
G1 X127.357 Y130.154 E.0154
G1 X127.357 Y117.846 E.47758
G1 X126.96 Y117.846 E.0154
G1 X126.96 Y130.154 E.47758
G1 X126.563 Y130.154 E.0154
G1 X126.563 Y117.846 E.47758
G1 X126.166 Y117.846 E.0154
G1 X126.166 Y130.154 E.47758
G1 X125.769 Y130.154 E.0154
G1 X125.769 Y117.846 E.47758
G1 X125.373 Y117.846 E.0154
G1 X125.373 Y130.154 E.47758
G1 X124.976 Y130.154 E.0154
G1 X124.976 Y117.846 E.47758
G1 X124.579 Y117.846 E.0154
G1 X124.579 Y130.154 E.47758
G1 X124.182 Y130.154 E.0154
G1 X124.182 Y117.846 E.47758
G1 X123.786 Y117.846 E.0154
G1 X123.786 Y130.154 E.47758
G1 X123.389 Y130.154 E.0154
G1 X123.389 Y117.846 E.47758
G1 X122.992 Y117.846 E.0154
G1 X122.992 Y130.154 E.47758
G1 X122.595 Y130.154 E.0154
G1 X122.595 Y117.846 E.47758
G1 X122.198 Y117.846 E.0154
G1 X122.198 Y130.154 E.47758
G1 X121.802 Y130.154 E.0154
G1 X121.802 Y117.846 E.47758
G1 X121.405 Y117.846 E.0154
G1 X121.405 Y130.154 E.47758
G1 X121.008 Y130.154 E.0154
G1 X121.008 Y117.846 E.47758
G1 X120.611 Y117.846 E.0154
G1 X120.611 Y130.154 E.47758
G1 X120.214 Y130.154 E.0154
G1 X120.214 Y117.846 E.47758
G1 X119.818 Y117.846 E.0154
G1 X119.818 Y130.154 E.47758
G1 X119.421 Y130.154 E.0154
G1 X119.421 Y117.846 E.47758
G1 X119.024 Y117.846 E.0154
G1 X119.024 Y130.154 E.47758
G1 X118.627 Y130.154 E.0154
G1 X118.627 Y117.846 E.47758
G1 X118.23 Y117.846 E.0154
G1 X118.23 Y130.154 E.47758
G1 X117.834 Y130.154 E.0154
G1 X117.834 Y117.846 E.47758
G1 X117.437 Y117.846 E.0154
G1 X117.437 Y130.154 E.47758
G1 X117.04 Y130.154 E.0154
G1 X117.04 Y117.846 E.47758
G1 X116.643 Y117.846 E.0154
G1 X116.643 Y130.154 E.47758
G1 X116.247 Y130.154 E.0154
G1 X116.247 Y117.846 E.47758
G1 X115.85 Y117.846 E.0154
G1 X115.85 Y130.329 E.48436
; stop printing object waveoverhangs-142-Test Object 1.stl id:0 copy 0
;LAYER_CHANGE
;Z:0.68
;HEIGHT:0.24
; BEFORE_LAYER_CHANGE 2 @ 0.68mm
G1 E-.48892 F2400
;WIPE_START
G1 F7715.013
G1 X115.85 Y129.329 E-.31108
;WIPE_END
EXCLUDE_OBJECT_END NAME=waveoverhangs-142-Test_Object_1.stl_id_0_copy_0
; AFTER_LAYER_CHANGE 2 @ 0.68mm
;_SET_FAN_SPEED_CHANGING_LAYER
; printing object waveoverhangs-142-Test Object 1.stl id:0 copy 0
EXCLUDE_OBJECT_START NAME=waveoverhangs-142-Test_Object_1.stl_id_0_copy_0
G1 X121.414 Y124.105 Z1.08 F24000
G1 X129.29 Y116.71 Z1.08
G1 Z.68
G1 E.8 F2400
;TYPE:Outer wall
;WIDTH:0.419999
G1 F8307.371
G1 X129.29 Y131.29 E.52536
G1 X114.71 Y131.29 E.52536
G1 X114.71 Y116.71 E.52536
G1 X129.25 Y116.71 E.52392
G1 X128.907 Y117.093 F24000
;TYPE:Inner wall
;WIDTH:0.449999
G1 F7681.965
G1 X128.907 Y130.907 E.53825
G1 X115.093 Y130.907 E.53825
G1 X115.093 Y117.093 E.53825
G1 X128.867 Y117.093 E.53669
G1 X128.508 Y117.492 F24000
G1 F7681.965
G1 X128.508 Y130.508 E.50719
G1 X115.492 Y130.508 E.50719
G1 X115.492 Y117.492 E.50719
G1 X128.468 Y117.492 E.50563
G1 X128.329 Y117.85 F24000
;TYPE:Internal solid infill
;WIDTH:0.448292
G1 F7715.013
G1 X115.846 Y117.85 E.48436
G1 X115.846 Y118.247 E.0154
G1 X128.154 Y118.247 E.47758
G1 X128.154 Y118.643 E.0154
G1 X115.846 Y118.643 E.47758
G1 X115.846 Y119.04 E.0154
G1 X128.154 Y119.04 E.47758
G1 X128.154 Y119.437 E.0154
G1 X115.846 Y119.437 E.47758
G1 X115.846 Y119.834 E.0154
G1 X128.154 Y119.834 E.47758
G1 X128.154 Y120.231 E.0154
G1 X115.846 Y120.231 E.47758
G1 X115.846 Y120.627 E.0154
G1 X128.154 Y120.627 E.47758
G1 X128.154 Y121.024 E.0154
G1 X115.846 Y121.024 E.47758
G1 X115.846 Y121.421 E.0154
G1 X128.154 Y121.421 E.47758
G1 X128.154 Y121.818 E.0154
G1 X115.846 Y121.818 E.47758
G1 X115.846 Y122.215 E.0154
G1 X128.154 Y122.215 E.47758
G1 X128.154 Y122.611 E.0154
G1 X115.846 Y122.611 E.47758
G1 X115.846 Y123.008 E.0154
G1 X128.154 Y123.008 E.47758
G1 X128.154 Y123.405 E.0154
G1 X115.846 Y123.405 E.47758
G1 X115.846 Y123.802 E.0154
G1 X128.154 Y123.802 E.47758
G1 X128.154 Y124.198 E.0154
G1 X115.846 Y124.198 E.47758
G1 X115.846 Y124.595 E.0154
G1 X128.154 Y124.595 E.47758
G1 X128.154 Y124.992 E.0154
G1 X115.846 Y124.992 E.47758
G1 X115.846 Y125.389 E.0154
G1 X128.154 Y125.389 E.47758
G1 X128.154 Y125.786 E.0154
G1 X115.846 Y125.786 E.47758
G1 X115.846 Y126.182 E.0154
G1 X128.154 Y126.182 E.47758
G1 X128.154 Y126.579 E.0154
G1 X115.846 Y126.579 E.47758
G1 X115.846 Y126.976 E.0154
G1 X128.154 Y126.976 E.47758
G1 X128.154 Y127.373 E.0154
G1 X115.846 Y127.373 E.47758
G1 X115.846 Y127.77 E.0154
G1 X128.154 Y127.77 E.47758
G1 X128.154 Y128.166 E.0154
G1 X115.846 Y128.166 E.47758
G1 X115.846 Y128.563 E.0154
G1 X128.154 Y128.563 E.47758
G1 X128.154 Y128.96 E.0154
G1 X115.846 Y128.96 E.47758
G1 X115.846 Y129.357 E.0154
G1 X128.154 Y129.357 E.47758
G1 X128.154 Y129.753 E.0154
G1 X115.846 Y129.753 E.47758
G1 X115.846 Y130.15 E.0154
G1 X128.329 Y130.15 E.48436
; stop printing object waveoverhangs-142-Test Object 1.stl id:0 copy 0
;LAYER_CHANGE
;Z:0.92
;HEIGHT:0.24
; BEFORE_LAYER_CHANGE 3 @ 0.92mm
G1 E-.48892 F2400
;WIPE_START
G1 F7715.013
G1 X127.329 Y130.15 E-.31108
;WIPE_END
EXCLUDE_OBJECT_END NAME=waveoverhangs-142-Test_Object_1.stl_id_0_copy_0
; AFTER_LAYER_CHANGE 3 @ 0.92mm
;_SET_FAN_SPEED_CHANGING_LAYER
; printing object waveoverhangs-142-Test Object 1.stl id:0 copy 0
EXCLUDE_OBJECT_START NAME=waveoverhangs-142-Test_Object_1.stl_id_0_copy_0
G1 X128.431 Y122.598 Z1.32 F24000
G1 X129.29 Y116.71 Z1.32
G1 Z.92
G1 E.8 F2400
;TYPE:Outer wall
;WIDTH:0.419999
G1 F8307.371
G1 X129.29 Y131.29 E.52536
G1 X114.71 Y131.29 E.52536
G1 X114.71 Y116.71 E.52536
G1 X129.25 Y116.71 E.52392
G1 X128.907 Y117.093 F24000
;TYPE:Inner wall
;WIDTH:0.449999
G1 F7681.965
G1 X128.907 Y130.907 E.53825
G1 X115.093 Y130.907 E.53825
G1 X115.093 Y117.093 E.53825
G1 X128.867 Y117.093 E.53669
G1 X128.508 Y117.492 F24000
G1 F7681.965
G1 X128.508 Y130.508 E.50719
G1 X115.492 Y130.508 E.50719
G1 X115.492 Y117.492 E.50719
G1 X128.468 Y117.492 E.50563
G1 X128.182 Y117.668 F24000
;TYPE:Top surface
;WIDTH:0.385642
G1 F9161.558
G1 X128.182 Y130.332 E.41379
G1 X127.847 Y130.332 F24000
G1 F9161.558
G1 X127.847 Y117.668 E.41379
G1 X127.513 Y117.668 F24000
G1 F9161.558
G1 X127.513 Y130.332 E.41379
G1 X127.179 Y130.332 F24000
G1 F9161.558
G1 X127.179 Y117.668 E.41379
G1 X126.845 Y117.668 F24000
G1 F9161.558
G1 X126.845 Y130.332 E.41379
G1 X126.511 Y130.332 F24000
G1 F9161.558
G1 X126.511 Y117.668 E.41379
G1 X126.177 Y117.668 F24000
G1 F9161.558
G1 X126.177 Y130.332 E.41379
G1 X125.843 Y130.332 F24000
G1 F9161.558
G1 X125.843 Y117.668 E.41379
G1 X125.508 Y117.668 F24000
G1 F9161.558
G1 X125.508 Y130.332 E.41379
G1 X125.174 Y130.332 F24000
G1 F9161.558
G1 X125.174 Y117.668 E.41379
G1 X124.84 Y117.668 F24000
G1 F9161.558
G1 X124.84 Y120.929 E.10655
G1 X124.506 Y120.929 F24000
G1 F9161.558
G1 X124.506 Y117.668 E.10655
G1 X124.172 Y117.668 F24000
G1 F9161.558
G1 X124.172 Y120.929 E.10655
G1 X123.838 Y120.929 F24000
G1 F9161.558
G1 X123.838 Y117.668 E.10655
G1 X123.504 Y117.668 F24000
G1 F9161.558
G1 X123.504 Y120.929 E.10655
G1 X123.169 Y120.929 F24000
G1 F9161.558
G1 X123.169 Y117.668 E.10655
G1 X122.835 Y117.668 F24000
G1 F9161.558
G1 X122.835 Y120.929 E.10655
G1 X122.501 Y120.929 F24000
G1 F9161.558
G1 X122.501 Y117.668 E.10655
G1 X122.167 Y117.668 F24000
G1 F9161.558
G1 X122.167 Y120.929 E.10655
G1 X121.833 Y120.929 F24000
G1 F9161.558
G1 X121.833 Y117.668 E.10655
G1 X121.499 Y117.668 F24000
G1 F9161.558
G1 X121.499 Y120.929 E.10655
G1 X121.165 Y120.929 F24000
G1 F9161.558
G1 X121.165 Y117.668 E.10655
G1 X120.83 Y117.668 F24000
G1 F9161.558
G1 X120.83 Y120.929 E.10655
G1 X120.496 Y120.929 F24000
G1 F9161.558
G1 X120.496 Y117.668 E.10655
G1 X120.162 Y117.668 F24000
G1 F9161.558
G1 X120.162 Y120.929 E.10655
G1 X119.828 Y120.929 F24000
G1 F9161.558
G1 X119.828 Y117.668 E.10655
G1 X119.494 Y117.668 F24000
G1 F9161.558
G1 X119.494 Y120.929 E.10655
G1 X119.16 Y120.929 F24000
G1 F9161.558
G1 X119.16 Y117.668 E.10655
G1 E-.53804 F2400
;WIPE_START
G1 F9161.558
G1 X119.16 Y118.668 E-.26196
;WIPE_END
G1 X123.434 Y124.991 Z1.32 F24000
G1 X124.84 Y127.071 Z1.32
G1 Z.92
G1 E.8 F2400
G1 F9161.558
G1 X124.84 Y130.332 E.10655
G1 X124.506 Y130.332 F24000
G1 F9161.558
G1 X124.506 Y127.071 E.10655
G1 X124.172 Y127.071 F24000
G1 F9161.558
G1 X124.172 Y130.332 E.10655
G1 X123.838 Y130.332 F24000
G1 F9161.558
G1 X123.838 Y127.071 E.10655
G1 X123.504 Y127.071 F24000
G1 F9161.558
G1 X123.504 Y130.332 E.10655
G1 X123.169 Y130.332 F24000
G1 F9161.558
G1 X123.169 Y127.071 E.10655
G1 X122.835 Y127.071 F24000
G1 F9161.558
G1 X122.835 Y130.332 E.10655
G1 X122.501 Y130.332 F24000
G1 F9161.558
G1 X122.501 Y127.071 E.10655
G1 X122.167 Y127.071 F24000
G1 F9161.558
G1 X122.167 Y130.332 E.10655
G1 X121.833 Y130.332 F24000
G1 F9161.558
G1 X121.833 Y127.071 E.10655
G1 X121.499 Y127.071 F24000
G1 F9161.558
G1 X121.499 Y130.332 E.10655
G1 X121.165 Y130.332 F24000
G1 F9161.558
G1 X121.165 Y127.071 E.10655
G1 X120.83 Y127.071 F24000
G1 F9161.558
G1 X120.83 Y130.332 E.10655
G1 X120.496 Y130.332 F24000
G1 F9161.558
G1 X120.496 Y127.071 E.10655
G1 X120.162 Y127.071 F24000
G1 F9161.558
G1 X120.162 Y130.332 E.10655
G1 X119.828 Y130.332 F24000
G1 F9161.558
G1 X119.828 Y127.071 E.10655
G1 X119.494 Y127.071 F24000
G1 F9161.558
G1 X119.494 Y130.332 E.10655
G1 X119.16 Y130.332 F24000
G1 F9161.558
G1 X119.16 Y127.071 E.10655
G1 E-.53804 F2400
;WIPE_START
G1 F9161.558
G1 X119.16 Y128.071 E-.26196
;WIPE_END
G1 X118.826 Y130.332 Z1.32 F24000
G1 Z.92
G1 E.8 F2400
G1 F9161.558
G1 X118.826 Y117.668 E.41379
G1 X118.492 Y117.668 F24000
G1 F9161.558
G1 X118.492 Y130.332 E.41379
G1 X118.157 Y130.332 F24000
G1 F9161.558
G1 X118.157 Y117.668 E.41379
G1 X117.823 Y117.668 F24000
G1 F9161.558
G1 X117.823 Y130.332 E.41379
G1 X117.489 Y130.332 F24000
G1 F9161.558
G1 X117.489 Y117.668 E.41379
G1 X117.155 Y117.668 F24000
G1 F9161.558
G1 X117.155 Y130.332 E.41379
G1 X116.821 Y130.332 F24000
G1 F9161.558
G1 X116.821 Y117.668 E.41379
G1 X116.487 Y117.668 F24000
G1 F9161.558
G1 X116.487 Y130.332 E.41379
G1 X116.153 Y130.332 F24000
G1 F9161.558
G1 X116.153 Y117.668 E.41379
G1 X115.818 Y117.668 F24000
G1 F9161.558
