; HEADER_BLOCK_START
; generated by OrcaSlicer-WaveOverhangs 2.4.0-dev on 2026-05-01 at 12:59:12
; WAVE_OVERHANG_BUILD wave_overhangs_version=0.3.0 orca_base=2.4.0-dev
; WAVE_OVERHANG_CONFIG region=0 algo=andersons outer_perim=1 spacing=0.420 flow_mm3_per_mm=0.200 speed=2.0 travel=40.0 fan=100 floor_layers=2 min_angle=0.0 min_length=0.00 max_iterations=0 ring_overlap=0.15 pattern=zigzag spacing_mode=uniform seam_mode=alternating perimeter_overlap=0.20 minimum_wave_width=0.70 min_new_area=0.0100 corner_enable=0 corner_spacing=0.000 corner_taper=0.00 corner_angle=90 end_retract=1.20 nozzle_temp_override=0 min_wave_time=4.00 min_layer_time=0.00 wall_loops=2 top_shell_layers=5 bottom_shell_layers=4 infill_density=15 infill_pattern=rectilinear support_remainder=1 instead_of_bridges=1
; total layer number: 92
; filament_density: 1.27
; filament_diameter: 1.75
; max_z_height: 22.04
; filament: 1
; HEADER_BLOCK_END

; THUMBNAIL_BLOCK_START

;
; THUMBNAIL_BLOCK_END

; external perimeters extrusion width = 0.42mm
; perimeters extrusion width = 0.45mm
; infill extrusion width = 0.44mm
; solid infill extrusion width = 0.44mm
; top infill extrusion width = 0.38mm
; first layer extrusion width = 0.42mm

; EXECUTABLE_BLOCK_START
EXCLUDE_OBJECT_DEFINE NAME=waveoverhangs-142-Test_Object_1.stl_id_0_copy_0 CENTER=125,125 POLYGON=[[103,119],[117,109],[137,109],[147,119],[147,129],[119.104,140.276],[118.106,140.591],[117.084,140.818],[116.046,140.954],[115,141],[113.954,140.954],[112.916,140.818],[111.894,140.591],[110.896,140.276],[109.929,139.876],[109,139.392],[108.117,138.83],[107.287,138.193],[106.515,137.485],[105.807,136.713],[105.17,135.883],[104.608,135],[104.124,134.071],[103.724,133.104],[103.409,132.106],[103.182,131.084],[103.046,130.046],[103,129],[103,119]]
M106 S0
M106 P2 S0
;TYPE:Custom
G9111 bedTemp=70 extruderTemp=230
M117
G90
G21
M83 ; use relative distances for extrusion
; Filament gcode
M106 S0
M106 P2 S0
;LAYER_CHANGE
;Z:0.2
;HEIGHT:0.2
; BEFORE_LAYER_CHANGE 0 @ 0.2mm
G1 E-.8 F2400
; AFTER_LAYER_CHANGE 0 @ 0.2mm
;_SET_FAN_SPEED_CHANGING_LAYER
SET_VELOCITY_LIMIT ACCEL=2000 ACCEL_TO_DECEL=1000
; printing object waveoverhangs-142-Test Object 1.stl id:0 copy 0
EXCLUDE_OBJECT_START NAME=waveoverhangs-142-Test_Object_1.stl_id_0_copy_0
G1 X129.09 Y116.91 F24000
G1 Z.2
G1 Z.2
G1 E.8 F2400
;TYPE:Outer wall
;WIDTH:0.419999
G1 F4312
G1 X129.09 Y131.09 E.4446
G1 X114.91 Y131.09 E.4446
G1 X114.91 Y116.91 E.4446
G1 X129.05 Y116.91 E.44335
G1 X128.713 Y117.287 F24000
;TYPE:Inner wall
G1 F4312
G1 X128.713 Y130.713 E.42096
G1 X115.287 Y130.713 E.42096
G1 X115.287 Y117.287 E.42096
G1 X128.673 Y117.287 E.4197
G1 X128.6 Y117.571 F24000
;TYPE:Bottom surface
;WIDTH:0.421128
G1 F4312
G1 X115.57 Y117.571 E.40977
G1 X115.57 Y117.949 E.01189
G1 X128.43 Y117.949 E.40443
G1 X128.43 Y118.327 E.01189
G1 X115.57 Y118.327 E.40443
G1 X115.57 Y118.705 E.01189
G1 X128.43 Y118.705 E.40443
G1 X128.43 Y119.083 E.01189
G1 X115.57 Y119.083 E.40443
G1 X115.57 Y119.462 E.01189
G1 X128.43 Y119.462 E.40443
G1 X128.43 Y119.84 E.01189
G1 X115.57 Y119.84 E.40443
G1 X115.57 Y120.218 E.01189
G1 X128.43 Y120.218 E.40443
G1 X128.43 Y120.596 E.01189
G1 X115.57 Y120.596 E.40443
G1 X115.57 Y120.974 E.01189
G1 X128.43 Y120.974 E.40443
G1 X128.43 Y121.353 E.01189
G1 X115.57 Y121.353 E.40443
G1 X115.57 Y121.731 E.01189
G1 X128.43 Y121.731 E.40443
G1 X128.43 Y122.109 E.01189
G1 X115.57 Y122.109 E.40443
G1 X115.57 Y122.487 E.01189
G1 X128.43 Y122.487 E.40443
G1 X128.43 Y122.865 E.01189
G1 X115.57 Y122.865 E.40443
G1 X115.57 Y123.244 E.01189
G1 X128.43 Y123.244 E.40443
G1 X128.43 Y123.622 E.01189
G1 X115.57 Y123.622 E.40443
G1 X115.57 Y124 E.01189
G1 X128.43 Y124 E.40443
G1 X128.43 Y124.378 E.01189
G1 X115.57 Y124.378 E.40443
G1 X115.57 Y124.756 E.01189
G1 X128.43 Y124.756 E.40443
G1 X128.43 Y125.135 E.01189
G1 X115.57 Y125.135 E.40443
G1 X115.57 Y125.513 E.01189
G1 X128.43 Y125.513 E.40443
G1 X128.43 Y125.891 E.01189
G1 X115.57 Y125.891 E.40443
G1 X115.57 Y126.269 E.01189
G1 X128.43 Y126.269 E.40443
G1 X128.43 Y126.647 E.01189
G1 X115.57 Y126.647 E.40443
G1 X115.57 Y127.026 E.01189
G1 X128.43 Y127.026 E.40443
G1 X128.43 Y127.404 E.01189
G1 X115.57 Y127.404 E.40443
G1 X115.57 Y127.782 E.01189
G1 X128.43 Y127.782 E.40443
G1 X128.43 Y128.16 E.01189
G1 X115.57 Y128.16 E.40443
G1 X115.57 Y128.539 E.01189
G1 X128.43 Y128.539 E.40443
G1 X128.43 Y128.917 E.01189
G1 X115.57 Y128.917 E.40443
G1 X115.57 Y129.295 E.01189
G1 X128.43 Y129.295 E.40443
G1 X128.43 Y129.673 E.01189
G1 X115.57 Y129.673 E.40443
G1 X115.57 Y130.051 E.01189
G1 X128.43 Y130.051 E.40443
G1 X128.43 Y130.43 E.01189
G1 X115.4 Y130.43 E.40977
; stop printing object waveoverhangs-142-Test Object 1.stl id:0 copy 0
;LAYER_CHANGE
;Z:0.44
;HEIGHT:0.24
; BEFORE_LAYER_CHANGE 1 @ 0.44mm
G1 E-.46667 F2400
;WIPE_START
G1 F7200
G1 X116.4 Y130.43 E-.33333
;WIPE_END
EXCLUDE_OBJECT_END NAME=waveoverhangs-142-Test_Object_1.stl_id_0_copy_0
; AFTER_LAYER_CHANGE 1 @ 0.44mm
;_SET_FAN_SPEED_CHANGING_LAYER
SET_VELOCITY_LIMIT ACCEL=10000 ACCEL_TO_DECEL=5000
M140 S70 ; set bed temperature
; printing object waveoverhangs-142-Test Object 1.stl id:0 copy 0
EXCLUDE_OBJECT_START NAME=waveoverhangs-142-Test_Object_1.stl_id_0_copy_0
G1 X121.626 Y124.867 Z.84 F24000
G1 X129.29 Y116.71 Z.84
G1 Z.44
G1 E.8 F2400
;TYPE:Outer wall
;WIDTH:0.419999
G1 F4323
G1 X129.29 Y131.29 E.53609
G1 X114.71 Y131.29 E.53609
G1 X114.71 Y116.71 E.53609
G1 X129.25 Y116.71 E.53462
G1 X128.907 Y117.093 F24000
;TYPE:Inner wall
;WIDTH:0.449999
G1 F4323
G1 X128.907 Y130.907 E.54923
G1 X115.093 Y130.907 E.54923
G1 X115.093 Y117.093 E.54923
G1 X128.867 Y117.093 E.54764
G1 X128.549 Y130.728 F24000
;TYPE:Internal solid infill
;WIDTH:0.448392
G1 F4323
G1 X128.549 Y117.447 E.52593
G1 X128.152 Y117.447 E.01572
G1 X128.152 Y130.553 E.51901
G1 X127.755 Y130.553 E.01572
G1 X127.755 Y117.447 E.51901
G1 X127.358 Y117.447 E.01572
G1 X127.358 Y130.553 E.51901
G1 X126.961 Y130.553 E.01572
G1 X126.961 Y117.447 E.51901
G1 X126.564 Y117.447 E.01572
G1 X126.564 Y130.553 E.51901
G1 X126.167 Y130.553 E.01572
G1 X126.167 Y117.447 E.51901
G1 X125.77 Y117.447 E.01572
G1 X125.77 Y130.553 E.51901
G1 X125.374 Y130.553 E.01572
G1 X125.374 Y117.447 E.51901
G1 X124.977 Y117.447 E.01572
G1 X124.977 Y130.553 E.51901
G1 X124.58 Y130.553 E.01572
G1 X124.58 Y117.447 E.51901
G1 X124.183 Y117.447 E.01572
G1 X124.183 Y130.553 E.51901
G1 X123.786 Y130.553 E.01572
G1 X123.786 Y117.447 E.51901
G1 X123.389 Y117.447 E.01572
G1 X123.389 Y130.553 E.51901
G1 X122.992 Y130.553 E.01572
G1 X122.992 Y117.447 E.51901
G1 X122.595 Y117.447 E.01572
G1 X122.595 Y130.553 E.51901
G1 X122.198 Y130.553 E.01572
G1 X122.198 Y117.447 E.51901
G1 X121.802 Y117.447 E.01572
G1 X121.802 Y130.553 E.51901
G1 X121.405 Y130.553 E.01572
G1 X121.405 Y117.447 E.51901
G1 X121.008 Y117.447 E.01572
G1 X121.008 Y130.553 E.51901
G1 X120.611 Y130.553 E.01572
G1 X120.611 Y117.447 E.51901
G1 X120.214 Y117.447 E.01572
G1 X120.214 Y130.553 E.51901
G1 X119.817 Y130.553 E.01572
G1 X119.817 Y117.447 E.51901
G1 X119.42 Y117.447 E.01572
G1 X119.42 Y130.553 E.51901
G1 X119.023 Y130.553 E.01572
G1 X119.023 Y117.447 E.51901
G1 X118.626 Y117.447 E.01572
G1 X118.626 Y130.553 E.51901
G1 X118.23 Y130.553 E.01572
G1 X118.23 Y117.447 E.51901
G1 X117.833 Y117.447 E.01572
G1 X117.833 Y130.553 E.51901
G1 X117.436 Y130.553 E.01572
G1 X117.436 Y117.447 E.51901
G1 X117.039 Y117.447 E.01572
G1 X117.039 Y130.553 E.51901
G1 X116.642 Y130.553 E.01572
G1 X116.642 Y117.447 E.51901
G1 X116.245 Y117.447 E.01572
G1 X116.245 Y130.553 E.51901
G1 X115.848 Y130.553 E.01572
G1 X115.848 Y117.447 E.51901
G1 X115.451 Y117.447 E.01572
G1 X115.451 Y130.728 E.52593
; stop printing object waveoverhangs-142-Test Object 1.stl id:0 copy 0
;LAYER_CHANGE
;Z:0.68
;HEIGHT:0.24
; BEFORE_LAYER_CHANGE 2 @ 0.68mm
G1 E-.41899 F2400
;WIPE_START
G1 F6299.007
G1 X115.451 Y129.728 E-.38101
;WIPE_END
EXCLUDE_OBJECT_END NAME=waveoverhangs-142-Test_Object_1.stl_id_0_copy_0
; AFTER_LAYER_CHANGE 2 @ 0.68mm
;_SET_FAN_SPEED_CHANGING_LAYER
; printing object waveoverhangs-142-Test Object 1.stl id:0 copy 0
EXCLUDE_OBJECT_START NAME=waveoverhangs-142-Test_Object_1.stl_id_0_copy_0
G1 X121.011 Y124.498 Z1.08 F24000
G1 X129.29 Y116.71 Z1.08
G1 Z.68
G1 E.8 F2400
;TYPE:Outer wall
;WIDTH:0.419999
G1 F4305
G1 X129.29 Y131.29 E.53609
G1 X114.71 Y131.29 E.53609
G1 X114.71 Y116.71 E.53609
G1 X129.25 Y116.71 E.53462
G1 X128.907 Y117.093 F24000
;TYPE:Inner wall
;WIDTH:0.449999
G1 F4305
G1 X128.907 Y130.907 E.54923
G1 X115.093 Y130.907 E.54923
G1 X115.093 Y117.093 E.54923
G1 X128.867 Y117.093 E.54764
G1 X128.728 Y117.451 F24000
;TYPE:Internal solid infill
;WIDTH:0.448392
G1 F4305
G1 X115.447 Y117.451 E.52593
G1 X115.447 Y117.848 E.01572
G1 X128.553 Y117.848 E.51901
G1 X128.553 Y118.245 E.01572
G1 X115.447 Y118.245 E.51901
G1 X115.447 Y118.642 E.01572
G1 X128.553 Y118.642 E.51901
G1 X128.553 Y119.039 E.01572
G1 X115.447 Y119.039 E.51901
G1 X115.447 Y119.436 E.01572
G1 X128.553 Y119.436 E.51901
G1 X128.553 Y119.833 E.01572
G1 X115.447 Y119.833 E.51901
G1 X115.447 Y120.23 E.01572
G1 X128.553 Y120.23 E.51901
G1 X128.553 Y120.626 E.01572
G1 X115.447 Y120.626 E.51901
G1 X115.447 Y121.023 E.01572
G1 X128.553 Y121.023 E.51901
G1 X128.553 Y121.42 E.01572
G1 X115.447 Y121.42 E.51901
G1 X115.447 Y121.817 E.01572
G1 X128.553 Y121.817 E.51901
G1 X128.553 Y122.214 E.01572
G1 X115.447 Y122.214 E.51901
G1 X115.447 Y122.611 E.01572
G1 X128.553 Y122.611 E.51901
G1 X128.553 Y123.008 E.01572
G1 X115.447 Y123.008 E.51901
G1 X115.447 Y123.405 E.01572
G1 X128.553 Y123.405 E.51901
G1 X128.553 Y123.802 E.01572
G1 X115.447 Y123.802 E.51901
G1 X115.447 Y124.198 E.01572
G1 X128.553 Y124.198 E.51901
G1 X128.553 Y124.595 E.01572
G1 X115.447 Y124.595 E.51901
G1 X115.447 Y124.992 E.01572
G1 X128.553 Y124.992 E.51901
G1 X128.553 Y125.389 E.01572
G1 X115.447 Y125.389 E.51901
G1 X115.447 Y125.786 E.01572
G1 X128.553 Y125.786 E.51901
G1 X128.553 Y126.183 E.01572
G1 X115.447 Y126.183 E.51901
G1 X115.447 Y126.58 E.01572
G1 X128.553 Y126.58 E.51901
G1 X128.553 Y126.977 E.01572
G1 X115.447 Y126.977 E.51901
G1 X115.447 Y127.374 E.01572
G1 X128.553 Y127.374 E.51901
G1 X128.553 Y127.77 E.01572
G1 X115.447 Y127.77 E.51901
G1 X115.447 Y128.167 E.01572
G1 X128.553 Y128.167 E.51901
G1 X128.553 Y128.564 E.01572
G1 X115.447 Y128.564 E.51901
G1 X115.447 Y128.961 E.01572
G1 X128.553 Y128.961 E.51901
G1 X128.553 Y129.358 E.01572
G1 X115.447 Y129.358 E.51901
G1 X115.447 Y129.755 E.01572
G1 X128.553 Y129.755 E.51901
G1 X128.553 Y130.152 E.01572
G1 X115.447 Y130.152 E.51901
G1 X115.447 Y130.549 E.01572
G1 X128.728 Y130.549 E.52593
; stop printing object waveoverhangs-142-Test Object 1.stl id:0 copy 0
M106 S255
;LAYER_CHANGE
;Z:0.92
;HEIGHT:0.24
; BEFORE_LAYER_CHANGE 3 @ 0.92mm
G1 E-.41899 F2400
;WIPE_START
G1 F6299.007
G1 X127.728 Y130.549 E-.38101
;WIPE_END
EXCLUDE_OBJECT_END NAME=waveoverhangs-142-Test_Object_1.stl_id_0_copy_0
; AFTER_LAYER_CHANGE 3 @ 0.92mm
;_SET_FAN_SPEED_CHANGING_LAYER
; printing object waveoverhangs-142-Test Object 1.stl id:0 copy 0
EXCLUDE_OBJECT_START NAME=waveoverhangs-142-Test_Object_1.stl_id_0_copy_0
G1 X128.584 Y122.964 Z1.32 F24000
G1 X129.29 Y116.71 Z1.32
G1 Z.92
G1 E.8 F2400
;TYPE:Outer wall
;WIDTH:0.419999
G1 F4960
G1 X129.29 Y131.29 E.53609
G1 X114.71 Y131.29 E.53609
G1 X114.71 Y116.71 E.53609
G1 X129.25 Y116.71 E.53462
G1 X128.907 Y117.093 F24000
;TYPE:Inner wall
;WIDTH:0.449999
G1 F4960
G1 X128.907 Y130.907 E.54923
G1 X115.093 Y130.907 E.54923
G1 X115.093 Y117.093 E.54923
G1 X128.867 Y117.093 E.54764
G1 E-.41744 F2400
;WIPE_START
G1 F6273.605
G1 X128.869 Y118.093 E-.38256
;WIPE_END
G1 X126.264 Y125.267 Z1.32 F24000
G1 X125.417 Y127.599 Z1.32
G1 Z.92
G1 E.8 F2400
;TYPE:Internal solid infill
;WIDTH:0.45354
G1 F4960
G1 X125.417 Y120.576 E.28173
G1 X125.015 Y120.576 E.01613
G1 X125.015 Y127.424 E.27472
G1 X124.613 Y127.424 E.01613
G1 X124.613 Y120.576 E.27472
G1 X124.211 Y120.576 E.01613
G1 X124.211 Y127.424 E.27472
G1 X123.809 Y127.424 E.01613
G1 X123.809 Y120.576 E.27472
G1 X123.407 Y120.576 E.01613
G1 X123.407 Y127.424 E.27472
G1 X123.005 Y127.424 E.01613
G1 X123.005 Y120.576 E.27472
G1 X122.603 Y120.576 E.01613
G1 X122.603 Y127.424 E.27472
G1 X122.201 Y127.424 E.01613
G1 X122.201 Y120.576 E.27472
G1 X121.799 Y120.576 E.01613
G1 X121.799 Y127.424 E.27472
G1 X121.397 Y127.424 E.01613
G1 X121.397 Y120.576 E.27472
G1 X120.995 Y120.576 E.01613
G1 X120.995 Y127.424 E.27472
G1 X120.593 Y127.424 E.01613
G1 X120.593 Y120.576 E.27472
G1 X120.191 Y120.576 E.01613
G1 X120.191 Y127.424 E.27472
G1 X119.789 Y127.424 E.01613
G1 X119.789 Y120.576 E.27472
G1 X119.387 Y120.576 E.01613
G1 X119.387 Y127.424 E.27472
G1 X118.985 Y127.424 E.01613
G1 X118.985 Y120.576 E.27472
G1 X118.583 Y120.576 E.01613
G1 X118.583 Y127.599 E.28173
G1 E-.41405 F2400
;WIPE_START
G1 F6218.349
G1 X118.583 Y126.599 E-.38595
;WIPE_END
G1 X125.637 Y129.514 Z1.32 F24000
G1 X128.583 Y130.731 Z1.32
G1 Z.92
G1 E.8 F2400
;TYPE:Top surface
;WIDTH:0.380631
G1 F4960
G1 X128.583 Y117.269 E.44208
G1 X128.253 Y117.269 F24000
G1 F4960
G1 X128.253 Y130.731 E.44208
G1 X127.924 Y130.731 F24000
G1 F4960
G1 X127.924 Y117.269 E.44208
G1 X127.595 Y117.269 F24000
G1 F4960
G1 X127.595 Y130.731 E.44208
G1 X127.266 Y130.731 F24000
G1 F4960
G1 X127.266 Y117.269 E.44208
G1 X126.937 Y117.269 F24000
G1 F4960
G1 X126.937 Y130.731 E.44208
G1 X126.608 Y130.731 F24000
G1 F4960
G1 X126.608 Y117.269 E.44208
G1 X126.279 Y117.269 F24000
G1 F4960
G1 X126.279 Y130.731 E.44208
G1 X125.949 Y130.731 F24000
G1 F4960
G1 X125.949 Y117.269 E.44208
G1 X125.62 Y117.269 F24000
G1 F4960
G1 X125.62 Y120.365 E.10167
G1 X125.291 Y120.365 F24000
G1 F4960
G1 X125.291 Y117.269 E.10167
G1 X124.962 Y117.269 F24000
G1 F4960
G1 X124.962 Y120.365 E.10167
G1 X124.633 Y120.365 F24000
G1 F4960
G1 X124.633 Y117.269 E.10167
G1 X124.304 Y117.269 F24000
G1 F4960
G1 X124.304 Y120.365 E.10167
G1 X123.975 Y120.365 F24000
G1 F4960
G1 X123.975 Y117.269 E.10167
G1 X123.646 Y117.269 F24000
G1 F4960
G1 X123.646 Y120.365 E.10167
G1 X123.316 Y120.365 F24000
G1 F4960
G1 X123.316 Y117.269 E.10167
G1 X122.987 Y117.269 F24000
G1 F4960
G1 X122.987 Y120.365 E.10167
G1 X122.658 Y120.365 F24000
G1 F4960
G1 X122.658 Y117.269 E.10167
G1 X122.329 Y117.269 F24000
G1 F4960
G1 X122.329 Y120.365 E.10167
G1 X122 Y120.365 F24000
G1 F4960
G1 X122 Y117.269 E.10167
G1 X121.671 Y117.269 F24000
G1 F4960
G1 X121.671 Y120.365 E.10167
G1 X121.342 Y120.365 F24000
G1 F4960
G1 X121.342 Y117.269 E.10167
G1 X121.013 Y117.269 F24000
G1 F4960
G1 X121.013 Y120.365 E.10167
G1 X120.683 Y120.365 F24000
G1 F4960
G1 X120.683 Y117.269 E.10167
G1 X120.354 Y117.269 F24000
G1 F4960
G1 X120.354 Y120.365 E.10167
G1 X120.025 Y120.365 F24000
G1 F4960
G1 X120.025 Y117.269 E.10167
G1 X119.696 Y117.269 F24000
G1 F4960
G1 X119.696 Y120.365 E.10167
G1 X119.367 Y120.365 F24000
G1 F4960
G1 X119.367 Y117.269 E.10167
G1 X119.038 Y117.269 F24000
G1 F4960
G1 X119.038 Y120.365 E.10167
G1 X118.709 Y120.365 F24000
G1 F4960
G1 X118.709 Y117.269 E.10167
G1 X118.38 Y117.269 F24000
G1 F4960
G1 X118.38 Y120.365 E.10167
G1 X125.62 Y127.635 F24000
G1 F4960
G1 X125.62 Y130.731 E.10167
G1 X125.291 Y130.731 F24000
G1 F4960
G1 X125.291 Y127.635 E.10167
G1 X124.962 Y127.635 F24000
G1 F4960
G1 X124.962 Y130.731 E.10167
G1 X124.633 Y130.731 F24000
G1 F4960
G1 X124.633 Y127.635 E.10167
G1 X124.304 Y127.635 F24000
G1 F4960
G1 X124.304 Y130.731 E.10167
G1 X123.975 Y130.731 F24000
G1 F4960
G1 X123.975 Y127.635 E.10167
G1 X123.646 Y127.635 F24000
G1 F4960
G1 X123.646 Y130.731 E.10167
G1 X123.316 Y130.731 F24000
G1 F4960
G1 X123.316 Y127.635 E.10167
G1 X122.987 Y127.635 F24000
G1 F4960
G1 X122.987 Y130.731 E.10167
G1 X122.658 Y130.731 F24000
G1 F4960
G1 X122.658 Y127.635 E.10167
G1 X122.329 Y127.635 F24000
G1 F4960
G1 X122.329 Y130.731 E.10167
G1 X122 Y130.731 F24000
G1 F4960
G1 X122 Y127.635 E.10167
G1 X121.671 Y127.635 F24000
G1 F4960
G1 X121.671 Y130.731 E.10167
G1 X121.342 Y130.731 F24000
G1 F4960
G1 X121.342 Y127.635 E.10167
G1 X121.013 Y127.635 F24000
G1 F4960
G1 X121.013 Y130.731 E.10167
G1 X120.683 Y130.731 F24000
