; HEADER_BLOCK_START
; generated by OrcaSlicer-WaveOverhangs 2.4.0-dev on 2026-05-06 at 13:07:55
; WAVE_OVERHANG_BUILD wave_overhangs_version=0.3.2 orca_base=2.4.0-dev
; WAVE_OVERHANG_CONFIG region=0 algo=andersons outer_perim=1 spacing=0.390 flow_mm3_per_mm=0.220 speed=2.0 travel=40.0 fan=100 floor_layers=2 min_angle=0.0 min_length=0.00 max_iterations=0 ring_overlap=0.15 pattern=zigzag spacing_mode=uniform seam_mode=alternating perimeter_overlap=0.10 minimum_wave_width=0.70 min_new_area=0.0100 corner_enable=0 corner_spacing=0.000 corner_taper=0.00 corner_angle=90 end_retract=0.00 nozzle_temp_override=190 min_wave_time=4.00 min_layer_time=0.00 wall_loops=2 top_shell_layers=5 bottom_shell_layers=4 infill_density=15 infill_pattern=rectilinear support_remainder=1 instead_of_bridges=0
; total layer number: 43
; filament_density: 1.24
; filament_diameter: 1.75
; max_z_height: 10.28
; filament: 1
; HEADER_BLOCK_END

; THUMBNAIL_BLOCK_START

;
; THUMBNAIL_BLOCK_END

; THUMBNAIL_BLOCK_START

;
; THUMBNAIL_BLOCK_END

; THUMBNAIL_BLOCK_START

;
; THUMBNAIL_BLOCK_END

; external perimeters extrusion width = 0.42mm
; perimeters extrusion width = 0.45mm
; infill extrusion width = 0.44mm
; solid infill extrusion width = 0.44mm
; top infill extrusion width = 0.38mm
; first layer extrusion width = 0.42mm

; EXECUTABLE_BLOCK_START
EXCLUDE_OBJECT_DEFINE NAME=monolayer_l_id_0_copy_0 CENTER=125,125 POLYGON=[[110,107.5],[125,107.5],[140,127.5],[140,142.5],[110,142.5],[110,107.5]]
M106 S0
M106 P2 S0
;TYPE:Custom
M117
M83 ;relative extrusion
M104 S141 ;Preheat Nozzle to z-probe-temp and do NOT wait (M109 = preheat and wait)
M140 S55
G4 P1000 ;preheat bed 3 minutes if bed temp is higher than 80 degree (S1 bed will bend while preheating very hot and thus give false z offset values)

G28 X Y ;home only X Y (while preheating)

G1 Y250 F6000 
G1 X47 F6000 		;Park Bin Position
G1 Y270  F6000		;Park Bin Position

M109 S181 ;wait for extruder temperature
G1 E-3 F3000 ;retract a bit
; Erster Wipe
M104 S200; start heating up hotend to final temperature and continue
M140 S55; change setpoint of the heatbed to final temperature and continue
;G1 X0 F6000
G1 Y250
G1 X84 ;wipe position left x
G1 Y270 ;wipe and park position y
G1 X98 ;wipe to the right
G1 X84 ;wipe to the left

:complex wipe
G1 Y264
G1 X98 Y275
G1 X84 Y264
G1 X98 Y264
G1 X84 Y275
G1 X81


; Park Position
G1 Y250
G1 X47 F6000 		;Park Bin Position
G1 Y270  F6000		;Park Bin Position

; Zweiter Wipe
M109 S200 ; wait for hotend final temperature
M104 S141 ; Start cooldown
M106 S255 ;fan on for Park on Rubber already(off=M107), we will wipe while the nozzle already is cooling down 
;G1 E-3 F3000 ;retract a bit
;G1 X0 F6000
G1 Y250
G1 X84 ;wipe position left x
G1 Y270 ;wipe and park position y
G1 X98 ;wipe to the right
G1 X84 ;wipe to the left

:complex wipe
G1 Y264
G1 X98 Y275
G1 X84 Y264
G1 X98 Y264
G1 X84 Y275
G1 X81

G1 Y250




G9111 bedTemp=55 extruderTemp=200
M117 Filament wird geladen...
M420 S1

T0 
M109 S200


M83 ; Extruder relativ

# Go to Purge Position
G92 E0
G1 Z5 F200
G1 Y250 F3000 # Safe y-Position

#new with kicking old Blob away
#G1 X1 F3000
#G1 Y50 F3000
G1 Z0.5 F200
G1 X1 F6000 
G1 Y1 F6000 
G1 Z5 F200
#Blob
G1 Z0.6 F200
G1 E20 F300
G4 P1000
G1 E-0.200 Z5 F600
#Purgeline
G1 X64
G1 Z0.4 F200
G1 X155 F600 E10 
G1 Y2
G1 X67 F1800 E10 
G1 Y3
M106 S255 
G1 X153 F1800 E10 
G1 E-3 F3000 
M106 S255 
G92 E0                  ; Extruder zurücksetzen
M82 ; Extruder absolut
G1 Z2.0 F3000 
M117 Druck Start...

G90
G21
M83 ; use relative distances for extrusion
; Filament gcode
M106 S0
M106 P2 S0
;LAYER_CHANGE
;Z:0.2
;HEIGHT:0.2
; BEFORE_LAYER_CHANGE 0 @ 0.2mm
G1 E-.8 F2400
; AFTER_LAYER_CHANGE 0 @ 0.2mm
;_SET_FAN_SPEED_CHANGING_LAYER
SET_VELOCITY_LIMIT ACCEL=2000 ACCEL_TO_DECEL=1000
; printing object monolayer l id:0 copy 0
EXCLUDE_OBJECT_START NAME=monolayer_l_id_0_copy_0
G1 X124.59 Y122.09 F24000
G1 Z.2
G1 Z.2
G1 E.8 F2400
;TYPE:Outer wall
;WIDTH:0.419999
G1 F4800
G1 X110.41 Y122.09 E.43571
G1 X110.41 Y107.91 E.43571
G1 X124.59 Y107.91 E.43571
G1 X124.59 Y122.05 E.43448
G1 X124.213 Y121.713 F24000
;TYPE:Inner wall
G1 F4800
G1 X110.787 Y121.713 E.41254
G1 X110.787 Y108.287 E.41254
G1 X124.213 Y108.287 E.41254
G1 X124.213 Y121.673 E.41131
G1 E-.3 F2400
;WIPE_START
G1 F4800
G1 X123.213 Y121.676 E-.5
;WIPE_END
G1 X124.1 Y108.571 F24000
G1 E.8 F2400
;TYPE:Bottom surface
;WIDTH:0.421128
G1 F7200
G1 X111.07 Y108.571 E.40157
G1 X111.07 Y108.949 E.01166
G1 X123.93 Y108.949 E.39634
G1 X123.93 Y109.327 E.01166
G1 X111.07 Y109.327 E.39634
G1 X111.07 Y109.705 E.01166
G1 X123.93 Y109.705 E.39634
G1 X123.93 Y110.083 E.01166
G1 X111.07 Y110.083 E.39634
G1 X111.07 Y110.462 E.01166
G1 X123.93 Y110.462 E.39634
G1 X123.93 Y110.84 E.01166
G1 X111.07 Y110.84 E.39634
G1 X111.07 Y111.218 E.01166
G1 X123.93 Y111.218 E.39634
G1 X123.93 Y111.596 E.01166
G1 X111.07 Y111.596 E.39634
G1 X111.07 Y111.974 E.01166
G1 X123.93 Y111.974 E.39634
G1 X123.93 Y112.353 E.01166
G1 X111.07 Y112.353 E.39634
G1 X111.07 Y112.731 E.01166
G1 X123.93 Y112.731 E.39634
G1 X123.93 Y113.109 E.01166
G1 X111.07 Y113.109 E.39634
G1 X111.07 Y113.487 E.01166
G1 X123.93 Y113.487 E.39634
G1 X123.93 Y113.865 E.01166
G1 X111.07 Y113.865 E.39634
G1 X111.07 Y114.244 E.01166
G1 X123.93 Y114.244 E.39634
G1 X123.93 Y114.622 E.01166
G1 X111.07 Y114.622 E.39634
G1 X111.07 Y115 E.01166
G1 X123.93 Y115 E.39634
G1 X123.93 Y115.378 E.01166
G1 X111.07 Y115.378 E.39634
G1 X111.07 Y115.756 E.01166
G1 X123.93 Y115.756 E.39634
G1 X123.93 Y116.135 E.01166
G1 X111.07 Y116.135 E.39634
G1 X111.07 Y116.513 E.01166
G1 X123.93 Y116.513 E.39634
G1 X123.93 Y116.891 E.01166
G1 X111.07 Y116.891 E.39634
G1 X111.07 Y117.269 E.01166
G1 X123.93 Y117.269 E.39634
G1 X123.93 Y117.647 E.01166
G1 X111.07 Y117.647 E.39634
G1 X111.07 Y118.026 E.01166
G1 X123.93 Y118.026 E.39634
G1 X123.93 Y118.404 E.01166
G1 X111.07 Y118.404 E.39634
G1 X111.07 Y118.782 E.01166
G1 X123.93 Y118.782 E.39634
G1 X123.93 Y119.16 E.01166
G1 X111.07 Y119.16 E.39634
G1 X111.07 Y119.539 E.01166
G1 X123.93 Y119.539 E.39634
G1 X123.93 Y119.917 E.01166
G1 X111.07 Y119.917 E.39634
G1 X111.07 Y120.295 E.01166
G1 X123.93 Y120.295 E.39634
G1 X123.93 Y120.673 E.01166
G1 X111.07 Y120.673 E.39634
G1 X111.07 Y121.051 E.01166
G1 X123.93 Y121.051 E.39634
G1 X123.93 Y121.43 E.01166
G1 X110.9 Y121.43 E.40157
; stop printing object monolayer l id:0 copy 0
M106 S255
M106 P2 S178
;LAYER_CHANGE
;Z:0.44
;HEIGHT:0.24
; BEFORE_LAYER_CHANGE 1 @ 0.44mm
G1 E-.46667 F2400
;WIPE_START
G1 F7200
G1 X111.9 Y121.43 E-.33333
;WIPE_END
EXCLUDE_OBJECT_END NAME=monolayer_l_id_0_copy_0
; AFTER_LAYER_CHANGE 1 @ 0.44mm
;_SET_FAN_SPEED_CHANGING_LAYER
SET_VELOCITY_LIMIT ACCEL=15000 ACCEL_TO_DECEL=7500
M140 S55 ; set bed temperature
; printing object monolayer l id:0 copy 0
EXCLUDE_OBJECT_START NAME=monolayer_l_id_0_copy_0
G1 X119.516 Y121.938 Z.84 F24000
G1 X124.79 Y122.29 Z.84
G1 Z.44
G1 E.8 F2400
SET_VELOCITY_LIMIT ACCEL=13000 ACCEL_TO_DECEL=6500
;TYPE:Outer wall
;WIDTH:0.419999
G1 F8307.371
G1 X110.21 Y122.29 E.52536
G1 X110.21 Y107.71 E.52536
G1 X124.79 Y107.71 E.52536
G1 X124.79 Y122.25 E.52392
SET_VELOCITY_LIMIT ACCEL=15000 ACCEL_TO_DECEL=7500
G1 X124.407 Y121.907 F24000
;TYPE:Inner wall
;WIDTH:0.449999
G1 F7681.965
G1 X110.593 Y121.907 E.53825
G1 X110.593 Y108.093 E.53825
G1 X124.407 Y108.093 E.53825
G1 X124.407 Y121.867 E.53669
G1 X124.049 Y121.728 F24000
;TYPE:Internal solid infill
;WIDTH:0.448392
G1 F7713.07
G1 X124.049 Y108.447 E.51541
G1 X123.652 Y108.447 E.0154
G1 X123.652 Y121.553 E.50863
G1 X123.255 Y121.553 E.0154
G1 X123.255 Y108.447 E.50863
G1 X122.858 Y108.447 E.0154
G1 X122.858 Y121.553 E.50863
G1 X122.461 Y121.553 E.0154
G1 X122.461 Y108.447 E.50863
G1 X122.064 Y108.447 E.0154
G1 X122.064 Y121.553 E.50863
G1 X121.667 Y121.553 E.0154
G1 X121.667 Y108.447 E.50863
G1 X121.27 Y108.447 E.0154
G1 X121.27 Y121.553 E.50863
G1 X120.874 Y121.553 E.0154
G1 X120.874 Y108.447 E.50863
G1 X120.477 Y108.447 E.0154
G1 X120.477 Y121.553 E.50863
G1 X120.08 Y121.553 E.0154
G1 X120.08 Y108.447 E.50863
G1 X119.683 Y108.447 E.0154
G1 X119.683 Y121.553 E.50863
G1 X119.286 Y121.553 E.0154
G1 X119.286 Y108.447 E.50863
G1 X118.889 Y108.447 E.0154
G1 X118.889 Y121.553 E.50863
G1 X118.492 Y121.553 E.0154
G1 X118.492 Y108.447 E.50863
G1 X118.095 Y108.447 E.0154
G1 X118.095 Y121.553 E.50863
G1 X117.698 Y121.553 E.0154
G1 X117.698 Y108.447 E.50863
G1 X117.302 Y108.447 E.0154
G1 X117.302 Y121.553 E.50863
G1 X116.905 Y121.553 E.0154
G1 X116.905 Y108.447 E.50863
G1 X116.508 Y108.447 E.0154
G1 X116.508 Y121.553 E.50863
G1 X116.111 Y121.553 E.0154
G1 X116.111 Y108.447 E.50863
G1 X115.714 Y108.447 E.0154
G1 X115.714 Y121.553 E.50863
G1 X115.317 Y121.553 E.0154
G1 X115.317 Y108.447 E.50863
G1 X114.92 Y108.447 E.0154
G1 X114.92 Y121.553 E.50863
G1 X114.523 Y121.553 E.0154
G1 X114.523 Y108.447 E.50863
G1 X114.126 Y108.447 E.0154
G1 X114.126 Y121.553 E.50863
G1 X113.73 Y121.553 E.0154
G1 X113.73 Y108.447 E.50863
G1 X113.333 Y108.447 E.0154
G1 X113.333 Y121.553 E.50863
G1 X112.936 Y121.553 E.0154
G1 X112.936 Y108.447 E.50863
G1 X112.539 Y108.447 E.0154
G1 X112.539 Y121.553 E.50863
G1 X112.142 Y121.553 E.0154
G1 X112.142 Y108.447 E.50863
G1 X111.745 Y108.447 E.0154
G1 X111.745 Y121.553 E.50863
G1 X111.348 Y121.553 E.0154
G1 X111.348 Y108.447 E.50863
G1 X110.951 Y108.447 E.0154
G1 X110.951 Y121.728 E.51541
; stop printing object monolayer l id:0 copy 0
;LAYER_CHANGE
;Z:0.68
;HEIGHT:0.24
; BEFORE_LAYER_CHANGE 2 @ 0.68mm
G1 E-.48884 F2400
;WIPE_START
G1 F7713.07
G1 X110.951 Y120.728 E-.31116
;WIPE_END
EXCLUDE_OBJECT_END NAME=monolayer_l_id_0_copy_0
; AFTER_LAYER_CHANGE 2 @ 0.68mm
;_SET_FAN_SPEED_CHANGING_LAYER
; printing object monolayer l id:0 copy 0
EXCLUDE_OBJECT_START NAME=monolayer_l_id_0_copy_0
G1 F24000
G1 X111.498 Y120.93 Z0.710769
G1 X111.888 Y121.362 Z0.741538
G1 X112.032 Y121.927 Z0.772308
G1 X111.897 Y122.493 Z0.803077
G1 X111.515 Y122.933 Z0.833846
G1 X110.972 Y123.144 Z0.864615
G1 X110.393 Y123.078 Z0.895385
G1 X109.911 Y122.752 Z0.926154
G1 X109.636 Y122.238 Z0.956923
G1 X109.631 Y121.656 Z0.987692
G1 X109.897 Y121.138 Z1.01846
G1 X110.374 Y120.803 Z1.04923
G1 X110.951 Y120.728 Z1.08
G1 X124.79 Y122.29 Z1.08
G1 Z.68
G1 E.8 F2400
SET_VELOCITY_LIMIT ACCEL=13000 ACCEL_TO_DECEL=6500
;TYPE:Outer wall
;WIDTH:0.419999
G1 F8280
G1 F8307.371
G1 X110.21 Y122.29 E.52536
G1 X110.21 Y107.71 E.52536
G1 X124.79 Y107.71 E.52536
G1 X124.79 Y122.25 E.52392
SET_VELOCITY_LIMIT ACCEL=15000 ACCEL_TO_DECEL=7500
G1 X124.407 Y121.907 F24000
;TYPE:Inner wall
;WIDTH:0.449999
G1 F7681.965
G1 X110.593 Y121.907 E.53825
G1 X110.593 Y108.093 E.53825
G1 X124.407 Y108.093 E.53825
G1 X124.407 Y121.867 E.53669
G1 X124.228 Y108.451 F24000
;TYPE:Internal solid infill
;WIDTH:0.448392
G1 F7713.07
G1 X110.947 Y108.451 E.51541
G1 X110.947 Y108.848 E.0154
G1 X124.053 Y108.848 E.50863
G1 X124.053 Y109.245 E.0154
G1 X110.947 Y109.245 E.50863
G1 X110.947 Y109.642 E.0154
G1 X124.053 Y109.642 E.50863
G1 X124.053 Y110.039 E.0154
G1 X110.947 Y110.039 E.50863
G1 X110.947 Y110.436 E.0154
G1 X124.053 Y110.436 E.50863
G1 X124.053 Y110.833 E.0154
G1 X110.947 Y110.833 E.50863
G1 X110.947 Y111.23 E.0154
G1 X124.053 Y111.23 E.50863
G1 X124.053 Y111.626 E.0154
G1 X110.947 Y111.626 E.50863
G1 X110.947 Y112.023 E.0154
G1 X124.053 Y112.023 E.50863
G1 X124.053 Y112.42 E.0154
G1 X110.947 Y112.42 E.50863
G1 X110.947 Y112.817 E.0154
G1 X124.053 Y112.817 E.50863
G1 X124.053 Y113.214 E.0154
G1 X110.947 Y113.214 E.50863
G1 X110.947 Y113.611 E.0154
G1 X124.053 Y113.611 E.50863
G1 X124.053 Y114.008 E.0154
G1 X110.947 Y114.008 E.50863
G1 X110.947 Y114.405 E.0154
G1 X124.053 Y114.405 E.50863
G1 X124.053 Y114.802 E.0154
G1 X110.947 Y114.802 E.50863
G1 X110.947 Y115.198 E.0154
G1 X124.053 Y115.198 E.50863
G1 X124.053 Y115.595 E.0154
G1 X110.947 Y115.595 E.50863
G1 X110.947 Y115.992 E.0154
G1 X124.053 Y115.992 E.50863
G1 X124.053 Y116.389 E.0154
G1 X110.947 Y116.389 E.50863
G1 X110.947 Y116.786 E.0154
G1 X124.053 Y116.786 E.50863
G1 X124.053 Y117.183 E.0154
G1 X110.947 Y117.183 E.50863
G1 X110.947 Y117.58 E.0154
G1 X124.053 Y117.58 E.50863
G1 X124.053 Y117.977 E.0154
G1 X110.947 Y117.977 E.50863
G1 X110.947 Y118.374 E.0154
G1 X124.053 Y118.374 E.50863
G1 X124.053 Y118.77 E.0154
G1 X110.947 Y118.77 E.50863
G1 X110.947 Y119.167 E.0154
G1 X124.053 Y119.167 E.50863
G1 X124.053 Y119.564 E.0154
G1 X110.947 Y119.564 E.50863
G1 X110.947 Y119.961 E.0154
G1 X124.053 Y119.961 E.50863
G1 X124.053 Y120.358 E.0154
G1 X110.947 Y120.358 E.50863
G1 X110.947 Y120.755 E.0154
G1 X124.053 Y120.755 E.50863
G1 X124.053 Y121.152 E.0154
G1 X110.947 Y121.152 E.50863
G1 X110.947 Y121.549 E.0154
G1 X124.228 Y121.549 E.51541
; stop printing object monolayer l id:0 copy 0
;LAYER_CHANGE
;Z:0.92
;HEIGHT:0.24
; BEFORE_LAYER_CHANGE 3 @ 0.92mm
G1 E-.48884 F2400
;WIPE_START
G1 F7713.07
G1 X123.228 Y121.549 E-.31116
;WIPE_END
EXCLUDE_OBJECT_END NAME=monolayer_l_id_0_copy_0
; AFTER_LAYER_CHANGE 3 @ 0.92mm
;_SET_FAN_SPEED_CHANGING_LAYER
; printing object monolayer l id:0 copy 0
EXCLUDE_OBJECT_START NAME=monolayer_l_id_0_copy_0
G1 F24000
G1 X123.679 Y121.917 Z0.950769
G1 X123.907 Y122.453 Z0.981538
G1 X123.86 Y123.034 Z1.01231
G1 X123.549 Y123.526 Z1.04308
G1 X123.045 Y123.817 Z1.07385
G1 X122.463 Y123.841 Z1.10462
G1 X121.936 Y123.591 Z1.13538
G1 X121.586 Y123.125 Z1.16615
G1 X121.493 Y122.55 Z1.19692
G1 X121.677 Y121.998 Z1.22769
G1 X122.098 Y121.594 Z1.25846
G1 X122.657 Y121.432 Z1.28923
G1 X123.228 Y121.549 Z1.32
G1 X124.79 Y122.29 Z1.32
G1 Z.92
G1 E.8 F2400
SET_VELOCITY_LIMIT ACCEL=13000 ACCEL_TO_DECEL=6500
;TYPE:Outer wall
;WIDTH:0.419999
G1 F8307.371
G1 X110.21 Y122.29 E.52536
G1 X110.21 Y107.71 E.52536
G1 X124.79 Y107.71 E.52536
G1 X124.79 Y122.25 E.52392
SET_VELOCITY_LIMIT ACCEL=15000 ACCEL_TO_DECEL=7500
G1 X124.407 Y121.907 F24000
;TYPE:Inner wall
;WIDTH:0.449999
G1 F7681.965
G1 X110.593 Y121.907 E.53825
G1 X110.593 Y108.093 E.53825
G1 X124.407 Y108.093 E.53825
G1 X124.407 Y121.867 E.53669
G1 X124.049 Y121.728 F24000
;TYPE:Internal solid infill
;WIDTH:0.448392
G1 F7713.07
G1 X124.049 Y108.447 E.51541
G1 X123.652 Y108.447 E.0154
G1 X123.652 Y121.553 E.50863
G1 X123.255 Y121.553 E.0154
G1 X123.255 Y108.447 E.50863
G1 X122.858 Y108.447 E.0154
G1 X122.858 Y121.553 E.50863
G1 X122.461 Y121.553 E.0154
G1 X122.461 Y108.447 E.50863
G1 X122.064 Y108.447 E.0154
G1 X122.064 Y121.553 E.50863
G1 X121.667 Y121.553 E.0154
G1 X121.667 Y108.447 E.50863
G1 X121.27 Y108.447 E.0154
G1 X121.27 Y121.553 E.50863
G1 X120.874 Y121.553 E.0154
G1 X120.874 Y108.447 E.50863
G1 X120.477 Y108.447 E.0154
G1 X120.477 Y121.553 E.50863
G1 X120.08 Y121.553 E.0154
G1 X120.08 Y108.447 E.50863
G1 X119.683 Y108.447 E.0154
G1 X119.683 Y121.553 E.50863
G1 X119.286 Y121.553 E.0154
G1 X119.286 Y108.447 E.50863
G1 X118.889 Y108.447 E.0154
G1 X118.889 Y121.553 E.50863
G1 X118.492 Y121.553 E.0154
G1 X118.492 Y108.447 E.50863
G1 X118.095 Y108.447 E.0154
G1 X118.095 Y121.553 E.50863
G1 X117.698 Y121.553 E.0154
G1 X117.698 Y108.447 E.50863
G1 X117.302 Y108.447 E.0154
G1 X117.302 Y121.553 E.50863
G1 X116.905 Y121.553 E.0154
G1 X116.905 Y108.447 E.50863
G1 X116.508 Y108.447 E.0154
G1 X116.508 Y121.553 E.50863
G1 X116.111 Y121.553 E.0154
G1 X116.111 Y108.447 E.50863
G1 X115.714 Y108.447 E.0154
G1 X115.714 Y121.553 E.50863
G1 X115.317 Y121.553 E.0154
G1 X115.317 Y108.447 E.50863
G1 X114.92 Y108.447 E.0154
G1 X114.92 Y121.553 E.50863
G1 X114.523 Y121.553 E.0154
G1 X114.523 Y108.447 E.50863
G1 X114.126 Y108.447 E.0154
G1 X114.126 Y121.553 E.50863
G1 X113.73 Y121.553 E.0154
G1 X113.73 Y108.447 E.50863
G1 X113.333 Y108.447 E.0154
G1 X113.333 Y121.553 E.50863
G1 X112.936 Y121.553 E.0154
G1 X112.936 Y108.447 E.50863
G1 X112.539 Y108.447 E.0154
G1 X112.539 Y121.553 E.50863
G1 X112.142 Y121.553 E.0154
G1 X112.142 Y108.447 E.50863
G1 X111.745 Y108.447 E.0154
G1 X111.745 Y121.553 E.50863
G1 X111.348 Y121.553 E.0154
G1 X111.348 Y108.447 E.50863
G1 X110.951 Y108.447 E.0154
G1 X110.951 Y121.728 E.51541
; stop printing object monolayer l id:0 copy 0
;LAYER_CHANGE
;Z:1.16
;HEIGHT:0.24
