; HEADER_BLOCK_START
; generated by OrcaSlicer-WaveOverhangs 2.4.0-dev on 2026-05-07 at 11:30:54
; WAVE_OVERHANG_BUILD wave_overhangs_version=0.3.2 orca_base=2.4.0-dev
; WAVE_OVERHANG_CONFIG region=0 algo=andersons outer_perim=1 spacing=0.400 flow_mm3_per_mm=0.200 speed=2.0 travel=40.0 fan=100 floor_layers=2 min_angle=0.0 min_length=0.00 max_iterations=0 ring_overlap=0.15 pattern=zigzag spacing_mode=uniform seam_mode=alternating perimeter_overlap=0.10 minimum_wave_width=0.70 min_new_area=0.0100 corner_enable=0 corner_spacing=0.000 corner_taper=0.00 corner_angle=90 end_retract=0.00 nozzle_temp_override=240 min_wave_time=0.00 min_layer_time=0.00 wall_loops=3 top_shell_layers=5 bottom_shell_layers=4 infill_density=15 infill_pattern=rectilinear support_remainder=1 instead_of_bridges=0
; total layer number: 43
; filament_density: 1.27
; filament_diameter: 1.75
; max_z_height: 10.28
; filament: 1
; HEADER_BLOCK_END

; THUMBNAIL_BLOCK_START

;
; THUMBNAIL_BLOCK_END

; THUMBNAIL_BLOCK_START

;
; THUMBNAIL_BLOCK_END

; THUMBNAIL_BLOCK_START

;
; THUMBNAIL_BLOCK_END

; external perimeters extrusion width = 0.42mm
; perimeters extrusion width = 0.45mm
; infill extrusion width = 0.44mm
; solid infill extrusion width = 0.44mm
; top infill extrusion width = 0.38mm
; first layer extrusion width = 0.42mm

; EXECUTABLE_BLOCK_START
EXCLUDE_OBJECT_DEFINE NAME=monolayer_l_id_0_copy_0 CENTER=125,125 POLYGON=[[110,107.5],[125,107.5],[140,127.5],[140,142.5],[110,142.5],[110,107.5]]
M106 S0
M106 P2 S0
;TYPE:Custom
M117
M83 ;relative extrusion
M104 S141 ;Preheat Nozzle to z-probe-temp and do NOT wait (M109 = preheat and wait)
M140 S80
G4 P1000 ;preheat bed 3 minutes if bed temp is higher than 80 degree (S1 bed will bend while preheating very hot and thus give false z offset values)

G28 X Y ;home only X Y (while preheating)

G1 Y250 F6000 
G1 X47 F6000 		;Park Bin Position
G1 Y270  F6000		;Park Bin Position

M109 S181 ;wait for extruder temperature
G1 E-3 F3000 ;retract a bit
; Erster Wipe
M104 S255; start heating up hotend to final temperature and continue
M140 S80; change setpoint of the heatbed to final temperature and continue
;G1 X0 F6000
G1 Y250
G1 X84 ;wipe position left x
G1 Y270 ;wipe and park position y
G1 X98 ;wipe to the right
G1 X84 ;wipe to the left

:complex wipe
G1 Y264
G1 X98 Y275
G1 X84 Y264
G1 X98 Y264
G1 X84 Y275
G1 X81


; Park Position
G1 Y250
G1 X47 F6000 		;Park Bin Position
G1 Y270  F6000		;Park Bin Position

; Zweiter Wipe
M109 S255 ; wait for hotend final temperature
M104 S141 ; Start cooldown
M106 S255 ;fan on for Park on Rubber already(off=M107), we will wipe while the nozzle already is cooling down 
;G1 E-3 F3000 ;retract a bit
;G1 X0 F6000
G1 Y250
G1 X84 ;wipe position left x
G1 Y270 ;wipe and park position y
G1 X98 ;wipe to the right
G1 X84 ;wipe to the left

:complex wipe
G1 Y264
G1 X98 Y275
G1 X84 Y264
G1 X98 Y264
G1 X84 Y275
G1 X81

G1 Y250




G9111 bedTemp=80 extruderTemp=255
M117 Filament wird geladen...
M420 S1

T0 
M109 S255


M83 ; Extruder relativ

# Go to Purge Position
G92 E0
G1 Z5 F200
G1 Y250 F3000 # Safe y-Position

#new with kicking old Blob away
#G1 X1 F3000
#G1 Y50 F3000
G1 Z0.5 F200
G1 X1 F6000 
G1 Y1 F6000 
G1 Z5 F200
#Blob
G1 Z0.6 F200
G1 E20 F300
G4 P1000
G1 E-0.200 Z5 F600
#Purgeline
G1 X64
G1 Z0.4 F200
G1 X155 F600 E10 
G1 Y2
G1 X67 F1800 E10 
G1 Y3
M106 S255 
G1 X153 F1800 E10 
G1 E-3 F3000 
M106 S255 
G92 E0                  ; Extruder zurücksetzen
M82 ; Extruder absolut
G1 Z2.0 F3000 
M117 Druck Start...

G90
G21
M83 ; use relative distances for extrusion
; Filament gcode
M106 S0
M106 P2 S0
;LAYER_CHANGE
;Z:0.2
;HEIGHT:0.2
; BEFORE_LAYER_CHANGE 0 @ 0.2mm
G1 E-.8 F2400
; AFTER_LAYER_CHANGE 0 @ 0.2mm
;_SET_FAN_SPEED_CHANGING_LAYER
SET_VELOCITY_LIMIT ACCEL=2000 ACCEL_TO_DECEL=1000
; printing object monolayer l id:0 copy 0
EXCLUDE_OBJECT_START NAME=monolayer_l_id_0_copy_0
G1 X124.59 Y122.09 F24000
G1 Z.2
G1 Z.2
G1 E.8 F2400
;TYPE:Outer wall
;WIDTH:0.419999
G1 F3600
G1 X110.41 Y122.09 E.4446
G1 X110.41 Y107.91 E.4446
G1 X124.59 Y107.91 E.4446
G1 X124.59 Y122.05 E.44335
G1 X124.213 Y121.713 F24000
;TYPE:Inner wall
G1 F3600
G1 X110.787 Y121.713 E.42096
G1 X110.787 Y108.287 E.42096
G1 X124.213 Y108.287 E.42096
G1 X124.213 Y121.673 E.4197
G1 X123.836 Y121.336 F24000
G1 F3600
G1 X111.164 Y121.336 E.39731
G1 X111.164 Y108.664 E.39731
G1 X123.836 Y108.664 E.39731
G1 X123.836 Y121.296 E.39606
G1 E-.13333 F2400
;WIPE_START
G1 F3600
G1 X122.836 Y121.299 E-.66667
;WIPE_END
G1 X123.723 Y108.948 F24000
G1 E.8 F2400
;TYPE:Bottom surface
;WIDTH:0.421197
G1 F4743
G1 X111.447 Y108.948 E.38612
G1 X111.447 Y109.326 E.0119
G1 X123.553 Y109.326 E.38078
G1 X123.553 Y109.704 E.0119
G1 X111.447 Y109.704 E.38078
G1 X111.447 Y110.082 E.0119
G1 X123.553 Y110.082 E.38078
G1 X123.553 Y110.461 E.0119
G1 X111.447 Y110.461 E.38078
G1 X111.447 Y110.839 E.0119
G1 X123.553 Y110.839 E.38078
G1 X123.553 Y111.217 E.0119
G1 X111.447 Y111.217 E.38078
G1 X111.447 Y111.596 E.0119
G1 X123.553 Y111.596 E.38078
G1 X123.553 Y111.974 E.0119
G1 X111.447 Y111.974 E.38078
G1 X111.447 Y112.352 E.0119
G1 X123.553 Y112.352 E.38078
G1 X123.553 Y112.73 E.0119
G1 X111.447 Y112.73 E.38078
G1 X111.447 Y113.109 E.0119
G1 X123.553 Y113.109 E.38078
G1 X123.553 Y113.487 E.0119
G1 X111.447 Y113.487 E.38078
G1 X111.447 Y113.865 E.0119
G1 X123.553 Y113.865 E.38078
G1 X123.553 Y114.243 E.0119
G1 X111.447 Y114.243 E.38078
G1 X111.447 Y114.622 E.0119
G1 X123.553 Y114.622 E.38078
G1 X123.553 Y115 E.0119
G1 X111.447 Y115 E.38078
G1 X111.447 Y115.378 E.0119
G1 X123.553 Y115.378 E.38078
G1 X123.553 Y115.757 E.0119
G1 X111.447 Y115.757 E.38078
G1 X111.447 Y116.135 E.0119
G1 X123.553 Y116.135 E.38078
G1 X123.553 Y116.513 E.0119
G1 X111.447 Y116.513 E.38078
G1 X111.447 Y116.891 E.0119
G1 X123.553 Y116.891 E.38078
G1 X123.553 Y117.27 E.0119
G1 X111.447 Y117.27 E.38078
G1 X111.447 Y117.648 E.0119
G1 X123.553 Y117.648 E.38078
G1 X123.553 Y118.026 E.0119
G1 X111.447 Y118.026 E.38078
G1 X111.447 Y118.405 E.0119
G1 X123.553 Y118.405 E.38078
G1 X123.553 Y118.783 E.0119
G1 X111.447 Y118.783 E.38078
G1 X111.447 Y119.161 E.0119
G1 X123.553 Y119.161 E.38078
G1 X123.553 Y119.539 E.0119
G1 X111.447 Y119.539 E.38078
G1 X111.447 Y119.918 E.0119
G1 X123.553 Y119.918 E.38078
G1 X123.553 Y120.296 E.0119
G1 X111.447 Y120.296 E.38078
G1 X111.447 Y120.674 E.0119
G1 X123.553 Y120.674 E.38078
G1 X123.553 Y121.052 E.0119
G1 X111.277 Y121.052 E.38612
; stop printing object monolayer l id:0 copy 0
;LAYER_CHANGE
;Z:0.44
;HEIGHT:0.24
; BEFORE_LAYER_CHANGE 1 @ 0.44mm
G1 E-.4 F2400
;WIPE_START
G1 F6000
G1 X112.277 Y121.052 E-.4
;WIPE_END
EXCLUDE_OBJECT_END NAME=monolayer_l_id_0_copy_0
; AFTER_LAYER_CHANGE 1 @ 0.44mm
;_SET_FAN_SPEED_CHANGING_LAYER
SET_VELOCITY_LIMIT ACCEL=7000 ACCEL_TO_DECEL=3500
M140 S80 ; set bed temperature
; printing object monolayer l id:0 copy 0
EXCLUDE_OBJECT_START NAME=monolayer_l_id_0_copy_0
G1 X119.873 Y121.804 Z.84 F24000
G1 X124.79 Y122.29 Z.84
G1 Z.44
G1 E.8 F2400
SET_VELOCITY_LIMIT ACCEL=4000 ACCEL_TO_DECEL=2000
;TYPE:Outer wall
;WIDTH:0.419999
G1 F4306
G1 X110.21 Y122.29 E.53609
G1 X110.21 Y107.71 E.53609
G1 X124.79 Y107.71 E.53609
G1 X124.79 Y122.25 E.53462
SET_VELOCITY_LIMIT ACCEL=7000 ACCEL_TO_DECEL=3500
G1 X124.407 Y121.907 F24000
SET_VELOCITY_LIMIT ACCEL=6000 ACCEL_TO_DECEL=3000
;TYPE:Inner wall
;WIDTH:0.449999
G1 F4306
G1 X110.593 Y121.907 E.54923
G1 X110.593 Y108.093 E.54923
G1 X124.407 Y108.093 E.54923
G1 X124.407 Y121.867 E.54764
SET_VELOCITY_LIMIT ACCEL=7000 ACCEL_TO_DECEL=3500
G1 X124.008 Y121.508 F24000
SET_VELOCITY_LIMIT ACCEL=6000 ACCEL_TO_DECEL=3000
G1 F4306
G1 X110.992 Y121.508 E.51754
G1 X110.992 Y108.492 E.51754
G1 X124.008 Y108.492 E.51754
G1 X124.008 Y121.468 E.51595
SET_VELOCITY_LIMIT ACCEL=7000 ACCEL_TO_DECEL=3500
G1 X123.65 Y121.329 F24000
SET_VELOCITY_LIMIT ACCEL=8000 ACCEL_TO_DECEL=4000
;TYPE:Internal solid infill
;WIDTH:0.448292
G1 F4306
G1 X123.65 Y108.846 E.49424
G1 X123.253 Y108.846 E.01571
G1 X123.253 Y121.154 E.48732
G1 X122.857 Y121.154 E.01571
G1 X122.857 Y108.846 E.48732
G1 X122.46 Y108.846 E.01571
G1 X122.46 Y121.154 E.48732
G1 X122.063 Y121.154 E.01571
G1 X122.063 Y108.846 E.48732
G1 X121.666 Y108.846 E.01571
G1 X121.666 Y121.154 E.48732
G1 X121.269 Y121.154 E.01571
G1 X121.269 Y108.846 E.48732
G1 X120.873 Y108.846 E.01571
G1 X120.873 Y121.154 E.48732
G1 X120.476 Y121.154 E.01571
G1 X120.476 Y108.846 E.48732
G1 X120.079 Y108.846 E.01571
G1 X120.079 Y121.154 E.48732
G1 X119.682 Y121.154 E.01571
G1 X119.682 Y108.846 E.48732
G1 X119.286 Y108.846 E.01571
G1 X119.286 Y121.154 E.48732
G1 X118.889 Y121.154 E.01571
G1 X118.889 Y108.846 E.48732
G1 X118.492 Y108.846 E.01571
G1 X118.492 Y121.154 E.48732
G1 X118.095 Y121.154 E.01571
G1 X118.095 Y108.846 E.48732
G1 X117.698 Y108.846 E.01571
G1 X117.698 Y121.154 E.48732
G1 X117.302 Y121.154 E.01571
G1 X117.302 Y108.846 E.48732
G1 X116.905 Y108.846 E.01571
G1 X116.905 Y121.154 E.48732
G1 X116.508 Y121.154 E.01571
G1 X116.508 Y108.846 E.48732
G1 X116.111 Y108.846 E.01571
G1 X116.111 Y121.154 E.48732
G1 X115.714 Y121.154 E.01571
G1 X115.714 Y108.846 E.48732
G1 X115.318 Y108.846 E.01571
G1 X115.318 Y121.154 E.48732
G1 X114.921 Y121.154 E.01571
G1 X114.921 Y108.846 E.48732
G1 X114.524 Y108.846 E.01571
G1 X114.524 Y121.154 E.48732
G1 X114.127 Y121.154 E.01571
G1 X114.127 Y108.846 E.48732
G1 X113.73 Y108.846 E.01571
G1 X113.73 Y121.154 E.48732
G1 X113.334 Y121.154 E.01571
G1 X113.334 Y108.846 E.48732
G1 X112.937 Y108.846 E.01571
G1 X112.937 Y121.154 E.48732
G1 X112.54 Y121.154 E.01571
G1 X112.54 Y108.846 E.48732
G1 X112.143 Y108.846 E.01571
G1 X112.143 Y121.154 E.48732
G1 X111.747 Y121.154 E.01571
G1 X111.747 Y108.846 E.48732
G1 X111.35 Y108.846 E.01571
G1 X111.35 Y121.329 E.49424
; stop printing object monolayer l id:0 copy 0
;LAYER_CHANGE
;Z:0.68
;HEIGHT:0.24
; BEFORE_LAYER_CHANGE 2 @ 0.68mm
G1 E-.46877 F2400
;WIPE_START
G1 F7245.683
G1 X111.35 Y120.329 E-.33123
;WIPE_END
EXCLUDE_OBJECT_END NAME=monolayer_l_id_0_copy_0
; AFTER_LAYER_CHANGE 2 @ 0.68mm
;_SET_FAN_SPEED_CHANGING_LAYER
; printing object monolayer l id:0 copy 0
SET_VELOCITY_LIMIT ACCEL=7000 ACCEL_TO_DECEL=3500
EXCLUDE_OBJECT_START NAME=monolayer_l_id_0_copy_0
G1 F24000
G1 X111.889 Y120.549 Z0.710769
G1 X112.265 Y120.994 Z0.741538
G1 X112.391 Y121.563 Z0.772308
G1 X112.238 Y122.125 Z0.803077
G1 X111.841 Y122.551 Z0.833846
G1 X111.292 Y122.745 Z0.864615
G1 X110.715 Y122.661 Z0.895385
G1 X110.244 Y122.318 Z0.926154
G1 X109.986 Y121.796 Z0.956923
G1 X110 Y121.214 Z0.987692
G1 X110.283 Y120.705 Z1.01846
G1 X110.77 Y120.385 Z1.04923
G1 X111.35 Y120.329 Z1.08
G1 X124.79 Y122.29 Z1.08
G1 Z.68
G1 E.8 F2400
SET_VELOCITY_LIMIT ACCEL=4000 ACCEL_TO_DECEL=2000
;TYPE:Outer wall
;WIDTH:0.419999
G1 F4340
G1 X110.21 Y122.29 E.53609
G1 X110.21 Y107.71 E.53609
G1 X124.79 Y107.71 E.53609
G1 X124.79 Y122.25 E.53462
SET_VELOCITY_LIMIT ACCEL=7000 ACCEL_TO_DECEL=3500
G1 X124.407 Y121.907 F24000
SET_VELOCITY_LIMIT ACCEL=6000 ACCEL_TO_DECEL=3000
;TYPE:Inner wall
;WIDTH:0.449999
G1 F4340
G1 X110.593 Y121.907 E.54923
G1 X110.593 Y108.093 E.54923
G1 X124.407 Y108.093 E.54923
G1 X124.407 Y121.867 E.54764
SET_VELOCITY_LIMIT ACCEL=7000 ACCEL_TO_DECEL=3500
G1 X124.008 Y121.508 F24000
SET_VELOCITY_LIMIT ACCEL=6000 ACCEL_TO_DECEL=3000
G1 F4340
G1 X110.992 Y121.508 E.51754
G1 X110.992 Y108.492 E.51754
G1 X124.008 Y108.492 E.51754
G1 X124.008 Y121.468 E.51595
SET_VELOCITY_LIMIT ACCEL=7000 ACCEL_TO_DECEL=3500
G1 X123.829 Y108.85 F24000
SET_VELOCITY_LIMIT ACCEL=8000 ACCEL_TO_DECEL=4000
;TYPE:Internal solid infill
;WIDTH:0.448292
G1 F4340
G1 X111.346 Y108.85 E.49424
G1 X111.346 Y109.247 E.01571
G1 X123.654 Y109.247 E.48732
G1 X123.654 Y109.643 E.01571
G1 X111.346 Y109.643 E.48732
G1 X111.346 Y110.04 E.01571
G1 X123.654 Y110.04 E.48732
G1 X123.654 Y110.437 E.01571
G1 X111.346 Y110.437 E.48732
G1 X111.346 Y110.834 E.01571
G1 X123.654 Y110.834 E.48732
G1 X123.654 Y111.231 E.01571
G1 X111.346 Y111.231 E.48732
G1 X111.346 Y111.627 E.01571
G1 X123.654 Y111.627 E.48732
G1 X123.654 Y112.024 E.01571
G1 X111.346 Y112.024 E.48732
G1 X111.346 Y112.421 E.01571
G1 X123.654 Y112.421 E.48732
G1 X123.654 Y112.818 E.01571
G1 X111.346 Y112.818 E.48732
G1 X111.346 Y113.214 E.01571
G1 X123.654 Y113.215 E.48732
G1 X123.654 Y113.611 E.01571
G1 X111.346 Y113.611 E.48732
G1 X111.346 Y114.008 E.01571
G1 X123.654 Y114.008 E.48732
G1 X123.654 Y114.405 E.01571
G1 X111.346 Y114.405 E.48732
G1 X111.346 Y114.802 E.01571
G1 X123.654 Y114.802 E.48732
G1 X123.654 Y115.198 E.01571
G1 X111.346 Y115.198 E.48732
G1 X111.346 Y115.595 E.01571
G1 X123.654 Y115.595 E.48732
G1 X123.654 Y115.992 E.01571
G1 X111.346 Y115.992 E.48732
G1 X111.346 Y116.389 E.01571
G1 X123.654 Y116.389 E.48732
G1 X123.654 Y116.786 E.01571
G1 X111.346 Y116.786 E.48732
G1 X111.346 Y117.182 E.01571
G1 X123.654 Y117.182 E.48732
G1 X123.654 Y117.579 E.01571
G1 X111.346 Y117.579 E.48732
G1 X111.346 Y117.976 E.01571
G1 X123.654 Y117.976 E.48732
G1 X123.654 Y118.373 E.01571
G1 X111.346 Y118.373 E.48732
G1 X111.346 Y118.77 E.01571
G1 X123.654 Y118.77 E.48732
G1 X123.654 Y119.166 E.01571
G1 X111.346 Y119.166 E.48732
G1 X111.346 Y119.563 E.01571
G1 X123.654 Y119.563 E.48732
G1 X123.654 Y119.96 E.01571
G1 X111.346 Y119.96 E.48732
G1 X111.346 Y120.357 E.01571
G1 X123.654 Y120.357 E.48732
G1 X123.654 Y120.753 E.01571
G1 X111.346 Y120.753 E.48732
G1 X111.346 Y121.15 E.01571
G1 X123.829 Y121.15 E.49424
; stop printing object monolayer l id:0 copy 0
M106 S99
;LAYER_CHANGE
;Z:0.92
;HEIGHT:0.24
; BEFORE_LAYER_CHANGE 3 @ 0.92mm
G1 E-.46877 F2400
;WIPE_START
G1 F7245.683
G1 X122.829 Y121.15 E-.33123
;WIPE_END
EXCLUDE_OBJECT_END NAME=monolayer_l_id_0_copy_0
; AFTER_LAYER_CHANGE 3 @ 0.92mm
;_SET_FAN_SPEED_CHANGING_LAYER
; printing object monolayer l id:0 copy 0
SET_VELOCITY_LIMIT ACCEL=7000 ACCEL_TO_DECEL=3500
EXCLUDE_OBJECT_START NAME=monolayer_l_id_0_copy_0
G1 F24000
G1 X123.248 Y121.555 Z0.950769
G1 X123.431 Y122.108 Z0.981538
G1 X123.336 Y122.683 Z1.01231
G1 X122.985 Y123.147 Z1.04308
G1 X122.458 Y123.395 Z1.07385
G1 X121.876 Y123.37 Z1.10462
G1 X121.372 Y123.078 Z1.13538
G1 X121.062 Y122.584 Z1.16615
G1 X121.017 Y122.004 Z1.19692
G1 X121.247 Y121.468 Z1.22769
G1 X121.699 Y121.101 Z1.25846
G1 X122.27 Y120.987 Z1.28923
G1 X122.829 Y121.15 Z1.32
G1 X124.79 Y122.29 Z1.32
G1 Z.92
G1 E.8 F2400
SET_VELOCITY_LIMIT ACCEL=4000 ACCEL_TO_DECEL=2000
;TYPE:Outer wall
;WIDTH:0.419999
G1 F4306
G1 X110.21 Y122.29 E.53609
G1 X110.21 Y107.71 E.53609
G1 X124.79 Y107.71 E.53609
G1 X124.79 Y122.25 E.53462
SET_VELOCITY_LIMIT ACCEL=7000 ACCEL_TO_DECEL=3500
G1 X124.407 Y121.907 F24000
SET_VELOCITY_LIMIT ACCEL=6000 ACCEL_TO_DECEL=3000
;TYPE:Inner wall
;WIDTH:0.449999
G1 F4306
G1 X110.593 Y121.907 E.54923
G1 X110.593 Y108.093 E.54923
G1 X124.407 Y108.093 E.54923
G1 X124.407 Y121.867 E.54764
SET_VELOCITY_LIMIT ACCEL=7000 ACCEL_TO_DECEL=3500
G1 X124.008 Y121.508 F24000
SET_VELOCITY_LIMIT ACCEL=6000 ACCEL_TO_DECEL=3000
G1 F4306
G1 X110.992 Y121.508 E.51754
G1 X110.992 Y108.492 E.51754
G1 X124.008 Y108.492 E.51754
G1 X124.008 Y121.468 E.51595
SET_VELOCITY_LIMIT ACCEL=7000 ACCEL_TO_DECEL=3500
G1 X123.65 Y121.329 F24000
SET_VELOCITY_LIMIT ACCEL=8000 ACCEL_TO_DECEL=4000
;TYPE:Internal solid infill
;WIDTH:0.448292
G1 F4306
G1 X123.65 Y108.846 E.49424
G1 X123.253 Y108.846 E.01571
G1 X123.253 Y121.154 E.48732
G1 X122.857 Y121.154 E.01571
G1 X122.857 Y108.846 E.48732
G1 X122.46 Y108.846 E.01571
G1 X122.46 Y121.154 E.48732
G1 X122.063 Y121.154 E.01571
G1 X122.063 Y108.846 E.48732
G1 X121.666 Y108.846 E.01571
G1 X121.666 Y121.154 E.48732
G1 X121.269 Y121.154 E.01571
G1 X121.269 Y108.846 E.48732
G1 X120.873 Y108.846 E.01571
G1 X120.873 Y121.154 E.48732
G1 X120.476 Y121.154 E.01571
G1 X120.476 Y108.846 E.48732
G1 X120.079 Y108.846 E.01571
G1 X120.079 Y121.154 E.48732
G1 X119.682 Y121.154 E.01571
G1 X119.682 Y108.846 E.48732
G1 X119.286 Y108.846 E.01571
G1 X119.286 Y121.154 E.48732
G1 X118.889 Y121.154 E.01571
G1 X118.889 Y108.846 E.48732
G1 X118.492 Y108.846 E.01571
G1 X118.492 Y121.154 E.48732
G1 X118.095 Y121.154 E.01571
G1 X118.095 Y108.846 E.48732
