; HEADER_BLOCK_START
; generated by OrcaSlicer-WaveOverhangs 2.4.0-dev on 2026-05-07 at 14:52:59
; WAVE_OVERHANG_BUILD wave_overhangs_version=0.3.2 orca_base=2.4.0-dev
; WAVE_OVERHANG_CONFIG region=0 algo=andersons outer_perim=1 spacing=0.380 flow_mm3_per_mm=0.180 speed=2.0 travel=40.0 fan=100 floor_layers=2 min_angle=0.0 min_length=0.00 max_iterations=0 ring_overlap=0.15 pattern=zigzag spacing_mode=uniform seam_mode=alternating perimeter_overlap=0.10 minimum_wave_width=0.70 min_new_area=0.0100 corner_enable=0 corner_spacing=0.000 corner_taper=0.00 corner_angle=90 end_retract=0.00 nozzle_temp_override=240 min_wave_time=0.00 min_layer_time=0.00 wall_loops=3 top_shell_layers=5 bottom_shell_layers=4 infill_density=15 infill_pattern=rectilinear support_remainder=1 instead_of_bridges=0
; total layer number: 43
; filament_density: 1.27
; filament_diameter: 1.75
; max_z_height: 10.28
; filament: 1
; HEADER_BLOCK_END

; THUMBNAIL_BLOCK_START

;
; THUMBNAIL_BLOCK_END

; external perimeters extrusion width = 0.42mm
; perimeters extrusion width = 0.45mm
; infill extrusion width = 0.44mm
; solid infill extrusion width = 0.44mm
; top infill extrusion width = 0.38mm
; first layer extrusion width = 0.42mm

; EXECUTABLE_BLOCK_START
EXCLUDE_OBJECT_DEFINE NAME=monolayer_l_id_0_copy_0 CENTER=124.552,112.129 POLYGON=[[109.552,94.629],[124.552,94.629],[139.552,114.629],[139.552,129.629],[109.552,129.629],[109.552,94.629]]
M73 P0 R17
M106 S0
M106 P2 S0
;TYPE:Custom
G9111 bedTemp=80 extruderTemp=255
M117
G90
G21
M83 ; use relative distances for extrusion
; Filament gcode
M106 S0
M106 P2 S0
;LAYER_CHANGE
;Z:0.2
;HEIGHT:0.2
 ; PURGE LINE
M204 P500
SET_VELOCITY_LIMIT SQUARE_CORNER_VELOCITY=9
G1 Z0.50 F900 ; for object exclusion
G1 X89.365 Y255 F18000
G1 Z.25 F900
G1 E0.8 F2400
G1 E0.6
G1 F3000
G1 X158.835 Y255 E3.72454
G1 X158.835 Y255.45 E.0252
G1 X89.365 Y255.45 E3.72454
G1 X89.365 Y255.02 E.02305
G1 Z0.5 F600

G1 E-.8 F2400
; AFTER_LAYER_CHANGE 0 @ 0.2mm
;_SET_FAN_SPEED_CHANGING_LAYER
SET_VELOCITY_LIMIT ACCEL=2000 ACCEL_TO_DECEL=1000
; printing object monolayer l id:0 copy 0
EXCLUDE_OBJECT_START NAME=monolayer_l_id_0_copy_0
G1 X124.142 Y109.219 F24000
G1 Z.6
G1 Z.2
G1 E.8 F2400
;TYPE:Outer wall
;WIDTH:0.419999
G1 F3600
G1 X109.962 Y109.219 E.4446
G1 X109.962 Y95.039 E.4446
G1 X124.142 Y95.039 E.4446
G1 X124.142 Y109.179 E.44335
G1 X123.765 Y108.842 F24000
;TYPE:Inner wall
G1 F3600
G1 X110.339 Y108.842 E.42096
G1 X110.339 Y95.416 E.42096
G1 X123.765 Y95.416 E.42096
G1 X123.765 Y108.802 E.4197
G1 X123.387 Y108.465 F24000
G1 F3600
G1 X110.716 Y108.465 E.39731
G1 X110.716 Y95.793 E.39731
G1 X123.387 Y95.793 E.39731
G1 X123.387 Y108.425 E.39606
G1 E-.13333 F2400
;WIPE_START
G1 F3600
G1 X122.387 Y108.428 E-.66667
;WIPE_END
G1 X122.934 Y100.815 Z.6 F24000
G1 X123.274 Y96.077 Z.6
G1 Z.2
G1 E.8 F2400
;TYPE:Bottom surface
;WIDTH:0.421197
G1 F4744
G1 X110.999 Y96.077 E.38612
G1 X110.999 Y96.455 E.0119
G1 X123.105 Y96.455 E.38078
G1 X123.105 Y96.833 E.0119
G1 X110.999 Y96.833 E.38078
G1 X110.999 Y97.211 E.0119
G1 X123.105 Y97.211 E.38078
G1 X123.105 Y97.59 E.0119
G1 X110.999 Y97.59 E.38078
G1 X110.999 Y97.968 E.0119
G1 X123.105 Y97.968 E.38078
G1 X123.105 Y98.346 E.0119
G1 X110.999 Y98.346 E.38078
G1 X110.999 Y98.725 E.0119
G1 X123.105 Y98.725 E.38078
G1 X123.105 Y99.103 E.0119
G1 X110.999 Y99.103 E.38078
G1 X110.999 Y99.481 E.0119
G1 X123.105 Y99.481 E.38078
G1 X123.105 Y99.859 E.0119
G1 X110.999 Y99.859 E.38078
G1 X110.999 Y100.238 E.0119
G1 X123.105 Y100.238 E.38078
G1 X123.105 Y100.616 E.0119
M73 P1 R17
G1 X110.999 Y100.616 E.38078
G1 X110.999 Y100.994 E.0119
G1 X123.105 Y100.994 E.38078
G1 X123.105 Y101.372 E.0119
G1 X110.999 Y101.372 E.38078
G1 X110.999 Y101.751 E.0119
G1 X123.105 Y101.751 E.38078
G1 X123.105 Y102.129 E.0119
G1 X110.999 Y102.129 E.38078
G1 X110.999 Y102.507 E.0119
G1 X123.105 Y102.507 E.38078
G1 X123.105 Y102.886 E.0119
G1 X110.999 Y102.886 E.38078
G1 X110.999 Y103.264 E.0119
G1 X123.105 Y103.264 E.38078
G1 X123.105 Y103.642 E.0119
G1 X110.999 Y103.642 E.38078
G1 X110.999 Y104.02 E.0119
G1 X123.105 Y104.02 E.38078
G1 X123.105 Y104.399 E.0119
G1 X110.999 Y104.399 E.38078
G1 X110.999 Y104.777 E.0119
G1 X123.105 Y104.777 E.38078
G1 X123.105 Y105.155 E.0119
G1 X110.999 Y105.155 E.38078
G1 X110.999 Y105.534 E.0119
G1 X123.105 Y105.534 E.38078
G1 X123.105 Y105.912 E.0119
G1 X110.999 Y105.912 E.38078
G1 X110.999 Y106.29 E.0119
G1 X123.105 Y106.29 E.38078
G1 X123.105 Y106.668 E.0119
G1 X110.999 Y106.668 E.38078
G1 X110.999 Y107.047 E.0119
G1 X123.105 Y107.047 E.38078
G1 X123.105 Y107.425 E.0119
G1 X110.999 Y107.425 E.38078
G1 X110.999 Y107.803 E.0119
G1 X123.105 Y107.803 E.38078
G1 X123.105 Y108.181 E.0119
G1 X110.829 Y108.181 E.38612
; stop printing object monolayer l id:0 copy 0
;LAYER_CHANGE
;Z:0.44
;HEIGHT:0.24

G1 E-.4 F2400
;WIPE_START
G1 F6000
G1 X111.829 Y108.181 E-.4
;WIPE_END
EXCLUDE_OBJECT_END NAME=monolayer_l_id_0_copy_0
; AFTER_LAYER_CHANGE 1 @ 0.44mm
;_SET_FAN_SPEED_CHANGING_LAYER
SET_VELOCITY_LIMIT ACCEL=7000 ACCEL_TO_DECEL=3500
M140 S80 ; set bed temperature
; printing object monolayer l id:0 copy 0
EXCLUDE_OBJECT_START NAME=monolayer_l_id_0_copy_0
G1 X119.424 Y108.933 Z.84 F24000
G1 X124.342 Y109.419 Z.84
G1 Z.44
G1 E.8 F2400
SET_VELOCITY_LIMIT ACCEL=4000 ACCEL_TO_DECEL=2000
;TYPE:Outer wall
;WIDTH:0.419999
G1 F4306
G1 X109.762 Y109.419 E.53609
G1 X109.762 Y94.839 E.53609
G1 X124.342 Y94.839 E.53609
G1 X124.342 Y109.379 E.53462
SET_VELOCITY_LIMIT ACCEL=7000 ACCEL_TO_DECEL=3500
G1 X123.958 Y109.035 F24000
SET_VELOCITY_LIMIT ACCEL=6000 ACCEL_TO_DECEL=3000
;TYPE:Inner wall
;WIDTH:0.449999
G1 F4306
G1 X110.145 Y109.035 E.54923
G1 X110.145 Y95.222 E.54923
G1 X123.958 Y95.222 E.54923
G1 X123.958 Y108.995 E.54764
SET_VELOCITY_LIMIT ACCEL=7000 ACCEL_TO_DECEL=3500
G1 X123.56 Y108.637 F24000
SET_VELOCITY_LIMIT ACCEL=6000 ACCEL_TO_DECEL=3000
G1 F4306
G1 X110.544 Y108.637 E.51754
G1 X110.544 Y95.621 E.51754
G1 X123.56 Y95.621 E.51754
G1 X123.56 Y108.597 E.51595
SET_VELOCITY_LIMIT ACCEL=7000 ACCEL_TO_DECEL=3500
G1 X123.202 Y108.458 F24000
SET_VELOCITY_LIMIT ACCEL=8000 ACCEL_TO_DECEL=4000
;TYPE:Internal solid infill
;WIDTH:0.448292
G1 F4306
G1 X123.202 Y95.975 E.49424
G1 X122.805 Y95.975 E.01571
G1 X122.805 Y108.283 E.48732
G1 X122.408 Y108.283 E.01571
G1 X122.408 Y95.975 E.48732
G1 X122.011 Y95.975 E.01571
G1 X122.011 Y108.283 E.48732
G1 X121.615 Y108.283 E.01571
G1 X121.615 Y95.975 E.48732
G1 X121.218 Y95.975 E.01571
G1 X121.218 Y108.283 E.48732
G1 X120.821 Y108.283 E.01571
G1 X120.821 Y95.975 E.48732
G1 X120.424 Y95.975 E.01571
G1 X120.424 Y108.283 E.48732
G1 X120.027 Y108.283 E.01571
G1 X120.027 Y95.975 E.48732
G1 X119.631 Y95.975 E.01571
G1 X119.631 Y108.283 E.48732
G1 X119.234 Y108.283 E.01571
G1 X119.234 Y95.975 E.48732
G1 X118.837 Y95.975 E.01571
G1 X118.837 Y108.283 E.48732
G1 X118.44 Y108.283 E.01571
G1 X118.44 Y95.975 E.48732
G1 X118.044 Y95.975 E.01571
G1 X118.044 Y108.283 E.48732
G1 X117.647 Y108.283 E.01571
G1 X117.647 Y95.975 E.48732
G1 X117.25 Y95.975 E.01571
M73 P1 R16
G1 X117.25 Y108.283 E.48732
G1 X116.853 Y108.283 E.01571
G1 X116.853 Y95.975 E.48732
G1 X116.456 Y95.975 E.01571
G1 X116.456 Y108.283 E.48732
G1 X116.06 Y108.283 E.01571
M73 P2 R16
G1 X116.06 Y95.975 E.48732
G1 X115.663 Y95.975 E.01571
G1 X115.663 Y108.283 E.48732
G1 X115.266 Y108.283 E.01571
G1 X115.266 Y95.975 E.48732
G1 X114.869 Y95.975 E.01571
G1 X114.869 Y108.283 E.48732
G1 X114.472 Y108.283 E.01571
G1 X114.472 Y95.975 E.48732
G1 X114.076 Y95.975 E.01571
G1 X114.076 Y108.283 E.48732
G1 X113.679 Y108.283 E.01571
G1 X113.679 Y95.975 E.48732
G1 X113.282 Y95.975 E.01571
G1 X113.282 Y108.283 E.48732
G1 X112.885 Y108.283 E.01571
G1 X112.885 Y95.975 E.48732
G1 X112.488 Y95.975 E.01571
G1 X112.488 Y108.283 E.48732
G1 X112.092 Y108.283 E.01571
G1 X112.092 Y95.975 E.48732
G1 X111.695 Y95.975 E.01571
G1 X111.695 Y108.283 E.48732
G1 X111.298 Y108.283 E.01571
G1 X111.298 Y95.975 E.48732
G1 X110.901 Y95.975 E.01571
G1 X110.901 Y108.458 E.49424
; stop printing object monolayer l id:0 copy 0
;LAYER_CHANGE
;Z:0.68
;HEIGHT:0.24

G1 E-.46877 F2400
;WIPE_START
G1 F7245.683
G1 X110.901 Y107.458 E-.33123
;WIPE_END
EXCLUDE_OBJECT_END NAME=monolayer_l_id_0_copy_0
; AFTER_LAYER_CHANGE 2 @ 0.68mm
;_SET_FAN_SPEED_CHANGING_LAYER
; printing object monolayer l id:0 copy 0
SET_VELOCITY_LIMIT ACCEL=7000 ACCEL_TO_DECEL=3500
EXCLUDE_OBJECT_START NAME=monolayer_l_id_0_copy_0
G1 X118.454 Y108.56 Z1.08 F24000
G1 X124.342 Y109.419 Z1.08
G1 Z.68
G1 E.8 F2400
SET_VELOCITY_LIMIT ACCEL=4000 ACCEL_TO_DECEL=2000
;TYPE:Outer wall
;WIDTH:0.419999
G1 F4341
G1 X109.762 Y109.419 E.53609
G1 X109.762 Y94.839 E.53609
G1 X124.342 Y94.839 E.53609
G1 X124.342 Y109.379 E.53462
SET_VELOCITY_LIMIT ACCEL=7000 ACCEL_TO_DECEL=3500
G1 X123.958 Y109.035 F24000
SET_VELOCITY_LIMIT ACCEL=6000 ACCEL_TO_DECEL=3000
;TYPE:Inner wall
;WIDTH:0.449999
G1 F4341
G1 X110.145 Y109.035 E.54923
G1 X110.145 Y95.222 E.54923
G1 X123.958 Y95.222 E.54923
G1 X123.958 Y108.995 E.54764
SET_VELOCITY_LIMIT ACCEL=7000 ACCEL_TO_DECEL=3500
G1 X123.56 Y108.637 F24000
SET_VELOCITY_LIMIT ACCEL=6000 ACCEL_TO_DECEL=3000
G1 F4341
G1 X110.544 Y108.637 E.51754
G1 X110.544 Y95.621 E.51754
G1 X123.56 Y95.621 E.51754
G1 X123.56 Y108.597 E.51595
SET_VELOCITY_LIMIT ACCEL=7000 ACCEL_TO_DECEL=3500
G1 X123.381 Y95.979 F24000
SET_VELOCITY_LIMIT ACCEL=8000 ACCEL_TO_DECEL=4000
;TYPE:Internal solid infill
;WIDTH:0.448292
G1 F4341
G1 X110.897 Y95.979 E.49424
G1 X110.897 Y96.376 E.01571
G1 X123.206 Y96.376 E.48732
G1 X123.206 Y96.772 E.01571
G1 X110.897 Y96.772 E.48732
G1 X110.897 Y97.169 E.01571
G1 X123.206 Y97.169 E.48732
G1 X123.206 Y97.566 E.01571
G1 X110.897 Y97.566 E.48732
G1 X110.897 Y97.963 E.01571
G1 X123.206 Y97.963 E.48732
G1 X123.206 Y98.36 E.01571
G1 X110.897 Y98.36 E.48732
G1 X110.897 Y98.756 E.01571
G1 X123.206 Y98.756 E.48732
G1 X123.206 Y99.153 E.01571
G1 X110.897 Y99.153 E.48732
G1 X110.897 Y99.55 E.01571
G1 X123.206 Y99.55 E.48732
G1 X123.206 Y99.947 E.01571
G1 X110.897 Y99.947 E.48732
G1 X110.897 Y100.343 E.01571
G1 X123.206 Y100.343 E.48732
G1 X123.206 Y100.74 E.01571
G1 X110.897 Y100.74 E.48732
G1 X110.897 Y101.137 E.01571
G1 X123.206 Y101.137 E.48732
G1 X123.206 Y101.534 E.01571
G1 X110.897 Y101.534 E.48732
G1 X110.897 Y101.931 E.01571
G1 X123.206 Y101.931 E.48732
G1 X123.206 Y102.327 E.01571
G1 X110.897 Y102.327 E.48732
G1 X110.897 Y102.724 E.01571
G1 X123.206 Y102.724 E.48732
G1 X123.206 Y103.121 E.01571
G1 X110.897 Y103.121 E.48732
G1 X110.897 Y103.518 E.01571
G1 X123.206 Y103.518 E.48732
G1 X123.206 Y103.915 E.01571
G1 X110.897 Y103.915 E.48732
G1 X110.897 Y104.311 E.01571
G1 X123.206 Y104.311 E.48732
G1 X123.206 Y104.708 E.01571
G1 X110.897 Y104.708 E.48732
G1 X110.897 Y105.105 E.01571
G1 X123.206 Y105.105 E.48732
G1 X123.206 Y105.502 E.01571
G1 X110.897 Y105.502 E.48732
G1 X110.897 Y105.899 E.01571
G1 X123.206 Y105.899 E.48732
G1 X123.206 Y106.295 E.01571
M73 P3 R16
G1 X110.897 Y106.295 E.48732
G1 X110.897 Y106.692 E.01571
G1 X123.206 Y106.692 E.48732
G1 X123.206 Y107.089 E.01571
G1 X110.897 Y107.089 E.48732
G1 X110.897 Y107.486 E.01571
G1 X123.206 Y107.486 E.48732
G1 X123.206 Y107.882 E.01571
G1 X110.897 Y107.882 E.48732
G1 X110.897 Y108.279 E.01571
G1 X123.381 Y108.279 E.49424
; stop printing object monolayer l id:0 copy 0
M106 S99
;LAYER_CHANGE
;Z:0.92
;HEIGHT:0.24

G1 E-.46877 F2400
;WIPE_START
G1 F7245.683
G1 X122.381 Y108.279 E-.33123
;WIPE_END
EXCLUDE_OBJECT_END NAME=monolayer_l_id_0_copy_0
; AFTER_LAYER_CHANGE 3 @ 0.92mm
;_SET_FAN_SPEED_CHANGING_LAYER
; printing object monolayer l id:0 copy 0
SET_VELOCITY_LIMIT ACCEL=7000 ACCEL_TO_DECEL=3500
EXCLUDE_OBJECT_START NAME=monolayer_l_id_0_copy_0
G1 X124.342 Y109.419 Z1.32 F24000
G1 Z.92
G1 E.8 F2400
SET_VELOCITY_LIMIT ACCEL=4000 ACCEL_TO_DECEL=2000
;TYPE:Outer wall
;WIDTH:0.419999
G1 F4306
G1 X109.762 Y109.419 E.53609
G1 X109.762 Y94.839 E.53609
G1 X124.342 Y94.839 E.53609
G1 X124.342 Y109.379 E.53462
SET_VELOCITY_LIMIT ACCEL=7000 ACCEL_TO_DECEL=3500
G1 X123.958 Y109.035 F24000
SET_VELOCITY_LIMIT ACCEL=6000 ACCEL_TO_DECEL=3000
;TYPE:Inner wall
;WIDTH:0.449999
G1 F4306
G1 X110.145 Y109.035 E.54923
G1 X110.145 Y95.222 E.54923
G1 X123.958 Y95.222 E.54923
G1 X123.958 Y108.995 E.54764
SET_VELOCITY_LIMIT ACCEL=7000 ACCEL_TO_DECEL=3500
G1 X123.56 Y108.637 F24000
SET_VELOCITY_LIMIT ACCEL=6000 ACCEL_TO_DECEL=3000
G1 F4306
G1 X110.544 Y108.637 E.51754
G1 X110.544 Y95.621 E.51754
G1 X123.56 Y95.621 E.51754
G1 X123.56 Y108.597 E.51595
SET_VELOCITY_LIMIT ACCEL=7000 ACCEL_TO_DECEL=3500
G1 X123.202 Y108.458 F24000
SET_VELOCITY_LIMIT ACCEL=8000 ACCEL_TO_DECEL=4000
;TYPE:Internal solid infill
;WIDTH:0.448292
G1 F4306
G1 X123.202 Y95.975 E.49424
G1 X122.805 Y95.975 E.01571
G1 X122.805 Y108.283 E.48732
G1 X122.408 Y108.283 E.01571
G1 X122.408 Y95.975 E.48732
G1 X122.011 Y95.975 E.01571
G1 X122.011 Y108.283 E.48732
G1 X121.615 Y108.283 E.01571
G1 X121.615 Y95.975 E.48732
G1 X121.218 Y95.975 E.01571
G1 X121.218 Y108.283 E.48732
G1 X120.821 Y108.283 E.01571
G1 X120.821 Y95.975 E.48732
G1 X120.424 Y95.975 E.01571
G1 X120.424 Y108.283 E.48732
G1 X120.027 Y108.283 E.01571
G1 X120.027 Y95.975 E.48732
G1 X119.631 Y95.975 E.01571
G1 X119.631 Y108.283 E.48732
G1 X119.234 Y108.283 E.01571
G1 X119.234 Y95.975 E.48732
G1 X118.837 Y95.975 E.01571
G1 X118.837 Y108.283 E.48732
G1 X118.44 Y108.283 E.01571
G1 X118.44 Y95.975 E.48732
G1 X118.044 Y95.975 E.01571
G1 X118.044 Y108.283 E.48732
G1 X117.647 Y108.283 E.01571
G1 X117.647 Y95.975 E.48732
G1 X117.25 Y95.975 E.01571
G1 X117.25 Y108.283 E.48732
G1 X116.853 Y108.283 E.01571
G1 X116.853 Y95.975 E.48732
G1 X116.456 Y95.975 E.01571
G1 X116.456 Y108.283 E.48732
G1 X116.06 Y108.283 E.01571
G1 X116.06 Y95.975 E.48732
G1 X115.663 Y95.975 E.01571
G1 X115.663 Y108.283 E.48732
G1 X115.266 Y108.283 E.01571
G1 X115.266 Y95.975 E.48732
G1 X114.869 Y95.975 E.01571
G1 X114.869 Y108.283 E.48732
G1 X114.472 Y108.283 E.01571
G1 X114.472 Y95.975 E.48732
G1 X114.076 Y95.975 E.01571
G1 X114.076 Y108.283 E.48732
G1 X113.679 Y108.283 E.01571
G1 X113.679 Y95.975 E.48732
G1 X113.282 Y95.975 E.01571
G1 X113.282 Y108.283 E.48732
G1 X112.885 Y108.283 E.01571
G1 X112.885 Y95.975 E.48732
G1 X112.488 Y95.975 E.01571
G1 X112.488 Y108.283 E.48732
G1 X112.092 Y108.283 E.01571
G1 X112.092 Y95.975 E.48732
G1 X111.695 Y95.975 E.01571
G1 X111.695 Y108.283 E.48732
G1 X111.298 Y108.283 E.01571
G1 X111.298 Y95.975 E.48732
G1 X110.901 Y95.975 E.01571
G1 X110.901 Y108.458 E.49424
; stop printing object monolayer l id:0 copy 0
;LAYER_CHANGE
;Z:1.16
;HEIGHT:0.24

G1 E-.46877 F2400
;WIPE_START
G1 F7245.683
G1 X110.901 Y107.458 E-.33123
;WIPE_END
EXCLUDE_OBJECT_END NAME=monolayer_l_id_0_copy_0
; AFTER_LAYER_CHANGE 4 @ 1.16mm
;_SET_FAN_SPEED_CHANGING_LAYER
; printing object monolayer l id:0 copy 0
SET_VELOCITY_LIMIT ACCEL=7000 ACCEL_TO_DECEL=3500
EXCLUDE_OBJECT_START NAME=monolayer_l_id_0_copy_0
G1 X118.454 Y108.56 Z1.56 F24000
G1 X124.342 Y109.419 Z1.56
G1 Z1.16
G1 E.8 F2400
SET_VELOCITY_LIMIT ACCEL=4000 ACCEL_TO_DECEL=2000
;TYPE:Outer wall
;WIDTH:0.419999
G1 F1869
G1 X109.762 Y109.419 E.53609
G1 X109.762 Y94.839 E.53609
M73 P4 R16
G1 X124.342 Y94.839 E.53609
G1 X124.342 Y109.379 E.53462
SET_VELOCITY_LIMIT ACCEL=7000 ACCEL_TO_DECEL=3500
G1 X123.958 Y109.035 F24000
SET_VELOCITY_LIMIT ACCEL=6000 ACCEL_TO_DECEL=3000
;TYPE:Inner wall
;WIDTH:0.449999
G1 F1869
G1 X110.145 Y109.035 E.54923
G1 X110.145 Y95.222 E.54923
G1 X123.958 Y95.222 E.54923
G1 X123.958 Y108.995 E.54764
SET_VELOCITY_LIMIT ACCEL=7000 ACCEL_TO_DECEL=3500
G1 X123.56 Y108.637 F24000
SET_VELOCITY_LIMIT ACCEL=6000 ACCEL_TO_DECEL=3000
G1 F1869
G1 X110.544 Y108.637 E.51754
G1 X110.544 Y95.621 E.51754
G1 X123.56 Y95.621 E.51754
G1 X123.56 Y108.597 E.51595
SET_VELOCITY_LIMIT ACCEL=7000 ACCEL_TO_DECEL=3500
G1 X123.381 Y96.307 F24000
;TYPE:Sparse infill
;WIDTH:0.44
G1 F1869
G1 X123.048 Y95.975 E.01823
G1 X119.386 Y95.975 E.14198
G1 X123.206 Y99.795 E.20944
G1 X123.206 Y103.458 E.14198
G1 X115.723 Y95.975 E.41024
G1 X112.06 Y95.975 E.14198
G1 X123.206 Y107.121 E.61103
G1 X123.206 Y108.283 E.04507
G1 X120.706 Y108.283 E.09691
