;FLAVOR:Marlin
;TIME:857.28
;Filament used:0.50m
;Layer height:0.2
; HEADER_BLOCK_START
; generated by OrcaSlicer-WaveOverhangs 2.4.0-dev on 2026-04-21 at 12:14:08
; WAVE_OVERHANG_BUILD wave_overhangs_version=0.1.2 orca_base=2.4.0-dev
; WAVE_OVERHANG_CONFIG region=0 algo=andersons outer_perim=1 spacing=0.350 width=0.400 flow_ratio=1.500 speed=2.0 travel=40.0 fan=100 floor_layers=2 min_angle=0.0 min_length=0.00 max_iterations=0 ring_overlap=0.15 pattern=smart spacing_mode=uniform seam_mode=alternating perimeter_overlap=0.10 minimum_wave_width=0.70 min_new_area=0.0100 nozzle_temp_override=0 min_wave_time=0.00 min_layer_time=0.00 wall_loops=2 top_shell_layers=4 bottom_shell_layers=4 infill_density=15 infill_pattern=crosshatch support_remainder=1 instead_of_bridges=0
; total layer number: 51
; filament_density: 1.24
; filament_diameter: 1.75
; max_z_height: 10.20
; filament: 1
; HEADER_BLOCK_END

; external perimeters extrusion width = 0.42mm
; perimeters extrusion width = 0.45mm
; infill extrusion width = 0.45mm
; solid infill extrusion width = 0.42mm
; top infill extrusion width = 0.42mm
; first layer extrusion width = 0.46mm

; EXECUTABLE_BLOCK_START
M201 X2500 Y2500 Z500 E5000
M203 X250 Y250 Z5 E40
M204 P2500 R500 T2500 ; sets acceleration (P, T) and retract acceleration (R), mm/sec^2
M205 X10.00 Y10.00 Z0.40 E5.00 ; sets the jerk limits, mm/sec
M205 J0.010
;TYPE:Custom
M220 S100 ;Reset Feedrate 
M221 S100 ;Reset Flowrate 
 
M104 S210 ;Set final nozzle temp 
M190 S55 ;Set and wait for bed temp to stabilize 
G28 ;Home 
G92 E0 ;Reset Extruder 
G1 Z2.0 F3000 ;Move Z Axis up 
G1 X-2.1 Y20 Z0.28 F5000.0 ;Move to start position 
M109 S210 ;Wait for nozzle temp to stabilize 
G1 X-2.1 Y145.0 Z0.28 F1500.0 E15 ;Draw the first line 
G1 X-2.4 Y145.0 Z0.28 F5000.0 ;Move to side a little 
G1 X-2.4 Y20 Z0.28 F1500.0 E30 ;Draw the second line 
G92 E0  ;Reset Extruder 
G1 E-1.0000 F1800 ;Retract a bit 
G1 Z2.0 F3000 ;Move Z Axis up 
G1 E0.0000 F1800
G90
G21
M83 ; use relative distances for extrusion
; Filament gcode
M106 S0
;LAYER_CHANGE
;Z:0.2
;HEIGHT:0.2
;BEFORE_LAYER_CHANGE
;0.2
G92 E0

G1 E-1.2 F2400
;_SET_FAN_SPEED_CHANGING_LAYER
M204 P500
; printing object WaveLaSOTestSpecimen.STL id:0 copy 0
M204 T500
G1 X110.639 Y108.683 F9000
G1 Z.6
G1 Z.2
G1 E1.2 F1800
;TYPE:Inner wall
;WIDTH:0.459999
G1 X96.976 Y108.683 E.46436
G1 X96.976 Y95.021 E.46436
G1 X110.639 Y95.021 E.46436
G1 X110.639 Y108.643 E.463
G1 X111.077 Y109.122 F9000
;TYPE:Outer wall
G1 F1800
G1 X96.537 Y109.122 E.49417
G1 X96.537 Y94.582 E.49417
G1 X111.077 Y94.582 E.49417
G1 X111.077 Y109.082 E.49281
G1 E-.84 F2400
;WIPE_START
G1 F1800
G1 X110.077 Y109.085 E-.36
;WIPE_END
G1 F9000
G1 X110.235 Y108.524 Z0.230769
G1 X110.636 Y108.101 Z0.261538
G1 X111.187 Y107.913 Z0.292308
G1 X111.763 Y108.002 Z0.323077
G1 X112.231 Y108.349 Z0.353846
G1 X112.484 Y108.874 Z0.384615
G1 X112.465 Y109.456 Z0.415385
G1 X112.177 Y109.962 Z0.446154
G1 X111.687 Y110.277 Z0.476923
G1 X111.107 Y110.328 Z0.507692
G1 X110.569 Y110.103 Z0.538462
G1 X110.198 Y109.655 Z0.569231
G1 X110.077 Y109.085 Z0.6
G1 X110.514 Y96.001 Z.6
G1 Z.2
G1 E1.2 F1800
;TYPE:Bottom surface
;WIDTH:0.46575
G1 F4800
G1 X109.846 Y95.333 E.03253
G1 X109.248 Y95.333 E.0206
G1 X110.326 Y96.411 E.05252
G1 X110.326 Y97.009 E.0206
G1 X108.65 Y95.333 E.08166
G1 X108.052 Y95.333 E.0206
G1 X110.326 Y97.607 E.1108
G1 X110.326 Y98.205 E.0206
G1 X107.454 Y95.333 E.13994
G1 X106.856 Y95.333 E.0206
G1 X110.326 Y98.803 E.16907
G1 X110.326 Y99.401 E.0206
G1 X106.258 Y95.333 E.19821
G1 X105.66 Y95.333 E.0206
G1 X110.326 Y99.999 E.22735
G1 X110.326 Y100.597 E.0206
G1 X105.062 Y95.333 E.25649
G1 X104.464 Y95.333 E.0206
G1 X110.326 Y101.195 E.28562
G1 X110.326 Y101.793 E.0206
G1 X103.866 Y95.333 E.31476
G1 X103.268 Y95.333 E.0206
G1 X110.326 Y102.391 E.3439
G1 X110.326 Y102.989 E.0206
G1 X102.67 Y95.333 E.37304
G1 X102.072 Y95.333 E.0206
G1 X110.326 Y103.587 E.40217
G1 X110.326 Y104.185 E.0206
G1 X101.474 Y95.333 E.43131
G1 X100.876 Y95.333 E.0206
G1 X110.326 Y104.783 E.46045
G1 X110.326 Y105.381 E.0206
G1 X100.278 Y95.333 E.48959
G1 X99.68 Y95.333 E.0206
G1 X110.326 Y105.979 E.51872
G1 X110.326 Y106.577 E.0206
G1 X99.082 Y95.333 E.54786
G1 X98.484 Y95.333 E.0206
G1 X110.326 Y107.175 E.577
G1 X110.326 Y107.773 E.0206
G1 X97.887 Y95.333 E.60614
G1 X97.289 Y95.333 E.0206
G1 X110.326 Y108.371 E.63527
G1 X109.728 Y108.371 E.0206
G1 X97.289 Y95.931 E.60613
G1 X97.289 Y96.529 E.0206
G1 X109.13 Y108.371 E.57699
G1 X108.532 Y108.371 E.0206
G1 X97.289 Y97.127 E.54786
G1 X97.289 Y97.725 E.0206
G1 X107.934 Y108.371 E.51872
G1 X107.336 Y108.371 E.0206
G1 X97.289 Y98.323 E.48958
G1 X97.289 Y98.921 E.0206
G1 X106.738 Y108.371 E.46044
G1 X106.14 Y108.371 E.0206
G1 X97.289 Y99.519 E.43131
G1 X97.289 Y100.117 E.0206
G1 X105.542 Y108.371 E.40217
G1 X104.944 Y108.371 E.0206
G1 X97.289 Y100.715 E.37303
G1 X97.289 Y101.313 E.0206
G1 X104.346 Y108.371 E.34389
G1 X103.748 Y108.371 E.0206
G1 X97.289 Y101.911 E.31476
G1 X97.289 Y102.509 E.0206
G1 X103.15 Y108.371 E.28562
G1 X102.552 Y108.371 E.0206
G1 X97.289 Y103.107 E.25648
G1 X97.289 Y103.705 E.0206
G1 X101.954 Y108.371 E.22734
G1 X101.356 Y108.371 E.0206
G1 X97.289 Y104.303 E.19821
G1 X97.289 Y104.901 E.0206
G1 X100.758 Y108.371 E.16907
G1 X100.16 Y108.371 E.0206
G1 X97.289 Y105.499 E.13993
G1 X97.289 Y106.097 E.0206
G1 X99.562 Y108.371 E.11079
G1 X98.964 Y108.371 E.0206
G1 X97.289 Y106.695 E.08166
G1 X97.289 Y107.293 E.0206
G1 X98.366 Y108.371 E.05252
G1 X97.768 Y108.371 E.0206
G1 X97.101 Y107.703 E.03253
; stop printing object WaveLaSOTestSpecimen.STL id:0 copy 0
M106 S255
;LAYER_CHANGE
;Z:0.4
;HEIGHT:0.2
;BEFORE_LAYER_CHANGE
;0.4
G92 E0

G1 E-.84 F2400
;WIPE_START
G1 F4800
G1 X97.768 Y108.371 E-.33985
G1 X97.824 Y108.371 E-.02015
;WIPE_END
;_SET_FAN_SPEED_CHANGING_LAYER
M204 P2500
M104 S200 ; set nozzle temperature
; printing object WaveLaSOTestSpecimen.STL id:0 copy 0
M204 T2500
G1 F9000
G1 X98.3859 Y108.526 Z0.430769
G1 X98.8109 Y108.924 Z0.461538
G1 X99.0023 Y109.474 Z0.492308
G1 X98.916 Y110.05 Z0.523077
G1 X98.5719 Y110.52 Z0.553846
G1 X98.0488 Y110.776 Z0.584615
G1 X97.4666 Y110.76 Z0.615385
G1 X96.9585 Y110.475 Z0.646154
G1 X96.6411 Y109.987 Z0.676923
G1 X96.587 Y109.407 Z0.707692
G1 X96.8086 Y108.868 Z0.738462
G1 X97.2552 Y108.494 Z0.769231
G1 X97.8244 Y108.371 Z0.8
G1 X110.684 Y108.728 Z.8
G1 Z.4
G1 E1.2 F1800
M204 P2000
;TYPE:Inner wall
;WIDTH:0.449999
G1 F5400
G1 X96.931 Y108.728 E.45621
G1 X96.931 Y94.976 E.45621
G1 X110.684 Y94.976 E.45621
G1 X110.684 Y108.688 E.45488
M204 T1000
G1 X111.097 Y109.142 F9000
M204 P1000
;TYPE:Outer wall
;WIDTH:0.419999
G1 F3600
G1 X96.517 Y109.142 E.448
G1 X96.517 Y94.562 E.448
G1 X111.097 Y94.562 E.448
G1 X111.097 Y109.102 E.44677
M204 T2500
G1 X110.292 Y108.336 F9000
M204 P2500
;TYPE:Internal solid infill
G1 F9741.91
G1 X110.292 Y106.963 E.04219
G1 X108.919 Y108.336 E.05967
G1 X110.252 Y108.336 E.04096
G1 X110.522 Y106.251 F9000
;WIDTH:0.421675
G1 F9698.8
G1 X108.376 Y108.397 E.09367
G1 X107.841 Y108.397 E.01653
G1 X110.353 Y105.885 E.10964
G1 X110.353 Y105.35 E.01653
G1 X107.305 Y108.397 E.13302
G1 X106.769 Y108.397 E.01653
G1 X110.353 Y104.814 E.1564
G1 X110.353 Y104.279 E.01653
G1 X106.234 Y108.397 E.17978
G1 X105.698 Y108.397 E.01653
G1 X110.353 Y103.743 E.20316
G1 X110.353 Y103.207 E.01653
G1 X105.163 Y108.397 E.22654
G1 X104.627 Y108.397 E.01653
G1 X110.353 Y102.672 E.24992
G1 X110.353 Y102.136 E.01653
G1 X104.091 Y108.397 E.2733
G1 X103.556 Y108.397 E.01653
G1 X110.353 Y101.6 E.29668
G1 X110.353 Y101.065 E.01653
G1 X103.02 Y108.397 E.32006
G1 X102.484 Y108.397 E.01653
G1 X110.353 Y100.529 E.34344
G1 X110.353 Y99.993 E.01653
G1 X101.949 Y108.397 E.36682
G1 X101.413 Y108.397 E.01653
G1 X110.353 Y99.458 E.3902
G1 X110.353 Y98.922 E.01653
G1 X100.877 Y108.397 E.41358
G1 X100.342 Y108.397 E.01653
G1 X110.353 Y98.387 E.43696
G1 X110.353 Y97.851 E.01653
G1 X99.806 Y108.397 E.46034
G1 X99.27 Y108.397 E.01653
G1 X110.353 Y97.315 E.48372
G1 X110.353 Y96.78 E.01653
G1 X98.735 Y108.397 E.5071
G1 X98.199 Y108.397 E.01653
G1 X110.353 Y96.244 E.53048
G1 X110.353 Y95.708 E.01653
G1 X97.664 Y108.397 E.55386
G1 X97.262 Y108.397 E.0124
G1 X97.262 Y108.264 E.00413
G1 X110.219 Y95.307 E.56555
G1 X109.683 Y95.307 E.01653
G1 X97.262 Y107.728 E.54217
G1 X97.262 Y107.192 E.01653
G1 X109.148 Y95.307 E.51879
G1 X108.612 Y95.307 E.01653
G1 X97.262 Y106.657 E.49541
G1 X97.262 Y106.121 E.01653
G1 X108.076 Y95.307 E.47203
G1 X107.541 Y95.307 E.01653
G1 X97.262 Y105.585 E.44865
G1 X97.262 Y105.05 E.01653
G1 X107.005 Y95.307 E.42527
G1 X106.469 Y95.307 E.01653
G1 X97.262 Y104.514 E.40189
G1 X97.262 Y103.978 E.01653
G1 X105.934 Y95.307 E.37851
G1 X105.398 Y95.307 E.01653
G1 X97.262 Y103.443 E.35513
G1 X97.262 Y102.907 E.01653
G1 X104.862 Y95.307 E.33175
G1 X104.327 Y95.307 E.01653
G1 X97.262 Y102.372 E.30837
G1 X97.262 Y101.836 E.01653
G1 X103.791 Y95.307 E.28499
G1 X103.255 Y95.307 E.01653
G1 X97.262 Y101.3 E.26161
G1 X97.262 Y100.765 E.01653
G1 X102.72 Y95.307 E.23823
G1 X102.184 Y95.307 E.01653
G1 X97.262 Y100.229 E.21485
G1 X97.262 Y99.693 E.01653
G1 X101.649 Y95.307 E.19147
G1 X101.113 Y95.307 E.01653
G1 X97.262 Y99.158 E.16809
G1 X97.262 Y98.622 E.01653
G1 X100.577 Y95.307 E.14471
G1 X100.042 Y95.307 E.01653
G1 X97.262 Y98.086 E.12133
G1 X97.262 Y97.551 E.01653
G1 X99.506 Y95.307 E.09795
G1 X98.97 Y95.307 E.01653
G1 X97.262 Y97.015 E.07457
G1 X97.262 Y96.479 E.01653
G1 X98.435 Y95.307 E.05119
G1 X97.899 Y95.307 E.01653
G1 X97.092 Y96.114 E.03522
; stop printing object WaveLaSOTestSpecimen.STL id:0 copy 0
;LAYER_CHANGE
;Z:0.6
;HEIGHT:0.2
;BEFORE_LAYER_CHANGE
;0.6
G92 E0

G1 E-.95255 F2400
;WIPE_START
G1 F9698.8
G1 X97.799 Y95.406 E-.24745
;WIPE_END
;_SET_FAN_SPEED_CHANGING_LAYER
; printing object WaveLaSOTestSpecimen.STL id:0 copy 0
G1 F9000
G1 X98.0922 Y95.9098 Z0.630769
G1 X98.1177 Y96.4918 Z0.661538
G1 X97.8698 Y97.0188 Z0.692308
G1 X97.4053 Y97.3704 Z0.723077
G1 X96.8307 Y97.4658 Z0.753846
G1 X96.2776 Y97.2832 Z0.784615
G1 X95.8726 Y96.8645 Z0.815385
G1 X95.7087 Y96.3056 Z0.846154
G1 X95.8232 Y95.7345 Z0.876923
G1 X96.19 Y95.2821 Z0.907692
G1 X96.7251 Y95.0519 Z0.938462
G1 X97.3059 Y95.0968 Z0.969231
G1 X97.7992 Y95.4064 Z1
G1 X110.684 Y108.728 Z1
G1 Z.6
G1 E1.2 F1800
M204 P2000
;TYPE:Inner wall
;WIDTH:0.449999
G1 F5400
G1 X96.931 Y108.728 E.45621
G1 X96.931 Y94.976 E.45621
G1 X110.684 Y94.976 E.45621
G1 X110.684 Y108.688 E.45488
M204 T1000
G1 X111.097 Y109.142 F9000
M204 P1000
;TYPE:Outer wall
;WIDTH:0.419999
G1 F3600
G1 X96.517 Y109.142 E.448
G1 X96.517 Y94.562 E.448
G1 X111.097 Y94.562 E.448
G1 X111.097 Y109.102 E.44677
M204 T2500
G1 E-.84 F2400
;WIPE_START
G1 F3600
G1 X110.097 Y109.105 E-.36
;WIPE_END
G1 F9000
G1 X110.246 Y108.541 Z0.630769
G1 X110.639 Y108.112 Z0.661538
G1 X111.186 Y107.914 Z0.692308
G1 X111.763 Y107.993 Z0.723077
G1 X112.238 Y108.331 Z0.753846
G1 X112.5 Y108.851 Z0.784615
G1 X112.491 Y109.434 Z0.815385
G1 X112.212 Y109.945 Z0.846154
G1 X111.728 Y110.268 Z0.876923
G1 X111.148 Y110.33 Z0.907692
G1 X110.607 Y110.114 Z0.938462
G1 X110.228 Y109.672 Z0.969231
G1 X110.097 Y109.105 Z1
G1 X110.292 Y96.741 Z1
G1 Z.6
G1 E1.2 F1800
M204 P2500
;TYPE:Internal solid infill
G1 F9741.91
G1 X110.292 Y95.368 E.04219
G1 X108.919 Y95.368 E.04219
G1 X110.263 Y96.712 E.05844
G1 X108.207 Y95.137 F9000
;WIDTH:0.421675
G1 F9698.8
G1 X110.353 Y97.283 E.09367
G1 X110.353 Y97.819 E.01653
G1 X107.841 Y95.307 E.10964
G1 X107.305 Y95.307 E.01653
G1 X110.353 Y98.354 E.13302
G1 X110.353 Y98.89 E.01653
G1 X106.769 Y95.307 E.1564
G1 X106.234 Y95.307 E.01653
G1 X110.353 Y99.425 E.17978
G1 X110.353 Y99.961 E.01653
G1 X105.698 Y95.307 E.20316
G1 X105.163 Y95.307 E.01653
G1 X110.353 Y100.497 E.22654
G1 X110.353 Y101.032 E.01653
G1 X104.627 Y95.307 E.24992
G1 X104.091 Y95.307 E.01653
G1 X110.353 Y101.568 E.2733
G1 X110.353 Y102.104 E.01653
G1 X103.556 Y95.307 E.29668
G1 X103.02 Y95.307 E.01653
G1 X110.353 Y102.639 E.32006
G1 X110.353 Y103.175 E.01653
G1 X102.484 Y95.307 E.34344
G1 X101.949 Y95.307 E.01653
G1 X110.353 Y103.711 E.36682
G1 X110.353 Y104.246 E.01653
G1 X101.413 Y95.307 E.3902
G1 X100.877 Y95.307 E.01653
G1 X110.353 Y104.782 E.41358
G1 X110.353 Y105.318 E.01653
G1 X100.342 Y95.307 E.43696
G1 X99.806 Y95.307 E.01653
G1 X110.353 Y105.853 E.46034
G1 X110.353 Y106.389 E.01653
G1 X99.27 Y95.307 E.48372
G1 X98.735 Y95.307 E.01653
G1 X110.353 Y106.924 E.5071
G1 X110.353 Y107.46 E.01653
G1 X98.199 Y95.307 E.53048
G1 X97.664 Y95.307 E.01653
G1 X110.353 Y107.996 E.55385
G1 X110.353 Y108.397 E.0124
G1 X110.219 Y108.397 E.00413
G1 X97.262 Y95.44 E.56555
G1 X97.262 Y95.976 E.01653
G1 X109.683 Y108.397 E.54217
G1 X109.148 Y108.397 E.01653
G1 X97.262 Y96.512 E.51879
G1 X97.262 Y97.047 E.01653
G1 X108.612 Y108.397 E.49541
G1 X108.076 Y108.397 E.01653
G1 X97.262 Y97.583 E.47203
G1 X97.262 Y98.119 E.01653
G1 X107.541 Y108.397 E.44865
G1 X107.005 Y108.397 E.01653
G1 X97.262 Y98.654 E.42527
G1 X97.262 Y99.19 E.01653
G1 X106.469 Y108.397 E.40189
G1 X105.934 Y108.397 E.01653
G1 X97.262 Y99.726 E.37851
G1 X97.262 Y100.261 E.01653
G1 X105.398 Y108.397 E.35513
G1 X104.862 Y108.397 E.01653
G1 X97.262 Y100.797 E.33175
G1 X97.262 Y101.333 E.01653
G1 X104.327 Y108.397 E.30837
G1 X103.791 Y108.397 E.01653
G1 X97.262 Y101.868 E.28499
G1 X97.262 Y102.404 E.01653
G1 X103.255 Y108.397 E.26161
G1 X102.72 Y108.397 E.01653
G1 X97.262 Y102.939 E.23823
G1 X97.262 Y103.475 E.01653
G1 X102.184 Y108.397 E.21485
G1 X101.649 Y108.397 E.01653
G1 X97.262 Y104.011 E.19147
G1 X97.262 Y104.546 E.01653
G1 X101.113 Y108.397 E.16809
G1 X100.577 Y108.397 E.01653
G1 X97.262 Y105.082 E.14471
G1 X97.262 Y105.618 E.01653
G1 X100.042 Y108.397 E.12133
G1 X99.506 Y108.397 E.01653
G1 X97.262 Y106.153 E.09795
G1 X97.262 Y106.689 E.01653
G1 X98.97 Y108.397 E.07457
G1 X98.435 Y108.397 E.01653
G1 X97.262 Y107.225 E.05119
G1 X97.262 Y107.76 E.01653
G1 X98.069 Y108.567 E.03522
; stop printing object WaveLaSOTestSpecimen.STL id:0 copy 0
;LAYER_CHANGE
;Z:0.8
;HEIGHT:0.2
;BEFORE_LAYER_CHANGE
;0.8
G92 E0

G1 E-.95255 F2400
;WIPE_START
G1 F9698.8
G1 X97.362 Y107.86 E-.24745
;WIPE_END
;_SET_FAN_SPEED_CHANGING_LAYER
; printing object WaveLaSOTestSpecimen.STL id:0 copy 0
G1 F9000
G1 X97.9169 Y108.036 Z0.830769
G1 X98.3269 Y108.45 Z0.861538
G1 X98.4976 Y109.007 Z0.892308
G1 X98.3899 Y109.579 Z0.923077
G1 X98.0285 Y110.036 Z0.953846
G1 X97.4962 Y110.272 Z0.984615
G1 X96.915 Y110.235 Z1.01538
G1 X96.4179 Y109.931 Z1.04615
G1 X96.1189 Y109.431 Z1.07692
G1 X96.0865 Y108.849 Z1.10769
G1 X96.328 Y108.319 Z1.13846
G1 X96.7882 Y107.962 Z1.16923
G1 X97.3616 Y107.86 Z1.2
G1 X110.684 Y108.728 Z1.2
G1 Z.8
G1 E1.2 F1800
M204 P2000
;TYPE:Inner wall
;WIDTH:0.449999
G1 F5400
G1 X96.931 Y108.728 E.45621
G1 X96.931 Y94.976 E.45621
G1 X110.684 Y94.976 E.45621
G1 X110.684 Y108.688 E.45488
M204 T1000
G1 X111.097 Y109.142 F9000
M204 P1000
;TYPE:Outer wall
;WIDTH:0.419999
G1 F3600
G1 X96.517 Y109.142 E.448
G1 X96.517 Y94.562 E.448
G1 X111.097 Y94.562 E.448
G1 X111.097 Y109.102 E.44677
M204 T2500
G1 X110.292 Y108.336 F9000
M204 P2500
;TYPE:Internal solid infill
G1 F9741.91
G1 X110.292 Y106.963 E.04219
G1 X108.919 Y108.336 E.05967
G1 X110.252 Y108.336 E.04096
G1 X110.522 Y106.251 F9000
;WIDTH:0.421675
G1 F9698.8
G1 X108.376 Y108.397 E.09367
G1 X107.841 Y108.397 E.01653
G1 X110.353 Y105.885 E.10964
G1 X110.353 Y105.35 E.01653
G1 X107.305 Y108.397 E.13302
G1 X106.769 Y108.397 E.01653
G1 X110.353 Y104.814 E.1564
G1 X110.353 Y104.279 E.01653
G1 X106.234 Y108.397 E.17978
G1 X105.698 Y108.397 E.01653
G1 X110.353 Y103.743 E.20316
G1 X110.353 Y103.207 E.01653
G1 X105.163 Y108.397 E.22654
G1 X104.627 Y108.397 E.01653
G1 X110.353 Y102.672 E.24992
G1 X110.353 Y102.136 E.01653
G1 X104.091 Y108.397 E.2733
G1 X103.556 Y108.397 E.01653
G1 X110.353 Y101.6 E.29668
G1 X110.353 Y101.065 E.01653
G1 X103.02 Y108.397 E.32006
G1 X102.484 Y108.397 E.01653
G1 X110.353 Y100.529 E.34344
G1 X110.353 Y99.993 E.01653
G1 X101.949 Y108.397 E.36682
G1 X101.413 Y108.397 E.01653
G1 X110.353 Y99.458 E.3902
G1 X110.353 Y98.922 E.01653
G1 X100.877 Y108.397 E.41358
G1 X100.342 Y108.397 E.01653
