; generated by PrusaSlicer 2.9.4 on 2026-04-21 at 10:44:32 UTC


;
;
; 

; external perimeters extrusion width = 0.45mm
; perimeters extrusion width = 0.45mm
; infill extrusion width = 0.45mm
; solid infill extrusion width = 0.45mm
; top infill extrusion width = 0.40mm
; first layer extrusion width = 0.42mm

M73 P0 R20
M73 Q0 S20
M201 X1000 Y1000 Z200 E5000 ; sets maximum accelerations, mm/sec^2
M203 X200 Y200 Z12 E120 ; sets maximum feedrates, mm / sec
M204 S1250 T1250 ; sets acceleration (S) and retract acceleration (R), mm/sec^2
M205 X8.00 Y8.00 Z0.40 E4.50 ; sets the jerk limits, mm/sec
M205 S0 T0 ; sets the minimum extruding and travel feed rate, mm/sec

; printing object WaveLaSOTestSpecimen.STL id:0 copy 0
; stop printing object WaveLaSOTestSpecimen.STL id:0 copy 0

;TYPE:Custom
M862.3 P "MK3" ; printer model check
M862.1 P0.4 ; nozzle diameter check
M115 U3.14.1 ; tell printer latest fw version
G90 ; use absolute coordinates
M83 ; extruder relative mode
M104 S210 ; set extruder temp
M140 S60 ; set bed temp
M190 S60 ; wait for bed temp
M109 S210 ; wait for extruder temp
G28 W ; home all without mesh bed level
G80 X93.5531 Y91.5978 W20.5083 H20.5083 ; mesh bed levelling

G1 Z0.2 F720
G1 Y-3 F1000 ; go outside print area
G92 E0
G1 X60 E9 F1000 ; intro line
G1 X100 E12.5 F1000 ; intro line

G92 E0
M221 S95

; Don't change E values below. Excessive value can damage the printer.
M907 E430 ; set extruder motor current
G21 ; set units to millimeters
G90 ; use absolute coordinates
M83 ; use relative distances for extrusion

M900 K0.05 ; Filament gcode LA 1.5
M900 K30 ; Filament gcode LA 1.0




M107
;LAYER_CHANGE
;Z:0.2
;HEIGHT:0.2
G1 E-.8 F2100
G1 Z.6 F720
G1 X94.134 Y92.989 F10800
G1 Z.2 F720
G1 E.8 F2100
M204 S800
;TYPE:Skirt/Brim
;WIDTH:0.42
G1 F1200
G1 X95.191 Y92.042 E.0445
G1 X96.307 Y91.786 E.0359
G1 X111.307 Y91.786 E.47031
G1 X112.671 Y92.179 E.04451
G1 X113.617 Y93.235 E.04445
G1 X113.873 Y94.352 E.03593
G1 X113.873 Y109.352 E.47031
G1 X113.481 Y110.715 E.04447
G1 X112.424 Y111.662 E.0445
G1 X111.307 Y111.918 E.03593
G1 X96.307 Y111.918 E.47031
G1 X94.944 Y111.525 E.04448
G1 X93.997 Y110.469 E.04447
G1 X93.742 Y109.352 E.03592
G1 X93.742 Y94.352 E.47031
G1 X94.117 Y93.046 E.0426
M204 S1000
G1 X94.491 Y93.163 F10800
M204 S800
G1 F1200
G1 X94.51 Y93.104 E.00194
G1 X95.543 Y92.301 E.04102
G1 X96.307 Y92.163 E.02434
G1 X111.307 Y92.163 E.47031
G1 X112.555 Y92.554 E.04101
G1 X113.358 Y93.587 E.04102
G1 X113.496 Y94.352 E.02437
G1 X113.496 Y109.352 E.47031
G1 X113.105 Y110.6 E.04101
M73 P1 R20
M73 Q1 S20
G1 X112.072 Y111.403 E.04102
G1 X111.307 Y111.541 E.02437
G1 X96.307 Y111.541 E.47031
G1 X95.059 Y111.15 E.04101
G1 X94.257 Y110.117 E.041
G1 X94.119 Y109.352 E.02437
G1 X94.119 Y94.352 E.47031
G1 X94.473 Y93.221 E.03716
M204 S1000
;WIPE_START
G1 F8640
G1 X94.491 Y93.163 E-.01402
G1 X94.51 Y93.104 E-.01431
G1 X95.543 Y92.301 E-.30211
G1 X96.307 Y92.163 E-.17926
G1 X97.564 Y92.163 E-.2903
;WIPE_END
G1 Z.6 F720
; printing object WaveLaSOTestSpecimen.STL id:0 copy 0
G1 X110.52 Y108.565 F10800
G1 Z.2 F720
G1 E.8 F2100
M204 S800
;TYPE:Perimeter
;WIDTH:0.419999
G1 F1200
G1 X97.094 Y108.565 E.42096
G1 X97.094 Y95.139 E.42096
G1 X110.52 Y95.139 E.42096
G1 X110.52 Y108.505 E.41908
M204 S1000
G1 X110.897 Y108.942 F10800
M204 S800
;TYPE:External perimeter
G1 F1200
G1 X96.717 Y108.942 E.4446
G1 X96.717 Y94.762 E.4446
G1 X110.897 Y94.762 E.4446
G1 X110.897 Y108.882 E.44272
M204 S1000
;WIPE_START
G1 F8640
G1 X110.897 Y108.942 E-.01385
G1 X107.492 Y108.942 E-.78615
;WIPE_END
G1 Z.6 F720
G1 X109.601 Y95.29 F10800
G1 Z.2 F720
G1 E.8 F2100
M204 S800
;TYPE:Solid infill
;WIDTH:0.422791
G1 F1200
G1 X110.2 Y95.888 E.02673
G1 X110.2 Y96.426 E.01699
G1 X109.234 Y95.46 E.04315
G1 X108.696 Y95.46 E.01699
G1 X110.2 Y96.963 E.06716
G1 X110.2 Y97.5 E.01696
G1 X108.159 Y95.46 E.09115
G1 X107.622 Y95.46 E.01696
G1 X110.2 Y98.037 E.11514
G1 X110.2 Y98.575 E.01699
G1 X107.085 Y95.46 E.13915
G1 X106.548 Y95.46 E.01696
G1 X110.2 Y99.112 E.16313
G1 X110.2 Y99.649 E.01696
G1 X106.01 Y95.46 E.18714
G1 X105.473 Y95.46 E.01696
G1 X110.2 Y100.186 E.21113
G1 X110.2 Y100.723 E.01696
G1 X104.936 Y95.46 E.23512
G1 X104.399 Y95.46 E.01696
G1 X110.2 Y101.261 E.25913
G1 X110.2 Y101.798 E.01696
G1 X103.861 Y95.46 E.28314
G1 X103.324 Y95.46 E.01696
M73 Q2 S20
G1 X110.2 Y102.335 E.30713
G1 X110.2 Y102.872 E.01696
M73 P2 R20
G1 X102.787 Y95.46 E.33112
G1 X102.25 Y95.46 E.01696
G1 X110.2 Y103.409 E.3551
G1 X110.2 Y103.947 E.01699
G1 X101.713 Y95.46 E.37911
G1 X101.175 Y95.46 E.01699
G1 X110.2 Y104.484 E.40312
G1 X110.2 Y105.021 E.01696
G1 X100.638 Y95.46 E.42711
G1 X100.101 Y95.46 E.01696
G1 X110.2 Y105.558 E.4511
G1 X110.2 Y106.096 E.01699
G1 X99.564 Y95.46 E.47511
G1 X99.026 Y95.46 E.01699
G1 X110.2 Y106.633 E.49912
G1 X110.2 Y107.17 E.01696
G1 X98.489 Y95.46 E.52311
G1 X97.952 Y95.46 E.01696
G1 X110.2 Y107.707 E.54709
G1 X110.2 Y108.244 E.01696
G1 X97.415 Y95.46 E.57108
G1 X97.415 Y95.997 E.01696
G1 X109.662 Y108.244 E.54707
G1 X109.125 Y108.244 E.01696
G1 X97.415 Y96.534 E.52308
G1 X97.415 Y97.071 E.01696
G1 X108.588 Y108.244 E.4991
G1 X108.051 Y108.244 E.01696
G1 X97.415 Y97.609 E.47509
G1 X97.415 Y98.146 E.01696
G1 X107.514 Y108.244 E.4511
G1 X106.976 Y108.244 E.01699
M73 P3 R20
M73 Q3 S20
G1 X97.415 Y98.683 E.42709
G1 X97.415 Y99.22 E.01696
G1 X106.439 Y108.244 E.4031
G1 X105.902 Y108.244 E.01696
G1 X97.415 Y99.757 E.37911
G1 X97.415 Y100.295 E.01699
G1 X105.365 Y108.244 E.3551
G1 X104.827 Y108.244 E.01699
G1 X97.415 Y100.832 E.33109
G1 X97.415 Y101.369 E.01696
G1 X104.29 Y108.244 E.30711
G1 X103.753 Y108.244 E.01696
G1 X97.415 Y101.906 E.28312
G1 X97.415 Y102.443 E.01696
G1 X103.216 Y108.244 E.25913
G1 X102.679 Y108.244 E.01696
G1 X97.415 Y102.981 E.23512
G1 X97.415 Y103.518 E.01696
G1 X102.141 Y108.244 E.21111
G1 X101.604 Y108.244 E.01696
G1 X97.415 Y104.055 E.18712
G1 X97.415 Y104.592 E.01696
G1 X101.067 Y108.244 E.16313
G1 X100.53 Y108.244 E.01696
G1 X97.415 Y105.13 E.13912
G1 X97.415 Y105.667 E.01696
G1 X99.992 Y108.244 E.11511
G1 X99.455 Y108.244 E.01696
G1 X97.415 Y106.204 E.09113
G1 X97.415 Y106.741 E.01696
G1 X98.918 Y108.244 E.06714
G1 X98.381 Y108.244 E.01696
G1 X97.415 Y107.278 E.04315
G1 X97.415 Y107.816 E.01699
G1 X98.013 Y108.414 E.02671
M204 S1000
M106 S84.15
;LAYER_CHANGE
;Z:0.4
;HEIGHT:0.2
;BEFORE_LAYER_CHANGE
G92 E0.0
;0.4


;WIPE_START
G1 F8640
G1 X97.415 Y107.816 E-.19527
G1 X97.415 Y107.278 E-.12423
G1 X98.381 Y108.244 E-.31544
G1 X98.918 Y108.244 E-.12399
G1 X98.792 Y108.118 E-.04107
;WIPE_END
G1 Z.4 F720
;AFTER_LAYER_CHANGE
;0.4
M104 S200 ; set temperature
; stop printing object WaveLaSOTestSpecimen.STL id:0 copy 0
G1 Z.8
G1 X98.013 Y111.918 F10800
G1 Z.4 F720
G1 E.8 F2100
;TYPE:Skirt/Brim
;WIDTH:0.42
G1 F3000
G1 X96.307 Y111.918 E.05349
G1 X94.944 Y111.525 E.04448
G1 X93.997 Y110.469 E.04447
G1 X93.742 Y109.352 E.03592
G1 X93.742 Y94.352 E.47031
G1 X94.134 Y92.989 E.04447
G1 X95.191 Y92.042 E.0445
G1 X96.307 Y91.786 E.0359
G1 X111.307 Y91.786 E.47031
G1 X112.671 Y92.179 E.04451
G1 X113.617 Y93.235 E.04445
G1 X113.873 Y94.352 E.03593
G1 X113.873 Y109.352 E.47031
G1 X113.481 Y110.715 E.04447
G1 X112.424 Y111.662 E.0445
G1 X111.307 Y111.918 E.03593
G1 X98.073 Y111.918 E.41494
G1 X98.073 Y111.541 F10800
G1 F3000
G1 X96.307 Y111.541 E.05537
G1 X95.059 Y111.15 E.04101
G1 X94.257 Y110.117 E.041
G1 X94.119 Y109.352 E.02437
G1 X94.119 Y94.352 E.47031
G1 X94.51 Y93.104 E.04101
G1 X95.543 Y92.301 E.04102
G1 X96.307 Y92.163 E.02434
G1 X111.307 Y92.163 E.47031
G1 X112.555 Y92.554 E.04101
G1 X113.358 Y93.587 E.04102
G1 X113.496 Y94.352 E.02437
G1 X113.496 Y109.352 E.47031
G1 X113.105 Y110.6 E.04101
G1 X112.072 Y111.403 E.04102
G1 X111.307 Y111.541 E.02437
G1 X98.133 Y111.541 E.41306
;WIPE_START
G1 F8640
G1 X98.073 Y111.541 E-.01385
G1 X96.307 Y111.541 E-.40777
G1 X95.059 Y111.15 E-.30198
G1 X94.856 Y110.889 E-.0764
;WIPE_END
G1 Z.8 F720
; printing object WaveLaSOTestSpecimen.STL id:0 copy 0
G1 X110.675 Y108.72 F10800
G1 Z.4 F720
G1 E.8 F2100
M204 S800
;TYPE:Perimeter
;WIDTH:0.449999
G1 F2380.703
G1 X96.939 Y108.72 E.46495
G1 X96.939 Y94.984 E.46495
M73 Q4 S20
G1 X110.675 Y94.984 E.46495
M73 P4 R20
G1 X110.675 Y108.66 E.46292
M204 S1000
G1 X111.082 Y109.127 F10800
M73 P4 R19
M204 S800
;TYPE:External perimeter
G1 F1500
G1 X110.407 Y109.127 E.02285
G1 X97.207 Y109.127 E.4468
G1 X96.532 Y109.127 E.02285
M73 Q4 S19
G1 X96.532 Y108.452 E.02285
G1 X96.532 Y95.252 E.4468
G1 X96.532 Y94.577 E.02285
G1 X97.207 Y94.577 E.02285
G1 X110.407 Y94.577 E.4468
G1 X111.082 Y94.577 E.02285
G1 X111.082 Y95.252 E.02285
G1 X111.082 Y108.452 E.4468
G1 X111.082 Y109.067 E.02082
M204 S1000
;WIPE_START
G1 F8640
G1 X111.082 Y109.127 E-.01385
G1 X110.407 Y109.127 E-.15586
G1 X107.677 Y109.127 E-.63029
;WIPE_END
G1 Z.8 F720
G1 X97.396 Y95.363 F10800
G1 Z.4 F720
G1 E.8 F2100
;TYPE:Solid infill
;WIDTH:0.548766
G1 F4800
G1 X97.351 Y95.318 E.00268
G1 X97.29 Y95.335 E.00266
G1 X97.274 Y95.396 E.00265
G1 X97.318 Y95.441 E.00265
G1 X97.379 Y95.424 E.00266
G1 X97.153 Y96.22 F10800
;WIDTH:0.38292
G1 F4800
G1 X97.082 Y96.201 E.00208
G1 X97.101 Y96.272 E.00208
G1 X97.142 Y96.261 E.0012
;WIDTH:0.41646
G1 X97.214 Y96.168 E.00365
;WIDTH:0.449999
G1 X97.285 Y96.074 E.00399
G1 X98.03 Y95.33 E.03564
G1 X98.123 Y95.258 E.00398
;WIDTH:0.41646
G1 X98.216 Y95.186 E.00365
;WIDTH:0.38292
G1 X98.175 Y95.197 E.0012
G1 X98.156 Y95.126 E.00208
G1 X98.227 Y95.145 E.00208
;WIDTH:0.449999
G1 X98.605 Y95.33 E.01425
G1 X97.285 Y96.65 E.06319
G1 X97.285 Y97.226 E.0195
G1 X99.181 Y95.33 E.09076
G1 X99.757 Y95.33 E.0195
G1 X97.285 Y97.802 E.11833
G1 X97.285 Y98.377 E.01946
G1 X100.332 Y95.33 E.14586
G1 X100.908 Y95.33 E.0195
G1 X97.285 Y98.953 E.17343
G1 X97.285 Y99.529 E.0195
G1 X101.484 Y95.33 E.201
G1 X102.06 Y95.33 E.0195
G1 X97.285 Y100.104 E.22855
G1 X97.285 Y100.68 E.0195
G1 X102.635 Y95.33 E.2561
G1 X103.211 Y95.33 E.0195
G1 X97.285 Y101.256 E.28367
G1 X97.285 Y101.831 E.01946
G1 X103.787 Y95.33 E.31122
G1 X104.362 Y95.33 E.01946
G1 X97.285 Y102.407 E.33877
G1 X97.285 Y102.983 E.0195
G1 X104.938 Y95.33 E.36634
G1 X105.514 Y95.33 E.0195
G1 X97.285 Y103.558 E.39389
G1 X97.285 Y104.134 E.0195
G1 X106.089 Y95.33 E.42144
G1 X106.665 Y95.33 E.0195
G1 X97.285 Y104.71 E.44901
G1 X97.285 Y105.286 E.0195
G1 X107.241 Y95.33 E.47659
G1 X107.817 Y95.33 E.0195
G1 X97.285 Y105.861 E.50414
G1 X97.285 Y106.437 E.0195
G1 X108.392 Y95.33 E.53169
G1 X108.968 Y95.33 E.0195
G1 X97.285 Y107.013 E.55926
G1 X97.285 Y107.588 E.01946
G1 X109.544 Y95.33 E.58681
G1 X110.462 Y95.227 F10800
;WIDTH:0.38292
G1 F4800
G1 X110.391 Y95.208 E.00208
G1 X110.41 Y95.279 E.00208
G1 X110.451 Y95.268 E.0012
;WIDTH:0.41646
G1 X110.285 Y95.299 E.00525
;WIDTH:0.449999
G1 X110.119 Y95.33 E.00572
G1 X97.285 Y108.164 E.61436
G1 X97.26 Y108.31 E.00501
;WIDTH:0.41646
G1 X97.234 Y108.455 E.00458
;WIDTH:0.38292
G1 X97.163 Y108.436 E.00208
G1 X97.182 Y108.507 E.00208
G1 X97.223 Y108.496 E.0012
;WIDTH:0.449999
G1 X97.651 Y108.374 E.01506
G1 X110.329 Y95.696 E.60689
G1 X110.329 Y96.272 E.0195
G1 X98.227 Y108.374 E.57932
G1 X98.803 Y108.374 E.0195
G1 X110.329 Y96.847 E.55177
G1 X110.329 Y97.423 E.0195
G1 X99.378 Y108.374 E.52422
G1 X99.954 Y108.374 E.0195
G1 X110.329 Y97.999 E.49664
G1 X110.329 Y98.574 E.01946
G1 X100.53 Y108.374 E.4691
G1 X101.105 Y108.374 E.01946
G1 X110.329 Y99.15 E.44155
G1 X110.329 Y99.726 E.0195
G1 X101.681 Y108.374 E.41397
G1 X102.257 Y108.374 E.0195
G1 X110.329 Y100.302 E.3864
G1 X110.329 Y100.877 E.01946
G1 X102.832 Y108.374 E.35888
G1 X103.408 Y108.374 E.0195
G1 X110.329 Y101.453 E.3313
G1 X110.329 Y102.029 E.0195
G1 X103.984 Y108.374 E.30373
G1 X104.56 Y108.374 E.0195
G1 X110.329 Y102.604 E.27618
G1 X110.329 Y103.18 E.0195
G1 X105.135 Y108.374 E.24863
G1 X105.711 Y108.374 E.0195
M73 Q5 S19
G1 X110.329 Y103.756 E.22106
G1 X110.329 Y104.331 E.01946
G1 X106.287 Y108.374 E.19351
G1 X106.862 Y108.374 E.01946
M73 P5 R19
G1 X110.329 Y104.907 E.16596
G1 X110.329 Y105.483 E.0195
G1 X107.438 Y108.374 E.13839
G1 X108.014 Y108.374 E.0195
G1 X110.329 Y106.058 E.11084
G1 X110.544 Y106.467 E.01564
;WIDTH:0.38292
G1 X110.473 Y106.448 E.00208
G1 X110.492 Y106.519 E.00208
G1 X110.533 Y106.508 E.0012
;WIDTH:0.41646
G1 X110.431 Y106.571 E.00372
;WIDTH:0.449999
G1 X110.329 Y106.634 E.00406
G1 X108.589 Y108.374 E.08329
;WIPE_START
G1 F8640
G1 X110.329 Y106.634 E-.56819
G1 X110.431 Y106.571 E-.02768
G1 X110.533 Y106.508 E-.02768
G1 X110.492 Y106.519 E-.0098
G1 X110.473 Y106.448 E-.01697
G1 X110.544 Y106.467 E-.01697
G1 X110.329 Y106.058 E-.10669
G1 X110.249 Y106.138 E-.02602
;WIPE_END
G1 Z.8 F720
G1 X110.117 Y107.52 F10800
G1 Z.4 F720
G1 E.8 F2100
;WIDTH:0.587396
G1 F4800
G1 X109.331 Y108.305 E.05029
G1 X110.26 Y108.305 E.04206
G1 X110.26 Y107.376 E.04206
M106 S170.85
;LAYER_CHANGE
;Z:0.6
;HEIGHT:0.2
;BEFORE_LAYER_CHANGE
G92 E0.0
;0.6


;WIPE_START
G1 F8640
G1 X110.26 Y108.305 E-.21451
G1 X109.331 Y108.305 E-.21451
G1 X110.117 Y107.52 E-.2565
;WIPE_END
G1 E-.11448 F2100
G1 Z.6 F720
;AFTER_LAYER_CHANGE
;0.6
; stop printing object WaveLaSOTestSpecimen.STL id:0 copy 0
G1 Z1
G1 X113.873 Y107.376 F10800
G1 Z.6 F720
G1 E.8 F2100
;TYPE:Skirt/Brim
;WIDTH:0.42
G1 F3000
G1 X113.873 Y109.352 E.06196
G1 X113.481 Y110.715 E.04447
G1 X112.424 Y111.662 E.0445
G1 X111.307 Y111.918 E.03593
G1 X96.307 Y111.918 E.47031
G1 X94.944 Y111.525 E.04448
G1 X93.997 Y110.469 E.04447
G1 X93.742 Y109.352 E.03592
G1 X93.742 Y94.352 E.47031
G1 X94.134 Y92.989 E.04447
G1 X95.191 Y92.042 E.0445
G1 X96.307 Y91.786 E.0359
G1 X111.307 Y91.786 E.47031
G1 X112.671 Y92.179 E.04451
G1 X113.617 Y93.235 E.04445
G1 X113.873 Y94.352 E.03593
G1 X113.873 Y107.316 E.40648
G1 X113.496 Y107.316 F10800
G1 F3000
G1 X113.496 Y109.352 E.06384
G1 X113.105 Y110.6 E.04101
G1 X112.072 Y111.403 E.04102
G1 X111.307 Y111.541 E.02437
G1 X96.307 Y111.541 E.47031
G1 X95.059 Y111.15 E.04101
G1 X94.257 Y110.117 E.041
G1 X94.119 Y109.352 E.02437
G1 X94.119 Y94.352 E.47031
G1 X94.51 Y93.104 E.04101
G1 X95.543 Y92.301 E.04102
G1 X96.307 Y92.163 E.02434
G1 X111.307 Y92.163 E.47031
G1 X112.555 Y92.554 E.04101
G1 X113.358 Y93.587 E.04102
G1 X113.496 Y94.352 E.02437
G1 X113.496 Y107.256 E.4046
;WIPE_START
G1 F8640
G1 X113.496 Y107.316 E-.01385
G1 X113.496 Y109.352 E-.47012
G1 X113.105 Y110.6 E-.30198
G1 X113.057 Y110.637 E-.01405
;WIPE_END
G1 Z1 F720
; printing object WaveLaSOTestSpecimen.STL id:0 copy 0
G1 X110.675 Y108.72 F10800
G1 Z.6 F720
G1 E.8 F2100
M204 S800
;TYPE:Perimeter
;WIDTH:0.449999
G1 F2700
G1 X96.939 Y108.72 E.46495
G1 X96.939 Y94.984 E.46495
G1 X110.675 Y94.984 E.46495
G1 X110.675 Y108.66 E.46292
M204 S1000
G1 X111.082 Y109.127 F10800
M204 S800
;TYPE:External perimeter
G1 F1500
G1 X96.532 Y109.127 E.4925
G1 X96.532 Y94.577 E.4925
G1 X111.082 Y94.577 E.4925
G1 X111.082 Y109.067 E.49047
M204 S1000
;WIPE_START
G1 F8640
G1 X111.082 Y109.127 E-.01385
G1 X107.677 Y109.127 E-.78615
;WIPE_END
G1 Z1 F720
G1 X97.318 Y108.263 F10800
G1 Z.6 F720
G1 E.8 F2100
;TYPE:Solid infill
;WIDTH:0.548766
G1 F4800
G1 X97.274 Y108.308 E.00265
G1 X97.29 Y108.369 E.00265
G1 X97.351 Y108.386 E.00266
G1 X97.396 Y108.341 E.00268
G1 X97.379 Y108.28 E.00266
G1 X98.175 Y108.507 F10800
;WIDTH:0.38292
G1 F4800
G1 X98.156 Y108.578 E.00208
G1 X98.227 Y108.559 E.00208
G1 X98.216 Y108.518 E.0012
;WIDTH:0.41646
G1 X98.123 Y108.446 E.00365
;WIDTH:0.449999
G1 X98.03 Y108.374 E.00398
G1 X97.285 Y107.63 E.03564
G1 X97.214 Y107.536 E.00399
;WIDTH:0.41646
G1 X97.142 Y107.443 E.00365
;WIDTH:0.38292
G1 X97.153 Y107.484 E.0012
G1 X97.082 Y107.503 E.00208
G1 X97.101 Y107.432 E.00208
;WIDTH:0.449999
G1 X97.285 Y107.054 E.01423
G1 X98.605 Y108.374 E.06319
G1 X99.181 Y108.374 E.0195
G1 X97.285 Y106.478 E.09076
G1 X97.285 Y105.903 E.01946
G1 X99.757 Y108.374 E.11831
G1 X100.332 Y108.374 E.01946
G1 X97.285 Y105.327 E.14586
G1 X97.285 Y104.751 E.0195
G1 X100.908 Y108.374 E.17343
G1 X101.484 Y108.374 E.0195
G1 X97.285 Y104.175 E.201
G1 X97.285 Y103.6 E.01946
G1 X102.06 Y108.374 E.22855
G1 X102.635 Y108.374 E.01946
G1 X97.285 Y103.024 E.2561
G1 X97.285 Y102.448 E.0195
G1 X103.211 Y108.374 E.28367
G1 X103.787 Y108.374 E.0195
