; HEADER_BLOCK_START
; generated by OrcaSlicer-WaveOverhangs 2.4.0-dev on 2026-05-13 at 13:30:55
; WAVE_OVERHANG_BUILD wave_overhangs_version=dev orca_base=2.4.0-dev
; WAVE_OVERHANG_CONFIG region=0 algo=andersons outer_perim=1 spacing=0.460 flow_mm3_per_mm=0.200 speed=2.0 travel=40.0 fan=100 floor_layers=2 min_angle=0.0 min_length=0.00 max_iterations=0 ring_overlap=0.15 pattern=smart spacing_mode=uniform seam_mode=alternating perimeter_overlap=0.20 minimum_wave_width=0.70 min_new_area=0.0100 corner_enable=0 corner_spacing=0.420 corner_taper=10.00 corner_angle=91 end_retract=0.00 nozzle_temp_override=0 min_wave_time=4.00 min_layer_time=0.00 wall_loops=3 top_shell_layers=2 bottom_shell_layers=4 infill_density=15 infill_pattern=rectilinear support_remainder=1 instead_of_bridges=1
; WAVE_OVERHANG_CONFIG region=1 algo=andersons outer_perim=1 spacing=0.460 flow_mm3_per_mm=0.200 speed=2.0 travel=40.0 fan=100 floor_layers=2 min_angle=0.0 min_length=0.00 max_iterations=0 ring_overlap=0.15 pattern=smart spacing_mode=uniform seam_mode=alternating perimeter_overlap=0.20 minimum_wave_width=0.70 min_new_area=0.0100 corner_enable=0 corner_spacing=0.420 corner_taper=10.00 corner_angle=91 end_retract=0.00 nozzle_temp_override=0 min_wave_time=4.00 min_layer_time=0.00 wall_loops=3 top_shell_layers=2 bottom_shell_layers=4 infill_density=15 infill_pattern=rectilinear support_remainder=1 instead_of_bridges=1
; WAVE_OVERHANG_CONFIG region=2 algo=andersons outer_perim=1 spacing=0.460 flow_mm3_per_mm=0.200 speed=2.0 travel=40.0 fan=100 floor_layers=2 min_angle=0.0 min_length=0.00 max_iterations=0 ring_overlap=0.15 pattern=smart spacing_mode=uniform seam_mode=alternating perimeter_overlap=0.20 minimum_wave_width=0.70 min_new_area=0.0100 corner_enable=0 corner_spacing=0.420 corner_taper=10.00 corner_angle=91 end_retract=0.00 nozzle_temp_override=0 min_wave_time=4.00 min_layer_time=0.00 wall_loops=3 top_shell_layers=2 bottom_shell_layers=4 infill_density=15 infill_pattern=rectilinear support_remainder=1 instead_of_bridges=1
; WAVE_OVERHANG_CONFIG region=3 algo=andersons outer_perim=1 spacing=0.460 flow_mm3_per_mm=0.200 speed=2.0 travel=40.0 fan=100 floor_layers=2 min_angle=0.0 min_length=0.00 max_iterations=0 ring_overlap=0.15 pattern=smart spacing_mode=uniform seam_mode=alternating perimeter_overlap=0.20 minimum_wave_width=0.70 min_new_area=0.0100 corner_enable=0 corner_spacing=0.420 corner_taper=10.00 corner_angle=91 end_retract=0.00 nozzle_temp_override=0 min_wave_time=4.00 min_layer_time=0.00 wall_loops=3 top_shell_layers=2 bottom_shell_layers=4 infill_density=15 infill_pattern=rectilinear support_remainder=1 instead_of_bridges=1
; WAVE_OVERHANG_CONFIG region=4 algo=andersons outer_perim=1 spacing=0.460 flow_mm3_per_mm=0.200 speed=2.0 travel=40.0 fan=100 floor_layers=2 min_angle=0.0 min_length=0.00 max_iterations=0 ring_overlap=0.15 pattern=smart spacing_mode=uniform seam_mode=alternating perimeter_overlap=0.20 minimum_wave_width=0.70 min_new_area=0.0100 corner_enable=0 corner_spacing=0.420 corner_taper=10.00 corner_angle=91 end_retract=0.00 nozzle_temp_override=0 min_wave_time=4.00 min_layer_time=0.00 wall_loops=3 top_shell_layers=2 bottom_shell_layers=4 infill_density=15 infill_pattern=rectilinear support_remainder=1 instead_of_bridges=1
; total layer number: 353
; filament_density: 1.24
; filament_diameter: 1.75
; max_z_height: 21.08
; filament: 1
; HEADER_BLOCK_END

; THUMBNAIL_BLOCK_START

;
; THUMBNAIL_BLOCK_END

; external perimeters extrusion width = 0.42mm
; perimeters extrusion width = 0.45mm
; infill extrusion width = 0.44mm
; solid infill extrusion width = 0.44mm
; top infill extrusion width = 0.38mm
; first layer extrusion width = 0.42mm

; external perimeters extrusion width = 0.42mm
; perimeters extrusion width = 0.45mm
; infill extrusion width = 0.44mm
; solid infill extrusion width = 0.44mm
; top infill extrusion width = 0.38mm
; first layer extrusion width = 0.42mm

; external perimeters extrusion width = 0.42mm
; perimeters extrusion width = 0.45mm
; infill extrusion width = 0.44mm
; solid infill extrusion width = 0.44mm
; top infill extrusion width = 0.38mm
; first layer extrusion width = 0.42mm

; external perimeters extrusion width = 0.42mm
; perimeters extrusion width = 0.45mm
; infill extrusion width = 0.44mm
; solid infill extrusion width = 0.44mm
; top infill extrusion width = 0.38mm
; first layer extrusion width = 0.42mm

; external perimeters extrusion width = 0.42mm
; perimeters extrusion width = 0.45mm
; infill extrusion width = 0.44mm
; solid infill extrusion width = 0.44mm
; top infill extrusion width = 0.38mm
; first layer extrusion width = 0.42mm

; EXECUTABLE_BLOCK_START
EXCLUDE_OBJECT_DEFINE NAME=WaveOverhangPreliminaryTesting.stl_id_0_copy_0 CENTER=67.5865,27.1422 POLYGON=[[52.5865,9.64221],[67.5865,9.64221],[82.5865,29.6422],[82.5865,44.6422],[52.5865,44.6422],[52.5865,9.64221]]
EXCLUDE_OBJECT_DEFINE NAME=FTS_Loop_Narrow.STL_id_1_copy_0 CENTER=170.001,21.6422 POLYGON=[[142.587,19.1422],[163.072,9.6422],[176.929,9.6422],[197.414,19.1422],[197.414,24.1422],[176.929,33.6422],[163.072,33.6422],[142.587,24.1422],[142.587,19.1422]]
EXCLUDE_OBJECT_DEFINE NAME=FTS_Loop_Holes.STL_id_2_copy_0 CENTER=70.0608,122.143 POLYGON=[[52.5865,121.196],[52.7913,119.312],[53.1987,117.461],[53.8037,115.666],[54.5993,113.946],[55.5762,112.322],[56.723,110.814],[58.0261,109.438],[59.4703,108.212],[61.0386,107.148],[62.7127,106.261],[64.473,105.559],[65.304,105.302],[66.2988,105.052],[68.1687,104.746],[70.0608,104.643],[71.9529,104.746],[73.8228,105.052],[75.6486,105.559],[77.4089,106.261],[79.083,107.148],[80.6513,108.212],[82.0955,109.438],[83.3986,110.814],[84.5454,112.322],[85.5223,113.946],[86.3179,115.666],[86.9229,117.461],[87.3303,119.312],[87.5351,121.196],[87.5351,123.091],[87.3303,124.974],[86.9229,126.825],[86.9035,126.894],[86.3179,128.621],[85.5223,130.34],[84.5454,131.964],[83.3986,133.472],[82.0955,134.848],[80.6513,136.075],[79.083,137.138],[77.4089,138.026],[75.6486,138.727],[73.8228,139.234],[71.9529,139.541],[70.0608,139.643],[68.1687,139.541],[66.2988,139.234],[64.473,138.727],[62.7127,138.026],[61.0386,137.138],[59.4703,136.075],[58.0261,134.848],[56.723,133.472],[55.5762,131.964],[54.5993,130.34],[53.8037,128.621],[53.1987,126.825],[52.7913,124.974],[52.5865,123.091],[52.5865,121.196]]
EXCLUDE_OBJECT_DEFINE NAME=FTS_Thick_OneCorner.STL_id_3_copy_0 CENTER=162.536,111.143 POLYGON=[[147.536,128.643],[147.536,93.6432],[162.536,93.6432],[177.536,113.643],[177.536,128.643],[147.536,128.643]]
EXCLUDE_OBJECT_DEFINE NAME=FTS_Curved_Incline.stl_id_4_copy_0 CENTER=78.2918,219.997 POLYGON=[[52.5865,199.644],[67.5865,199.644],[103.997,214.644],[103.826,217.229],[103.403,219.779],[102.733,222.272],[101.824,224.684],[100.684,226.99],[99.3262,229.17],[97.7636,231.203],[96.0122,233.07],[94.0895,234.753],[92.0145,236.237],[89.8078,237.509],[87.4909,238.556],[85.0867,239.369],[82.6185,239.942],[80.1103,240.27],[77.5865,240.35],[75.0712,240.182],[72.5888,239.769],[70.163,239.116],[67.8169,238.23],[65.573,237.12],[63.4523,235.797],[61.4749,234.276],[59.6594,232.571],[58.0227,230.7],[56.5798,228.68],[55.344,226.533],[54.3266,224.279],[53.5364,221.94],[52.9804,219.539],[52.663,217.099],[52.5865,214.644],[52.5865,199.644]]
M73 P0 R97
M106 S0
M106 P2 S0
;TYPE:Custom
G9111 bedTemp=55 extruderTemp=210
M117
G90
G21
M83 ; use relative distances for extrusion
; Filament gcode
M106 S0
M106 P2 S0
;LAYER_CHANGE
;Z:0.2
;HEIGHT:0.2
 ; PURGE LINE
M204 P500
SET_VELOCITY_LIMIT SQUARE_CORNER_VELOCITY=9
G1 Z0.50 F900 ; for object exclusion
G1 X89.365 Y255 F18000
G1 Z.25 F900
G1 E0.8 F2400
G1 E0.6
G1 F3000
G1 X158.835 Y255 E3.72454
G1 X158.835 Y255.45 E.0252
G1 X89.365 Y255.45 E3.72454
G1 X89.365 Y255.02 E.02305
G1 Z0.5 F600

G1 E-.8 F2400
; AFTER_LAYER_CHANGE 0 @ 0.2mm
;_SET_FAN_SPEED_CHANGING_LAYER
SET_VELOCITY_LIMIT ACCEL=2000 ACCEL_TO_DECEL=1000
; printing object WaveOverhangPreliminaryTesting.stl id:0 copy 0
EXCLUDE_OBJECT_START NAME=WaveOverhangPreliminaryTesting.stl_id_0_copy_0
G1 X50.484 Y28.534 F24000
G1 Z.6
G1 Z.2
G1 E.8 F2400
;TYPE:Brim
;WIDTH:0.42
G1 F4800
G1 X49.863 Y28.136 E.02267
G1 X49.383 Y27.708 E.01976
G1 X48.971 Y27.212 E.01979
G1 X48.639 Y26.664 E.01971
G1 X48.319 Y25.839 E.02717
G1 X48.188 Y25.209 E.01977
G1 X48.15 Y24.636 E.01765
G1 X48.15 Y9.649 E.4605
G1 X48.198 Y9 E.02001
G1 X48.34 Y8.374 E.01971
G1 X48.694 Y7.54 E.02786
G1 X49.093 Y6.919 E.02267
G1 X49.521 Y6.439 E.01976
G1 X50.016 Y6.027 E.01979
G1 X50.565 Y5.694 E.01973
G1 X51.337 Y5.39 E.0255
G1 X52.02 Y5.243 E.02145
G1 X52.593 Y5.206 E.01763
G1 X67.579 Y5.206 E.4605
G1 X68.229 Y5.254 E.02001
G1 X68.854 Y5.396 E.01971
G1 X69.689 Y5.75 E.02786
G1 X70.31 Y6.149 E.02267
G1 X70.79 Y6.577 E.01976
G1 X71.202 Y7.072 E.01979
G1 X71.535 Y7.621 E.01973
G1 X71.839 Y8.393 E.0255
G1 X71.985 Y9.076 E.02145
G1 X72.023 Y9.648 E.01763
G1 X72.023 Y24.635 E.4605
G1 X71.975 Y25.285 E.02001
G1 X71.833 Y25.91 E.01971
G1 X71.478 Y26.744 E.02786
G1 X71.08 Y27.366 E.02267
G1 X70.652 Y27.846 E.01976
G1 X70.157 Y28.257 E.01979
G1 X69.608 Y28.59 E.01971
G1 X68.783 Y28.909 E.02717
G1 X68.153 Y29.041 E.01977
G1 X67.58 Y29.079 E.01765
G1 X52.593 Y29.079 E.4605
G1 X51.944 Y29.03 E.02001
G1 X51.319 Y28.888 E.01971
G1 X50.521 Y28.55 E.02663
G1 X50.67 Y28.203 F24000
G1 F4800
G1 X50.085 Y27.829 E.02134
G1 X49.65 Y27.438 E.01797
G1 X49.285 Y26.999 E.01755
G1 X48.975 Y26.487 E.01839
G1 X48.68 Y25.723 E.02518
G1 X48.564 Y25.166 E.01748
G1 X48.527 Y24.627 E.01658
G1 X48.527 Y9.659 E.45993
G1 X48.574 Y9.048 E.01884
G1 X48.705 Y8.481 E.01785
G1 X49.025 Y7.725 E.02523
G1 X49.4 Y7.141 E.02134
G1 X49.79 Y6.705 E.01797
G1 X50.229 Y6.34 E.01755
G1 X50.725 Y6.038 E.01784
G1 X51.438 Y5.755 E.02356
G1 X52.08 Y5.617 E.02019
G1 X52.609 Y5.583 E.01627
G1 X67.57 Y5.583 E.45971
G1 X68.181 Y5.63 E.01884
G1 X68.747 Y5.76 E.01785
G1 X69.503 Y6.081 E.02523
G1 X70.088 Y6.456 E.02134
G1 X70.523 Y6.846 E.01797
G1 X70.888 Y7.285 E.01755
G1 X71.191 Y7.781 E.01784
G1 X71.473 Y8.494 E.02356
G1 X71.609 Y9.12 E.01968
G1 X71.646 Y9.664 E.01677
G1 X71.645 Y24.625 E.45971
G1 X71.599 Y25.237 E.01884
G1 X71.468 Y25.803 E.01785
G1 X71.148 Y26.559 E.02523
G1 X70.773 Y27.144 E.02134
G1 X70.383 Y27.579 E.01797
G1 X69.944 Y27.944 E.01755
G1 X69.432 Y28.254 E.01839
G1 X68.667 Y28.549 E.02518
G1 X68.11 Y28.665 E.01748
G1 X67.572 Y28.701 E.01659
G1 X52.603 Y28.701 E.45993
G1 X51.992 Y28.654 E.01884
G1 X51.426 Y28.524 E.01785
G1 X50.707 Y28.219 E.024
G1 X50.855 Y27.872 F24000
G1 F4800
G1 X50.307 Y27.521 E.01999
G1 X49.928 Y27.182 E.01565
G1 X49.598 Y26.786 E.01582
G1 X49.311 Y26.311 E.01706
G1 X49.041 Y25.607 E.02318
G1 X48.938 Y25.107 E.01569
G1 X48.904 Y24.611 E.01527
G1 X48.905 Y9.669 E.45911
G1 X48.947 Y9.113 E.01714
G1 X49.068 Y8.589 E.01653
G1 X49.356 Y7.911 E.02264
G1 X49.707 Y7.363 E.01999
G1 X50.059 Y6.972 E.01616
G1 X50.456 Y6.644 E.01584
G1 X50.886 Y6.382 E.01546
G1 X51.539 Y6.121 E.02162
G1 X52.141 Y5.991 E.01891
G1 X52.625 Y5.96 E.0149
G1 X67.551 Y5.96 E.45864
G1 X68.116 Y6.003 E.0174
G1 X68.64 Y6.124 E.01653
G1 X69.318 Y6.412 E.02264
G1 X69.866 Y6.763 E.01999
G1 X70.256 Y7.115 E.01616
G1 X70.585 Y7.512 E.01584
G1 X70.847 Y7.942 E.01546
G1 X71.108 Y8.595 E.02163
G1 X71.235 Y9.181 E.01841
G1 X71.269 Y9.681 E.0154
G1 X71.268 Y24.615 E.45889
G1 X71.226 Y25.171 E.01714
G1 X71.104 Y25.695 E.01653
G1 X70.817 Y26.373 E.02264
G1 X70.466 Y26.921 E.01999
G1 X70.126 Y27.301 E.01565
G1 X69.731 Y27.631 E.01582
G1 X69.256 Y27.918 E.01706
G1 X68.551 Y28.188 E.02318
G1 X68.051 Y28.291 E.01569
G1 X67.555 Y28.324 E.01527
G1 X52.613 Y28.324 E.45911
G1 X52.057 Y28.281 E.01714
G1 X51.533 Y28.16 E.01653
G1 X50.892 Y27.888 E.02141
G1 X51.041 Y27.541 F24000
G1 F4800
G1 X50.53 Y27.214 E.01865
G1 X50.195 Y26.913 E.01385
G1 X49.911 Y26.573 E.01358
G1 X49.647 Y26.136 E.01571
G1 X49.402 Y25.491 E.02118
G1 X49.312 Y25.048 E.01391
G1 X49.282 Y24.594 E.01397
G1 X49.282 Y9.679 E.4583
G1 X49.321 Y9.179 E.01542
G1 X49.432 Y8.697 E.0152
G1 X49.687 Y8.096 E.02005
G1 X50.014 Y7.586 E.01864
G1 X50.327 Y7.24 E.01433
G1 X50.669 Y6.957 E.01365
G1 X51.047 Y6.725 E.0136
G1 X51.641 Y6.486 E.01967
G1 X52.201 Y6.365 E.01762
G1 X52.641 Y6.337 E.01352
G1 X67.532 Y6.337 E.45758
G1 X68.05 Y6.376 E.01595
G1 X68.532 Y6.488 E.01519
G1 X69.132 Y6.743 E.02005
G1 X69.643 Y7.07 E.01864
G1 X69.989 Y7.383 E.01433
G1 X70.272 Y7.725 E.01365
G1 X70.503 Y8.103 E.0136
G1 X70.743 Y8.698 E.0197
G1 X70.861 Y9.242 E.01714
G1 X70.892 Y9.697 E.01401
G1 X70.891 Y24.605 E.45807
G1 X70.852 Y25.106 E.01542
G1 X70.741 Y25.587 E.0152
G1 X70.486 Y26.188 E.02005
G1 X70.158 Y26.699 E.01865
G1 X69.857 Y27.034 E.01385
G1 X69.518 Y27.317 E.01358
G1 X69.08 Y27.581 E.01571
G1 X68.436 Y27.826 E.02118
G1 X67.992 Y27.917 E.01391
G1 X67.539 Y27.947 E.01397
G1 X52.624 Y27.946 E.4583
G1 X52.123 Y27.908 E.01542
G1 X51.641 Y27.796 E.0152
G1 X51.077 Y27.557 E.01882
G1 X51.226 Y27.211 F24000
G1 F4800
G1 X50.752 Y26.907 E.01729
G1 X50.473 Y26.656 E.01154
G1 X50.225 Y26.361 E.01184
G1 X49.984 Y25.96 E.01435
G1 X49.764 Y25.377 E.01916
G1 X49.686 Y24.99 E.01214
G1 X49.659 Y24.578 E.01268
G1 X49.66 Y9.689 E.45749
G1 X49.696 Y9.228 E.01423
G1 X49.796 Y8.805 E.01334
G1 X50.018 Y8.282 E.01747
G1 X50.321 Y7.808 E.01727
G1 X50.595 Y7.508 E.01249
G1 X50.896 Y7.26 E.01199
G1 X51.226 Y7.06 E.01185
G1 X51.761 Y6.846 E.01772
G1 X52.245 Y6.742 E.01522
G1 X52.649 Y6.714 E.01243
G1 X67.514 Y6.714 E.45675
G1 X67.984 Y6.75 E.01449
G1 X68.424 Y6.852 E.01386
G1 X68.947 Y7.074 E.01747
G1 X69.42 Y7.377 E.01727
G1 X69.721 Y7.651 E.01249
G1 X69.959 Y7.939 E.0115
G1 X70.16 Y8.265 E.01176
G1 X70.377 Y8.8 E.01775
G1 X70.488 Y9.304 E.01585
G1 X70.515 Y9.714 E.01262
G1 X70.514 Y24.586 E.457
G1 X70.479 Y25.04 E.01397
G1 X70.377 Y25.479 E.01387
G1 X70.155 Y26.003 E.01747
G1 X69.851 Y26.477 E.01729
G1 X69.6 Y26.756 E.01154
G1 X69.305 Y27.004 E.01184
G1 X68.905 Y27.244 E.01435
G1 X68.321 Y27.465 E.01916
G1 X67.934 Y27.543 E.01214
G1 X67.522 Y27.57 E.01268
G1 X52.634 Y27.569 E.45749
G1 X52.172 Y27.532 E.01423
G1 X51.749 Y27.433 E.01334
G1 X51.263 Y27.226 E.01624
G1 X51.412 Y26.878 F24000
G1 F4800
G1 X51.395 Y26.871 E.00058
G1 X50.975 Y26.6 E.01535
G1 X50.74 Y26.387 E.00974
G1 X50.538 Y26.148 E.00961
G1 X50.321 Y25.786 E.01297
G1 X50.126 Y25.263 E.01714
G1 X50.06 Y24.932 E.01037
G1 X50.036 Y24.562 E.01141
G1 X50.037 Y9.709 E.45639
G1 X50.069 Y9.295 E.01276
G1 X50.159 Y8.914 E.01203
G1 X50.358 Y8.45 E.0155
G1 X50.628 Y8.032 E.01531
G1 X50.85 Y7.788 E.01013
G1 X51.109 Y7.573 E.01032
G1 X51.403 Y7.395 E.01059
G1 X51.881 Y7.206 E.01578
G1 X52.29 Y7.118 E.01287
G1 X52.658 Y7.092 E.01133
G1 X67.496 Y7.092 E.45592
G1 X67.918 Y7.123 E.01303
G1 X68.315 Y7.215 E.01253
G1 X68.778 Y7.414 E.01548
G1 X69.197 Y7.684 E.01531
G1 X69.452 Y7.918 E.01064
G1 X69.656 Y8.166 E.00987
G1 X69.818 Y8.427 E.00945
G1 X70.012 Y8.903 E.01579
G1 X70.114 Y9.365 E.01454
G1 X70.137 Y9.73 E.01123
G1 X70.137 Y24.568 E.45593
G1 X70.103 Y24.991 E.01304
G1 X70.013 Y25.371 E.01201
G1 X69.815 Y25.834 E.01548
G1 X69.544 Y26.254 E.01535
G1 X69.331 Y26.489 E.00974
G1 X69.092 Y26.69 E.00961
G1 X68.73 Y26.907 E.01297
G1 X68.208 Y27.103 E.01714
G1 X67.877 Y27.169 E.01037
G1 X67.506 Y27.193 E.01141
G1 X52.653 Y27.192 E.45639
G1 X52.239 Y27.159 E.01276
G1 X51.858 Y27.069 E.01203
G1 X51.449 Y26.894 E.01369
G1 X51.652 Y26.562 F24000
G1 F4800
G1 X51.227 Y26.302 E.01529
G1 X50.934 Y26.022 E.01247
G1 X50.703 Y25.688 E.01246
G1 X50.547 Y25.349 E.01147
G1 X50.452 Y24.985 E.01155
G1 X50.413 Y24.606 E.0117
G1 X50.423 Y9.544 E.46281
G1 X50.496 Y9.126 E.01306
G1 X50.62 Y8.784 E.01117
G1 X50.871 Y8.358 E.01518
G1 X51.125 Y8.061 E.01201
G1 X51.457 Y7.808 E.01282
G1 X51.788 Y7.638 E.01145
G1 X52.159 Y7.525 E.01189
G1 X52.624 Y7.468 E.01442
G1 X67.545 Y7.468 E.45846
G1 X68.013 Y7.53 E.01451
G1 X68.446 Y7.677 E.01405
G1 X68.946 Y7.983 E.018
G1 X69.239 Y8.263 E.01247
G1 X69.47 Y8.596 E.01246
G1 X69.626 Y8.936 E.01147
G1 X69.721 Y9.299 E.01155
G1 X69.76 Y9.678 E.0117
G1 X69.76 Y24.6 E.45852
G1 X69.698 Y25.069 E.01451
G1 X69.552 Y25.502 E.01405
G1 X69.246 Y26.001 E.018
G1 X68.966 Y26.295 E.01247
