; HEADER_BLOCK_START
; generated by OrcaSlicer-WaveOverhangs 2.4.0-dev on 2026-05-13 at 14:36:21
; WAVE_OVERHANG_BUILD wave_overhangs_version=dev orca_base=2.4.0-dev
; WAVE_OVERHANG_CONFIG region=0 algo=andersons outer_perim=1 spacing=0.460 flow_mm3_per_mm=0.200 speed=2.0 travel=40.0 fan=100 floor_layers=2 min_angle=0.0 min_length=0.00 max_iterations=0 ring_overlap=0.15 pattern=zigzag spacing_mode=uniform seam_mode=alternating perimeter_overlap=0.20 minimum_wave_width=0.70 min_new_area=0.0100 corner_enable=0 corner_spacing=0.420 corner_taper=10.00 corner_angle=91 end_retract=0.00 nozzle_temp_override=0 min_wave_time=0.00 min_layer_time=0.00 wall_loops=3 top_shell_layers=2 bottom_shell_layers=4 infill_density=15 infill_pattern=rectilinear support_remainder=1 instead_of_bridges=1
; total layer number: 84
; filament_density: 1.24
; filament_diameter: 1.75
; max_z_height: 20.12
; filament: 1
; HEADER_BLOCK_END

; THUMBNAIL_BLOCK_START

;
; THUMBNAIL_BLOCK_END

; external perimeters extrusion width = 0.42mm
; perimeters extrusion width = 0.45mm
; infill extrusion width = 0.44mm
; solid infill extrusion width = 0.44mm
; top infill extrusion width = 0.38mm
; first layer extrusion width = 0.42mm

; EXECUTABLE_BLOCK_START
EXCLUDE_OBJECT_DEFINE NAME=FTS_Thick_OneCorner.STL_id_0_copy_0 CENTER=134.367,133.327 POLYGON=[[119.367,150.827],[119.367,115.827],[134.367,115.827],[149.367,135.827],[149.367,150.827],[119.367,150.827]]
M73 P0 R17
M106 S0
M106 P2 S0
;TYPE:Custom
G9111 bedTemp=55 extruderTemp=210
M117
G90
G21
M83 ; use relative distances for extrusion
; Filament gcode
M106 S0
M106 P2 S0
;LAYER_CHANGE
;Z:0.2
;HEIGHT:0.2
 ; PURGE LINE
M204 P500
SET_VELOCITY_LIMIT SQUARE_CORNER_VELOCITY=9
G1 Z0.50 F900 ; for object exclusion
G1 X89.365 Y255 F18000
G1 Z.25 F900
G1 E0.8 F2400
G1 E0.6
G1 F3000
G1 X158.835 Y255 E3.72454
G1 X158.835 Y255.45 E.0252
G1 X89.365 Y255.45 E3.72454
G1 X89.365 Y255.02 E.02305
G1 Z0.5 F600

G1 E-.8 F2400
; AFTER_LAYER_CHANGE 0 @ 0.2mm
;_SET_FAN_SPEED_CHANGING_LAYER
SET_VELOCITY_LIMIT ACCEL=2000 ACCEL_TO_DECEL=1000
; printing object FTS_Thick_OneCorner.STL id:0 copy 0
EXCLUDE_OBJECT_START NAME=FTS_Thick_OneCorner.STL_id_0_copy_0
G1 X114.979 Y115.185 F24000
G1 Z.6
G1 Z.2
G1 E.8 F2400
;TYPE:Brim
;WIDTH:0.42
G1 F4800
G1 X115.121 Y114.559 E.01971
G1 X115.475 Y113.725 E.02786
G1 X115.874 Y113.104 E.02267
G1 X116.302 Y112.624 E.01976
G1 X116.797 Y112.212 E.01979
G1 X117.346 Y111.879 E.01973
G1 X118.118 Y111.575 E.0255
G1 X118.801 Y111.428 E.02145
G1 X119.373 Y111.391 E.01763
G1 X134.36 Y111.391 E.4605
G1 X135.01 Y111.439 E.02001
G1 X135.635 Y111.581 E.01971
G1 X136.469 Y111.935 E.02786
G1 X137.091 Y112.333 E.02267
G1 X137.571 Y112.762 E.01976
G1 X137.982 Y113.257 E.01979
G1 X138.315 Y113.806 E.01973
G1 X138.62 Y114.578 E.0255
G1 X138.766 Y115.261 E.02145
G1 X138.804 Y115.833 E.01763
G1 X138.804 Y130.82 E.4605
G1 X138.755 Y131.469 E.02001
G1 X138.613 Y132.095 E.01971
G1 X138.259 Y132.929 E.02786
G1 X137.861 Y133.55 E.02267
G1 X137.433 Y134.03 E.01976
G1 X136.937 Y134.442 E.01979
G1 X136.389 Y134.775 E.01971
G1 X135.564 Y135.094 E.02717
G1 X134.934 Y135.226 E.01977
G1 X134.361 Y135.263 E.01765
G1 X119.374 Y135.263 E.4605
G1 X118.725 Y135.215 E.02001
G1 X118.099 Y135.073 E.01971
G1 X117.265 Y134.719 E.02786
G1 X116.644 Y134.321 E.02267
G1 X116.164 Y133.892 E.01976
G1 X115.752 Y133.397 E.01979
G1 X115.419 Y132.849 E.01971
G1 X115.1 Y132.024 E.02717
G1 X114.969 Y131.394 E.01977
G1 X114.931 Y130.821 E.01765
G1 X114.931 Y115.834 E.4605
G1 X114.976 Y115.225 E.01878
G1 X115.353 Y115.253 F24000
G1 F4800
G1 X115.355 Y115.233 E.00065
G1 X115.485 Y114.666 E.01785
G1 X115.806 Y113.91 E.02523
G1 X116.181 Y113.326 E.02134
G1 X116.571 Y112.89 E.01797
G1 X117.01 Y112.525 E.01755
G1 X117.506 Y112.223 E.01784
G1 X118.219 Y111.94 E.02356
G1 X118.861 Y111.802 E.02019
G1 X119.389 Y111.768 E.01627
G1 X134.35 Y111.768 E.45971
G1 X134.962 Y111.815 E.01884
G1 X135.528 Y111.945 E.01785
G1 X136.284 Y112.266 E.02523
G1 X136.869 Y112.641 E.02134
G1 X137.304 Y113.031 E.01797
G1 X137.669 Y113.47 E.01755
G1 X137.971 Y113.966 E.01784
G1 X138.254 Y114.679 E.02356
G1 X138.39 Y115.305 E.01968
G1 X138.427 Y115.849 E.01677
G1 X138.426 Y130.81 E.45971
G1 X138.379 Y131.422 E.01884
G1 X138.249 Y131.988 E.01785
G1 X137.928 Y132.744 E.02523
G1 X137.554 Y133.328 E.02134
G1 X137.163 Y133.764 E.01797
G1 X136.724 Y134.129 E.01755
G1 X136.212 Y134.439 E.01839
G1 X135.448 Y134.733 E.02518
G1 X134.891 Y134.85 E.01748
G1 X134.352 Y134.886 E.01659
G1 X119.384 Y134.886 E.45993
G1 X118.773 Y134.839 E.01884
G1 X118.206 Y134.709 E.01785
G1 X117.45 Y134.388 E.02523
G1 X116.866 Y134.013 E.02134
G1 X116.43 Y133.623 E.01797
G1 X116.065 Y133.184 E.01755
G1 X115.755 Y132.672 E.01839
G1 X115.461 Y131.908 E.02518
G1 X115.345 Y131.351 E.01748
G1 X115.308 Y130.812 E.01658
G1 X115.308 Y115.844 E.45993
G1 X115.35 Y115.293 E.01697
G1 X115.726 Y115.322 F24000
G1 F4800
G1 X115.728 Y115.298 E.00074
G1 X115.849 Y114.774 E.01653
G1 X116.137 Y114.096 E.02264
G1 X116.488 Y113.548 E.01999
G1 X116.84 Y113.157 E.01616
G1 X117.237 Y112.828 E.01584
G1 X117.667 Y112.567 E.01546
G1 X118.32 Y112.306 E.02162
G1 X118.922 Y112.176 E.01891
G1 X119.405 Y112.145 E.0149
G1 X134.332 Y112.145 E.45864
G1 X134.896 Y112.188 E.0174
G1 X135.42 Y112.309 E.01653
G1 X136.098 Y112.597 E.02264
G1 X136.646 Y112.948 E.01999
G1 X137.037 Y113.3 E.01616
G1 X137.366 Y113.697 E.01584
G1 X137.628 Y114.126 E.01546
G1 X137.889 Y114.78 E.02163
G1 X138.016 Y115.366 E.01841
G1 X138.049 Y115.866 E.0154
G1 X138.049 Y130.8 E.45889
G1 X138.006 Y131.356 E.01714
G1 X137.885 Y131.88 E.01653
G1 X137.597 Y132.558 E.02264
G1 X137.246 Y133.106 E.01999
G1 X136.907 Y133.485 E.01565
G1 X136.511 Y133.816 E.01582
G1 X136.036 Y134.103 E.01706
G1 X135.332 Y134.372 E.02318
G1 X134.832 Y134.476 E.01569
G1 X134.336 Y134.509 E.01527
G1 X119.394 Y134.509 E.45911
G1 X118.838 Y134.466 E.01714
G1 X118.314 Y134.345 E.01653
G1 X117.636 Y134.057 E.02264
G1 X117.088 Y133.706 E.01999
G1 X116.709 Y133.366 E.01565
G1 X116.379 Y132.971 E.01582
G1 X116.092 Y132.496 E.01706
G1 X115.822 Y131.792 E.02318
G1 X115.719 Y131.291 E.01569
G1 X115.685 Y130.796 E.01527
G1 X115.686 Y115.854 E.45911
G1 X115.723 Y115.362 E.01516
G1 X116.099 Y115.391 F24000
G1 F4800
G1 X116.101 Y115.364 E.00084
G1 X116.213 Y114.882 E.0152
G1 X116.468 Y114.281 E.02005
G1 X116.795 Y113.77 E.01864
G1 X117.108 Y113.425 E.01433
G1 X117.45 Y113.141 E.01365
G1 X117.828 Y112.91 E.0136
G1 X118.422 Y112.671 E.01967
G1 X118.982 Y112.55 E.01762
G1 X119.421 Y112.522 E.01352
G1 X134.313 Y112.522 E.45758
G1 X134.831 Y112.561 E.01595
G1 X135.312 Y112.673 E.01519
G1 X135.913 Y112.928 E.02005
G1 X136.424 Y113.255 E.01864
G1 X136.77 Y113.568 E.01433
G1 X137.053 Y113.91 E.01365
G1 X137.284 Y114.287 E.0136
G1 X137.523 Y114.882 E.0197
G1 X137.642 Y115.427 E.01714
G1 X137.672 Y115.882 E.01401
G1 X137.671 Y130.79 E.45807
G1 X137.633 Y131.291 E.01542
G1 X137.521 Y131.772 E.0152
G1 X137.266 Y132.373 E.02005
G1 X136.939 Y132.884 E.01865
G1 X136.638 Y133.219 E.01385
G1 X136.298 Y133.502 E.01358
G1 X135.861 Y133.766 E.01571
G1 X135.217 Y134.011 E.02118
G1 X134.773 Y134.102 E.01391
G1 X134.319 Y134.132 E.01397
G1 X119.404 Y134.131 E.4583
G1 X118.904 Y134.093 E.01542
G1 X118.422 Y133.981 E.0152
G1 X117.821 Y133.726 E.02005
G1 X117.31 Y133.399 E.01865
G1 X116.976 Y133.098 E.01385
G1 X116.692 Y132.758 E.01358
G1 X116.428 Y132.321 E.01571
G1 X116.183 Y131.676 E.02118
G1 X116.093 Y131.233 E.01391
G1 X116.062 Y130.779 E.01397
G1 X116.063 Y115.864 E.4583
G1 X116.096 Y115.431 E.01336
G1 X116.473 Y115.461 F24000
G1 F4800
G1 X116.477 Y115.413 E.00148
G1 X116.577 Y114.99 E.01334
G1 X116.799 Y114.467 E.01747
G1 X117.102 Y113.993 E.01727
G1 X117.376 Y113.693 E.01249
G1 X117.677 Y113.445 E.01199
G1 X118.006 Y113.245 E.01185
G1 X118.542 Y113.031 E.01772
G1 X119.026 Y112.926 E.01522
G1 X119.43 Y112.899 E.01243
G1 X134.295 Y112.899 E.45675
G1 X134.765 Y112.934 E.01449
G1 X135.204 Y113.037 E.01386
G1 X135.728 Y113.259 E.01747
G1 X136.201 Y113.562 E.01727
G1 X136.502 Y113.835 E.01249
G1 X136.74 Y114.124 E.0115
G1 X136.941 Y114.449 E.01176
G1 X137.158 Y114.985 E.01775
G1 X137.268 Y115.489 E.01585
G1 X137.295 Y115.899 E.01262
G1 X137.294 Y130.771 E.457
G1 X137.26 Y131.225 E.01397
G1 X137.158 Y131.664 E.01387
G1 X136.936 Y132.188 E.01747
G1 X136.632 Y132.661 E.01729
G1 X136.381 Y132.941 E.01154
G1 X136.086 Y133.189 E.01184
G1 X135.685 Y133.429 E.01435
G1 X135.102 Y133.65 E.01916
G1 X134.715 Y133.728 E.01214
G1 X134.303 Y133.755 E.01268
G1 X119.414 Y133.754 E.45749
G1 X118.953 Y133.717 E.01423
G1 X118.53 Y133.617 E.01334
G1 X118.007 Y133.395 E.01747
G1 X117.533 Y133.092 E.01729
G1 X117.254 Y132.841 E.01154
G1 X117.006 Y132.546 E.01184
G1 X116.765 Y132.145 E.01435
G1 X116.545 Y131.562 E.01916
G1 X116.467 Y131.175 E.01214
G1 X116.439 Y130.763 E.01268
G1 X116.44 Y115.874 E.45749
G1 X116.47 Y115.5 E.01152
G1 X116.846 Y115.53 F24000
G1 F4800
G1 X116.85 Y115.48 E.00155
G1 X116.94 Y115.099 E.01203
G1 X117.139 Y114.635 E.0155
G1 X117.409 Y114.216 E.01531
G1 X117.631 Y113.973 E.01013
G1 X117.889 Y113.758 E.01032
G1 X118.184 Y113.58 E.01059
G1 X118.662 Y113.391 E.01578
G1 X119.071 Y113.303 E.01287
G1 X119.439 Y113.277 E.01133
M73 P1 R17
G1 X134.276 Y113.276 E.45592
G1 X134.699 Y113.308 E.01303
G1 X135.096 Y113.4 E.01253
G1 X135.559 Y113.599 E.01548
G1 X135.978 Y113.869 E.01531
G1 X136.233 Y114.103 E.01064
G1 X136.437 Y114.351 E.00987
G1 X136.599 Y114.612 E.00945
G1 X136.793 Y115.088 E.01579
G1 X136.894 Y115.55 E.01454
G1 X136.918 Y115.915 E.01123
G1 X136.917 Y130.753 E.45593
G1 X136.884 Y131.176 E.01304
G1 X136.794 Y131.556 E.01201
G1 X136.596 Y132.019 E.01548
G1 X136.325 Y132.439 E.01535
G1 X136.112 Y132.674 E.00974
G1 X135.873 Y132.875 E.00961
G1 X135.511 Y133.092 E.01297
G1 X134.988 Y133.288 E.01714
G1 X134.657 Y133.354 E.01037
G1 X134.287 Y133.378 E.01141
G1 X119.434 Y133.377 E.45639
G1 X119.02 Y133.344 E.01276
G1 X118.639 Y133.254 E.01203
G1 X118.175 Y133.056 E.0155
G1 X117.755 Y132.785 E.01535
G1 X117.52 Y132.572 E.00974
G1 X117.319 Y132.333 E.00961
G1 X117.102 Y131.971 E.01297
G1 X116.906 Y131.448 E.01714
G1 X116.841 Y131.117 E.01037
G1 X116.816 Y130.747 E.01141
G1 X116.818 Y115.894 E.45639
G1 X116.843 Y115.57 E.00998
G1 X117.22 Y115.636 F24000
G1 F4800
G1 X117.277 Y115.311 E.01014
G1 X117.401 Y114.969 E.01117
G1 X117.652 Y114.543 E.01518
G1 X117.906 Y114.246 E.01201
G1 X118.238 Y113.993 E.01282
G1 X118.569 Y113.823 E.01145
G1 X118.939 Y113.71 E.01189
G1 X119.405 Y113.653 E.01442
G1 X134.325 Y113.653 E.45846
G1 X134.794 Y113.715 E.01451
G1 X135.227 Y113.862 E.01405
G1 X135.726 Y114.167 E.018
G1 X136.02 Y114.447 E.01247
G1 X136.251 Y114.781 E.01246
G1 X136.406 Y115.121 E.01147
G1 X136.502 Y115.484 E.01155
G1 X136.541 Y115.863 E.0117
G1 X136.541 Y130.785 E.45852
G1 X136.479 Y131.253 E.01451
G1 X136.333 Y131.687 E.01405
G1 X136.027 Y132.186 E.018
G1 X135.747 Y132.48 E.01247
G1 X135.413 Y132.711 E.01246
G1 X135.074 Y132.866 E.01147
G1 X134.71 Y132.962 E.01155
G1 X134.331 Y133.001 E.0117
G1 X119.409 Y133.001 E.45852
G1 X118.941 Y132.939 E.01451
G1 X118.508 Y132.793 E.01405
G1 X118.008 Y132.487 E.018
G1 X117.714 Y132.207 E.01247
G1 X117.483 Y131.873 E.01246
G1 X117.328 Y131.534 E.01147
G1 X117.233 Y131.17 E.01155
G1 X117.193 Y130.791 E.0117
G1 X117.204 Y115.729 E.46281
G1 X117.213 Y115.675 E.00169
G1 X117.585 Y115.734 F24000
G1 F4800
G1 X117.633 Y115.435 E.0093
G1 X117.72 Y115.169 E.0086
G1 X117.982 Y114.726 E.01581
G1 X118.132 Y114.548 E.00717
G1 X118.409 Y114.329 E.01085
G1 X118.679 Y114.183 E.00943
G1 X118.979 Y114.085 E.0097
G1 X119.398 Y114.03 E.01298
G1 X134.333 Y114.03 E.4589
G1 X134.675 Y114.073 E.01061
G1 X135.026 Y114.181 E.01127
G1 X135.466 Y114.441 E.01571
G1 X135.709 Y114.66 E.01004
G1 X135.908 Y114.937 E.01048
G1 X136.041 Y115.214 E.00946
G1 X136.126 Y115.518 E.0097
G1 X136.164 Y115.857 E.01047
G1 X136.164 Y130.793 E.45893
G1 X136.121 Y131.135 E.01061
G1 X136.014 Y131.486 E.01127
G1 X135.754 Y131.926 E.01571
G1 X135.534 Y132.169 E.01004
G1 X135.258 Y132.368 E.01048
G1 X134.98 Y132.501 E.00946
G1 X134.676 Y132.586 E.0097
G1 X134.337 Y132.624 E.01047
G1 X119.402 Y132.624 E.45893
G1 X119.059 Y132.581 E.01061
G1 X118.708 Y132.473 E.01127
G1 X118.268 Y132.214 E.01571
G1 X118.026 Y131.994 E.01004
G1 X117.827 Y131.717 E.01048
G1 X117.693 Y131.44 E.00946
G1 X117.608 Y131.136 E.0097
G1 X117.57 Y130.797 E.01047
G1 X117.575 Y115.797 E.46093
G1 X117.579 Y115.774 E.00071
G1 X117.952 Y115.825 F24000
G1 F4800
G1 X117.988 Y115.562 E.00816
G1 X118.082 Y115.276 E.00925
G1 X118.305 Y114.92 E.01289
G1 X118.419 Y114.793 E.00526
G1 X118.641 Y114.626 E.00855
G1 X118.857 Y114.516 E.00744
G1 X119.096 Y114.443 E.00769
G1 X119.391 Y114.407 E.00912
G1 X134.34 Y114.407 E.45934
G1 X134.632 Y114.448 E.00907
G1 X134.918 Y114.542 E.00925
G1 X135.274 Y114.765 E.01289
G1 X135.402 Y114.879 E.00526
G1 X135.569 Y115.101 E.00855
G1 X135.678 Y115.317 E.00744
G1 X135.751 Y115.556 E.00769
G1 X135.787 Y115.851 E.00912
G1 X135.787 Y130.8 E.45934
G1 X135.747 Y131.092 E.00907
G1 X135.652 Y131.378 E.00925
G1 X135.43 Y131.734 E.01289
G1 X135.316 Y131.861 E.00526
G1 X135.093 Y132.028 E.00855
G1 X134.878 Y132.138 E.00744
G1 X134.638 Y132.211 E.00769
G1 X134.344 Y132.247 E.00912
G1 X119.395 Y132.247 E.45934
G1 X119.102 Y132.207 E.00907
G1 X118.816 Y132.112 E.00925
G1 X118.461 Y131.89 E.01289
G1 X118.333 Y131.776 E.00526
G1 X118.166 Y131.553 E.00855
G1 X118.056 Y131.337 E.00744
G1 X117.983 Y131.098 E.00769
G1 X117.947 Y130.803 E.00912
G1 X117.947 Y115.865 E.45903
G1 X118.325 Y115.865 F24000
G1 F4800
G1 X118.325 Y115.847 E.00055
G1 X118.361 Y115.612 E.00729
G1 X118.44 Y115.394 E.00713
G1 X118.621 Y115.126 E.00993
G1 X118.694 Y115.05 E.00325
G1 X118.864 Y114.929 E.00641
G1 X119.024 Y114.854 E.00544
G1 X119.139 Y114.818 E.00371
G1 X119.384 Y114.784 E.00758
G1 X134.348 Y114.784 E.45979
G1 X134.582 Y114.821 E.00729
G1 X134.8 Y114.9 E.00713
G1 X135.068 Y115.08 E.00993
G1 X135.144 Y115.154 E.00325
G1 X135.265 Y115.324 E.0064
G1 X135.341 Y115.484 E.00544
G1 X135.376 Y115.599 E.00371
G1 X135.41 Y115.844 E.00758
G1 X135.41 Y130.807 E.45979
G1 X135.373 Y131.042 E.00729
G1 X135.294 Y131.26 E.00713
G1 X135.114 Y131.528 E.00993
G1 X135.04 Y131.604 E.00325
G1 X134.87 Y131.725 E.0064
G1 X134.71 Y131.8 E.00544
G1 X134.595 Y131.836 E.00371
G1 X134.35 Y131.87 E.00758
G1 X119.387 Y131.87 E.45979
G1 X119.153 Y131.833 E.00729
G1 X118.934 Y131.754 E.00713
G1 X118.666 Y131.574 E.00993
G1 X118.59 Y131.5 E.00325
G1 X118.47 Y131.33 E.00641
G1 X118.394 Y131.17 E.00544
G1 X118.358 Y131.055 E.00371
G1 X118.325 Y130.81 E.00758
G1 X118.325 Y115.905 E.45801
G1 X118.702 Y115.905 F24000
G1 F4800
G1 X118.702 Y115.838 E.00205
G1 X118.733 Y115.677 E.00504
G1 X118.794 Y115.525 E.00504
G1 X118.926 Y115.347 E.0068
G1 X119.017 Y115.274 E.00358
G1 X119.193 Y115.191 E.00599
G1 X119.376 Y115.161 E.00571
G1 X134.356 Y115.161 E.4603
G1 X134.517 Y115.192 E.00504
G1 X134.67 Y115.253 E.00504
G1 X134.847 Y115.386 E.0068
G1 X134.92 Y115.477 E.00358
G1 X135.003 Y115.653 E.00599
G1 X135.033 Y115.836 E.00571
G1 X135.033 Y130.816 E.4603
G1 X135.002 Y130.977 E.00504
G1 X134.941 Y131.13 E.00504
G1 X134.809 Y131.307 E.0068
G1 X134.718 Y131.38 E.00358
G1 X134.542 Y131.463 E.00599
G1 X134.358 Y131.493 E.00571
G1 X119.378 Y131.493 E.4603
G1 X119.217 Y131.462 E.00504
G1 X119.065 Y131.401 E.00504
G1 X118.887 Y131.269 E.0068
G1 X118.815 Y131.178 E.00358
G1 X118.731 Y131.001 E.00599
G1 X118.702 Y130.818 E.00571
G1 X118.702 Y115.945 E.45702
G1 X119.079 Y115.945 F24000
G1 F4800
G1 X119.079 Y115.827 E.00361
G1 X119.149 Y115.651 E.00583
G1 X119.262 Y115.561 E.00443
G1 X119.367 Y115.539 E.00331
G1 X134.367 Y115.539 E.46091
G1 X134.543 Y115.609 E.00583
G1 X134.633 Y115.722 E.00443
G1 X134.656 Y115.827 E.00331
G1 X134.656 Y130.827 E.46091
G1 X134.585 Y131.003 E.00583
G1 X134.472 Y131.093 E.00443
G1 X134.367 Y131.116 E.00331
G1 X119.367 Y131.116 E.46091
G1 X119.191 Y131.045 E.00583
G1 X119.101 Y130.932 E.00443
G1 X119.079 Y130.827 E.00331
G1 X119.079 Y115.985 E.45606
G1 E-.3 F2400
;WIPE_START
G1 F4800
G1 X119.079 Y115.827 E-.07881
