; HEADER_BLOCK_START
; generated by OrcaSlicer-WaveOverhangs 2.4.0-dev on 2026-05-13 at 14:59:12
; WAVE_OVERHANG_BUILD wave_overhangs_version=dev orca_base=2.4.0-dev
; WAVE_OVERHANG_CONFIG region=0 algo=andersons outer_perim=1 spacing=0.460 flow_mm3_per_mm=0.200 speed=2.0 travel=40.0 fan=100 floor_layers=2 min_angle=0.0 min_length=0.00 max_iterations=0 ring_overlap=0.15 pattern=zigzag spacing_mode=uniform seam_mode=alternating perimeter_overlap=0.20 minimum_wave_width=0.70 min_new_area=0.0100 corner_enable=0 corner_spacing=0.420 corner_taper=10.00 corner_angle=91 end_retract=0.00 nozzle_temp_override=0 min_wave_time=0.00 min_layer_time=0.00 wall_loops=3 top_shell_layers=2 bottom_shell_layers=4 infill_density=15 infill_pattern=rectilinear support_remainder=1 instead_of_bridges=1
; total layer number: 88
; filament_density: 1.24
; filament_diameter: 1.75
; max_z_height: 21.08
; filament: 1
; HEADER_BLOCK_END

; THUMBNAIL_BLOCK_START

;
; THUMBNAIL_BLOCK_END

; external perimeters extrusion width = 0.42mm
; perimeters extrusion width = 0.45mm
; infill extrusion width = 0.44mm
; solid infill extrusion width = 0.44mm
; top infill extrusion width = 0.38mm
; first layer extrusion width = 0.42mm

; EXECUTABLE_BLOCK_START
EXCLUDE_OBJECT_DEFINE NAME=FTS_Curved_Incline.stl_id_0_copy_0 CENTER=140.994,119.747 POLYGON=[[115.289,99.3943],[130.289,99.3943],[166.7,114.394],[166.529,116.979],[166.106,119.53],[165.436,122.022],[164.527,124.434],[163.387,126.74],[162.029,128.92],[160.466,130.953],[158.715,132.82],[156.792,134.503],[154.717,135.987],[152.51,137.259],[150.194,138.306],[147.789,139.119],[145.321,139.692],[142.813,140.02],[140.289,140.1],[137.774,139.932],[135.292,139.519],[132.866,138.866],[130.52,137.98],[128.276,136.87],[126.155,135.548],[124.178,134.026],[122.362,132.321],[120.725,130.45],[119.283,128.43],[118.047,126.283],[117.029,124.029],[116.239,121.69],[115.683,119.289],[115.366,116.849],[115.289,114.394],[115.289,99.3943]]
M73 P0 R27
M106 S0
M106 P2 S0
;TYPE:Custom
G9111 bedTemp=55 extruderTemp=210
M117
G90
G21
M83 ; use relative distances for extrusion
; Filament gcode
M106 S0
M106 P2 S0
;LAYER_CHANGE
;Z:0.2
;HEIGHT:0.2
 ; PURGE LINE
M204 P500
SET_VELOCITY_LIMIT SQUARE_CORNER_VELOCITY=9
G1 Z0.50 F900 ; for object exclusion
G1 X89.365 Y255 F18000
G1 Z.25 F900
G1 E0.8 F2400
G1 E0.6
G1 F3000
G1 X158.835 Y255 E3.72454
G1 X158.835 Y255.45 E.0252
G1 X89.365 Y255.45 E3.72454
G1 X89.365 Y255.02 E.02305
G1 Z0.5 F600

G1 E-.8 F2400
; AFTER_LAYER_CHANGE 0 @ 0.2mm
;_SET_FAN_SPEED_CHANGING_LAYER
SET_VELOCITY_LIMIT ACCEL=2000 ACCEL_TO_DECEL=1000
; printing object FTS_Curved_Incline.stl id:0 copy 0
EXCLUDE_OBJECT_START NAME=FTS_Curved_Incline.stl_id_0_copy_0
G1 X113.187 Y118.286 F24000
G1 Z.6
G1 Z.2
G1 E.8 F2400
;TYPE:Brim
;WIDTH:0.42
G1 F4800
G1 X112.566 Y117.888 E.02267
G1 X112.086 Y117.46 E.01976
G1 X111.674 Y116.964 E.01979
G1 X111.341 Y116.416 E.01971
G1 X111.022 Y115.591 E.02717
G1 X110.89 Y114.961 E.01977
G1 X110.853 Y114.388 E.01765
G1 X110.853 Y99.401 E.4605
G1 X110.901 Y98.752 E.02001
G1 X111.043 Y98.126 E.01971
G1 X111.397 Y97.292 E.02786
G1 X111.796 Y96.671 E.02267
G1 X112.224 Y96.191 E.01976
G1 X112.719 Y95.779 E.01979
G1 X113.268 Y95.446 E.01973
G1 X114.04 Y95.142 E.0255
G1 X114.723 Y94.996 E.02145
G1 X115.295 Y94.958 E.01763
G1 X130.282 Y94.958 E.4605
G1 X130.932 Y95.006 E.02001
G1 X131.557 Y95.148 E.01971
G1 X132.391 Y95.502 E.02786
G1 X133.013 Y95.901 E.02267
G1 X133.493 Y96.329 E.01976
G1 X133.904 Y96.824 E.01979
G1 X134.237 Y97.373 E.01973
G1 X134.541 Y98.145 E.0255
G1 X134.688 Y98.828 E.02145
G1 X134.726 Y99.4 E.01763
G1 X134.726 Y114.387 E.4605
G1 X134.677 Y115.037 E.02001
G1 X134.535 Y115.662 E.01971
G1 X134.181 Y116.497 E.02786
G1 X133.783 Y117.118 E.02267
G1 X133.355 Y117.598 E.01976
G1 X132.859 Y118.009 E.01979
G1 X132.311 Y118.342 E.01971
G1 X131.486 Y118.662 E.02717
G1 X130.856 Y118.793 E.01977
G1 X130.283 Y118.831 E.01765
G1 X115.296 Y118.831 E.4605
G1 X114.647 Y118.782 E.02001
G1 X114.021 Y118.64 E.01971
G1 X113.224 Y118.302 E.02663
G1 X113.372 Y117.955 F24000
G1 F4800
G1 X112.788 Y117.581 E.02134
G1 X112.352 Y117.19 E.01797
G1 X111.987 Y116.751 E.01755
G1 X111.677 Y116.239 E.01839
G1 X111.383 Y115.475 E.02518
G1 X111.267 Y114.918 E.01748
G1 X111.23 Y114.379 E.01658
G1 X111.23 Y99.411 E.45993
G1 X111.277 Y98.8 E.01884
G1 X111.407 Y98.233 E.01785
G1 X111.728 Y97.478 E.02523
G1 X112.103 Y96.893 E.02134
G1 X112.493 Y96.457 E.01797
G1 X112.932 Y96.092 E.01755
G1 X113.428 Y95.79 E.01784
G1 X114.141 Y95.508 E.02356
G1 X114.783 Y95.369 E.02019
G1 X115.311 Y95.335 E.01627
G1 X130.272 Y95.335 E.45971
G1 X130.884 Y95.382 E.01884
G1 X131.45 Y95.512 E.01785
G1 X132.206 Y95.833 E.02523
G1 X132.791 Y96.208 E.02134
G1 X133.226 Y96.598 E.01797
G1 X133.591 Y97.037 E.01755
G1 X133.893 Y97.533 E.01784
G1 X134.176 Y98.246 E.02356
G1 X134.312 Y98.872 E.01968
G1 X134.349 Y99.417 E.01677
G1 X134.348 Y114.377 E.45971
G1 X134.301 Y114.989 E.01884
G1 X134.171 Y115.555 E.01785
G1 X133.85 Y116.311 E.02523
G1 X133.476 Y116.896 E.02134
G1 X133.085 Y117.331 E.01797
G1 X132.646 Y117.696 E.01755
G1 X132.134 Y118.006 E.01839
G1 X131.37 Y118.301 E.02518
G1 X130.813 Y118.417 E.01748
G1 X130.274 Y118.453 E.01659
G1 X115.306 Y118.453 E.45993
G1 X114.695 Y118.406 E.01884
G1 X114.128 Y118.276 E.01785
G1 X113.409 Y117.971 E.024
G1 X113.558 Y117.624 F24000
G1 F4800
G1 X113.01 Y117.273 E.01999
G1 X112.631 Y116.934 E.01565
G1 X112.301 Y116.539 E.01582
G1 X112.014 Y116.063 E.01706
G1 X111.744 Y115.359 E.02318
G1 X111.641 Y114.859 E.01569
G1 X111.607 Y114.363 E.01527
G1 X111.608 Y99.421 E.45911
G1 X111.65 Y98.865 E.01714
G1 X111.771 Y98.341 E.01653
G1 X112.059 Y97.663 E.02264
G1 X112.41 Y97.115 E.01999
G1 X112.762 Y96.724 E.01616
G1 X113.159 Y96.396 E.01584
G1 X113.589 Y96.134 E.01546
G1 X114.242 Y95.873 E.02162
G1 X114.844 Y95.743 E.01891
G1 X115.327 Y95.712 E.0149
G1 X130.254 Y95.712 E.45864
G1 X130.818 Y95.755 E.0174
G1 X131.342 Y95.876 E.01653
G1 X132.02 Y96.164 E.02264
G1 X132.568 Y96.515 E.01999
G1 X132.959 Y96.867 E.01616
G1 X133.288 Y97.264 E.01584
G1 X133.55 Y97.694 E.01546
G1 X133.811 Y98.348 E.02163
G1 X133.938 Y98.933 E.01841
G1 X133.971 Y99.433 E.0154
G1 X133.971 Y114.367 E.45889
G1 X133.928 Y114.923 E.01714
G1 X133.807 Y115.447 E.01653
G1 X133.519 Y116.126 E.02264
G1 X133.168 Y116.673 E.01999
G1 X132.829 Y117.053 E.01565
G1 X132.433 Y117.383 E.01582
G1 X131.958 Y117.67 E.01706
G1 X131.254 Y117.94 E.02318
G1 X130.754 Y118.043 E.01569
G1 X130.258 Y118.076 E.01527
G1 X115.316 Y118.076 E.45911
G1 X114.76 Y118.033 E.01714
G1 X114.236 Y117.912 E.01653
G1 X113.595 Y117.64 E.02141
G1 X113.743 Y117.294 F24000
G1 F4800
G1 X113.232 Y116.966 E.01865
G1 X112.897 Y116.665 E.01385
G1 X112.614 Y116.326 E.01358
G1 X112.35 Y115.888 E.01571
G1 X112.105 Y115.244 E.02118
G1 X112.015 Y114.8 E.01391
G1 X111.984 Y114.346 E.01397
G1 X111.985 Y99.431 E.4583
G1 X112.023 Y98.931 E.01542
G1 X112.135 Y98.449 E.0152
G1 X112.39 Y97.848 E.02005
G1 X112.717 Y97.338 E.01864
G1 X113.03 Y96.992 E.01433
G1 X113.372 Y96.709 E.01365
G1 X113.75 Y96.477 E.0136
G1 X114.344 Y96.239 E.01967
G1 X114.904 Y96.117 E.01762
G1 X115.343 Y96.089 E.01352
G1 X130.235 Y96.089 E.45758
G1 X130.753 Y96.128 E.01595
G1 X131.234 Y96.24 E.01519
G1 X131.835 Y96.495 E.02005
G1 X132.346 Y96.822 E.01864
G1 X132.692 Y97.135 E.01433
G1 X132.975 Y97.477 E.01365
G1 X133.206 Y97.855 E.0136
G1 X133.445 Y98.45 E.0197
G1 X133.564 Y98.994 E.01714
G1 X133.594 Y99.449 E.01401
G1 X133.593 Y114.357 E.45807
G1 X133.555 Y114.858 E.01542
G1 X133.443 Y115.34 E.0152
G1 X133.188 Y115.94 E.02005
G1 X132.861 Y116.451 E.01865
G1 X132.56 Y116.786 E.01385
G1 X132.22 Y117.069 E.01358
G1 X131.783 Y117.333 E.01571
G1 X131.138 Y117.578 E.02118
G1 X130.695 Y117.669 E.01391
G1 X130.241 Y117.699 E.01397
G1 X115.326 Y117.698 E.4583
G1 X114.826 Y117.66 E.01542
G1 X114.344 Y117.548 E.0152
G1 X113.78 Y117.309 E.01882
G1 X113.929 Y116.963 F24000
G1 F4800
G1 X113.455 Y116.659 E.01729
G1 X113.176 Y116.408 E.01154
G1 X112.928 Y116.113 E.01184
G1 X112.687 Y115.713 E.01435
G1 X112.467 Y115.129 E.01916
G1 X112.389 Y114.742 E.01214
G1 X112.361 Y114.33 E.01268
G1 X112.362 Y99.441 E.45749
G1 X112.399 Y98.98 E.01423
G1 X112.499 Y98.557 E.01334
G1 X112.721 Y98.034 E.01747
G1 X113.024 Y97.56 E.01727
G1 X113.298 Y97.26 E.01249
G1 X113.599 Y97.012 E.01199
G1 X113.928 Y96.812 E.01185
G1 X114.464 Y96.598 E.01772
G1 X114.948 Y96.494 E.01522
G1 X115.352 Y96.466 E.01243
G1 X130.217 Y96.466 E.45675
G1 X130.687 Y96.502 E.01449
G1 X131.126 Y96.604 E.01386
G1 X131.65 Y96.826 E.01747
G1 X132.123 Y97.129 E.01727
G1 X132.424 Y97.403 E.01249
G1 X132.662 Y97.691 E.0115
G1 X132.863 Y98.017 E.01176
G1 X133.08 Y98.552 E.01775
G1 X133.19 Y99.056 E.01585
G1 X133.217 Y99.466 E.01262
G1 X133.216 Y114.338 E.457
G1 X133.182 Y114.792 E.01397
G1 X133.08 Y115.231 E.01387
G1 X132.857 Y115.755 E.01747
G1 X132.554 Y116.229 E.01729
G1 X132.303 Y116.508 E.01154
G1 X132.008 Y116.756 E.01184
G1 X131.607 Y116.996 E.01435
G1 X131.024 Y117.217 E.01916
G1 X130.637 Y117.295 E.01214
G1 X130.225 Y117.322 E.01268
G1 X115.336 Y117.321 E.45749
G1 X114.875 Y117.284 E.01423
G1 X114.452 Y117.185 E.01334
G1 X113.966 Y116.978 E.01624
G1 X114.115 Y116.63 F24000
G1 F4800
G1 X114.097 Y116.623 E.00058
G1 X113.677 Y116.352 E.01535
G1 X113.442 Y116.139 E.00974
G1 X113.241 Y115.9 E.00961
G1 X113.024 Y115.538 E.01297
G1 X112.828 Y115.016 E.01714
G1 X112.763 Y114.684 E.01037
G1 X112.738 Y114.314 E.01141
G1 X112.739 Y99.461 E.45639
G1 X112.772 Y99.047 E.01276
G1 X112.862 Y98.666 E.01203
G1 X113.061 Y98.202 E.0155
G1 X113.331 Y97.784 E.01531
G1 X113.553 Y97.54 E.01013
G1 X113.811 Y97.325 E.01032
G1 X114.106 Y97.147 E.01059
G1 X114.584 Y96.958 E.01578
G1 X114.993 Y96.87 E.01287
G1 X115.361 Y96.844 E.01133
G1 X130.198 Y96.844 E.45592
G1 X130.621 Y96.875 E.01303
G1 X131.018 Y96.968 E.01253
G1 X131.481 Y97.166 E.01548
G1 X131.9 Y97.436 E.01531
G1 X132.155 Y97.67 E.01064
G1 X132.359 Y97.918 E.00987
G1 X132.521 Y98.18 E.00945
G1 X132.715 Y98.655 E.01579
G1 X132.816 Y99.117 E.01454
G1 X132.84 Y99.482 E.01123
G1 X132.839 Y114.32 E.45593
G1 X132.806 Y114.743 E.01304
G1 X132.716 Y115.123 E.01201
G1 X132.518 Y115.586 E.01548
G1 X132.247 Y116.006 E.01535
G1 X132.034 Y116.241 E.00974
G1 X131.795 Y116.442 E.00961
G1 X131.433 Y116.659 E.01297
G1 X130.91 Y116.855 E.01714
G1 X130.579 Y116.921 E.01037
G1 X130.209 Y116.945 E.01141
G1 X115.356 Y116.944 E.45639
G1 X114.942 Y116.911 E.01276
G1 X114.561 Y116.821 E.01203
G1 X114.151 Y116.646 E.01369
G1 X114.355 Y116.314 F24000
G1 F4800
G1 X113.93 Y116.054 E.01529
G1 X113.636 Y115.774 E.01247
G1 X113.405 Y115.44 E.01246
G1 X113.25 Y115.101 E.01147
G1 X113.155 Y114.737 E.01155
G1 X113.115 Y114.358 E.0117
G1 X113.126 Y99.296 E.46281
G1 X113.199 Y98.878 E.01306
G1 X113.323 Y98.536 E.01117
G1 X113.574 Y98.11 E.01518
G1 X113.828 Y97.813 E.01201
G1 X114.16 Y97.56 E.01282
G1 X114.491 Y97.39 E.01145
G1 X114.861 Y97.277 E.01189
G1 X115.327 Y97.22 E.01442
G1 X130.247 Y97.22 E.45846
G1 X130.716 Y97.282 E.01451
G1 X131.149 Y97.429 E.01405
G1 X131.648 Y97.735 E.018
G1 X131.942 Y98.015 E.01247
G1 X132.173 Y98.348 E.01246
G1 X132.328 Y98.688 E.01147
G1 X132.424 Y99.051 E.01155
G1 X132.463 Y99.43 E.0117
G1 X132.463 Y114.352 E.45852
G1 X132.401 Y114.821 E.01451
M73 P0 R26
G1 X132.255 Y115.254 E.01405
G1 X131.949 Y115.753 E.018
G1 X131.669 Y116.047 E.01247
G1 X131.335 Y116.278 E.01246
G1 X130.996 Y116.433 E.01147
G1 X130.632 Y116.529 E.01155
G1 X130.253 Y116.568 E.0117
G1 X115.331 Y116.568 E.45852
G1 X114.863 Y116.506 E.01451
G1 X114.43 Y116.36 E.01405
G1 X114.389 Y116.335 E.00148
G1 X114.58 Y116.011 F24000
G1 F4800
G1 X114.19 Y115.781 E.01391
G1 X113.948 Y115.561 E.01004
G1 X113.748 Y115.285 E.01048
G1 X113.615 Y115.007 E.00946
G1 X113.53 Y114.703 E.0097
G1 X113.492 Y114.364 E.01047
G1 X113.497 Y99.364 E.46093
G1 X113.555 Y99.002 E.01125
G1 X113.642 Y98.737 E.0086
G1 X113.904 Y98.293 E.01581
G1 X114.054 Y98.115 E.00717
G1 X114.331 Y97.896 E.01085
G1 X114.601 Y97.751 E.00943
G1 X114.901 Y97.652 E.0097
G1 X115.32 Y97.597 E.01298
G1 X130.255 Y97.597 E.4589
G1 X130.597 Y97.64 E.01061
G1 X130.948 Y97.748 E.01127
G1 X131.388 Y98.008 E.01571
G1 X131.631 Y98.227 E.01004
G1 X131.83 Y98.504 E.01048
G1 X131.963 Y98.782 E.00946
G1 X132.048 Y99.086 E.0097
G1 X132.086 Y99.424 E.01047
G1 X132.086 Y114.36 E.45893
G1 X132.043 Y114.702 E.01061
G1 X131.935 Y115.053 E.01127
G1 X131.676 Y115.494 E.01571
G1 X131.456 Y115.736 E.01004
G1 X131.18 Y115.935 E.01048
G1 X130.902 Y116.068 E.00946
G1 X130.598 Y116.153 E.0097
G1 X130.259 Y116.191 E.01047
G1 X115.324 Y116.191 E.45893
G1 X114.981 Y116.148 E.01061
G1 X114.63 Y116.041 E.01127
G1 X114.614 Y116.031 E.00058
G1 X114.738 Y115.679 F24000
G1 F4800
G1 X114.383 Y115.457 E.01289
G1 X114.255 Y115.343 E.00526
G1 X114.088 Y115.12 E.00855
G1 X113.978 Y114.905 E.00744
G1 X113.905 Y114.665 E.00769
G1 X113.869 Y114.371 E.00912
G1 X113.869 Y99.422 E.45934
G1 X113.91 Y99.129 E.00907
G1 X114.004 Y98.843 E.00925
G1 X114.227 Y98.488 E.01289
G1 X114.341 Y98.36 E.00526
G1 X114.563 Y98.193 E.00855
G1 X114.779 Y98.083 E.00744
G1 X115.018 Y98.01 E.00769
G1 X115.313 Y97.974 E.00912
G1 X130.262 Y97.974 E.45934
G1 X130.554 Y98.015 E.00907
G1 X130.84 Y98.109 E.00925
G1 X131.196 Y98.332 E.01289
G1 X131.324 Y98.446 E.00526
G1 X131.491 Y98.668 E.00855
G1 X131.6 Y98.884 E.00744
G1 X131.673 Y99.123 E.00769
G1 X131.709 Y99.418 E.00912
G1 X131.709 Y114.367 E.45934
G1 X131.669 Y114.659 E.00907
G1 X131.574 Y114.945 E.00925
G1 X131.352 Y115.301 E.01289
G1 X131.238 Y115.429 E.00526
G1 X131.015 Y115.596 E.00855
G1 X130.8 Y115.705 E.00744
G1 X130.56 Y115.778 E.00769
G1 X130.266 Y115.814 E.00912
G1 X115.317 Y115.814 E.45934
G1 X115.024 Y115.774 E.00907
G1 X114.776 Y115.692 E.00802
G1 X114.904 Y115.338 F24000
G1 F4800
G1 X114.856 Y115.321 E.00155
G1 X114.588 Y115.141 E.00993
G1 X114.512 Y115.067 E.00325
G1 X114.391 Y114.897 E.00641
G1 X114.316 Y114.737 E.00544
G1 X114.28 Y114.622 E.00371
G1 X114.246 Y114.377 E.00758
G1 X114.246 Y99.414 E.45979
G1 X114.283 Y99.18 E.00729
G1 X114.362 Y98.961 E.00713
G1 X114.543 Y98.693 E.00993
G1 X114.616 Y98.617 E.00325
G1 X114.786 Y98.497 E.00641
G1 X114.946 Y98.421 E.00544
G1 X115.061 Y98.385 E.00371
G1 X115.306 Y98.352 E.00758
G1 X130.27 Y98.352 E.45979
G1 X130.504 Y98.388 E.00729
G1 X130.722 Y98.467 E.00713
G1 X130.99 Y98.648 E.00993
G1 X131.066 Y98.721 E.00325
G1 X131.187 Y98.891 E.0064
G1 X131.263 Y99.051 E.00544
G1 X131.298 Y99.166 E.00371
G1 X131.332 Y99.411 E.00758
G1 X131.332 Y114.375 E.45979
G1 X131.295 Y114.609 E.00729
G1 X131.216 Y114.827 E.00713
G1 X131.036 Y115.095 E.00993
G1 X130.962 Y115.172 E.00325
G1 X130.792 Y115.292 E.0064
G1 X130.632 Y115.368 E.00544
G1 X130.517 Y115.403 E.00371
G1 X130.272 Y115.437 E.00758
G1 X115.309 Y115.437 E.45979
G1 X115.075 Y115.4 E.00729
G1 X114.941 Y115.352 E.00435
G1 X115.08 Y115.005 F24000
G1 F4800
G1 X114.987 Y114.968 E.00309
G1 X114.809 Y114.836 E.0068
G1 X114.737 Y114.745 E.00358
G1 X114.653 Y114.569 E.00599
G1 X114.624 Y114.385 E.00571
G1 X114.624 Y99.405 E.4603
G1 X114.655 Y99.244 E.00504
G1 X114.716 Y99.092 E.00504
G1 X114.848 Y98.914 E.0068
G1 X114.939 Y98.842 E.00358
G1 X115.115 Y98.758 E.00599
G1 X115.298 Y98.729 E.00571
G1 X130.278 Y98.729 E.4603
G1 X130.439 Y98.76 E.00504
G1 X130.592 Y98.821 E.00504
G1 X130.769 Y98.953 E.0068
G1 X130.842 Y99.044 E.00358
G1 X130.925 Y99.22 E.00599
G1 X130.955 Y99.403 E.00571
G1 X130.955 Y114.383 E.4603
G1 X130.924 Y114.544 E.00504
M73 P1 R26
G1 X130.863 Y114.697 E.00504
G1 X130.731 Y114.874 E.0068
G1 X130.64 Y114.947 E.00358
G1 X130.464 Y115.03 E.00599
G1 X130.28 Y115.06 E.00571
G1 X115.3 Y115.06 E.4603
G1 X115.139 Y115.029 E.00504
G1 X115.117 Y115.02 E.00072
G1 X115.257 Y114.67 F24000
G1 F4800
G1 X115.113 Y114.612 E.00477
G1 X115.023 Y114.499 E.00443
G1 X115.001 Y114.394 E.00331
G1 X115.001 Y99.394 E.46091
G1 X115.071 Y99.218 E.00583
G1 X115.184 Y99.128 E.00443
G1 X115.289 Y99.106 E.00331
G1 X130.289 Y99.106 E.46091
G1 X130.465 Y99.176 E.00583
G1 X130.555 Y99.289 E.00443
G1 X130.578 Y99.394 E.00331
G1 X130.578 Y114.394 E.46091
G1 X130.507 Y114.57 E.00583
