; HEADER_BLOCK_START
; generated by OrcaSlicer-WaveOverhangs 2.4.0-dev on 2026-05-13 at 15:01:57
; WAVE_OVERHANG_BUILD wave_overhangs_version=dev orca_base=2.4.0-dev
; WAVE_OVERHANG_CONFIG region=0 algo=andersons outer_perim=1 spacing=0.460 flow_mm3_per_mm=0.200 speed=2.0 travel=40.0 fan=100 floor_layers=2 min_angle=0.0 min_length=0.00 max_iterations=0 ring_overlap=0.15 pattern=zigzag spacing_mode=uniform seam_mode=alternating perimeter_overlap=0.20 minimum_wave_width=0.70 min_new_area=0.0100 corner_enable=0 corner_spacing=0.420 corner_taper=10.00 corner_angle=91 end_retract=0.00 nozzle_temp_override=0 min_wave_time=0.00 min_layer_time=0.00 wall_loops=3 top_shell_layers=2 bottom_shell_layers=4 infill_density=15 infill_pattern=rectilinear support_remainder=1 instead_of_bridges=1
; total layer number: 54
; filament_density: 1.24
; filament_diameter: 1.75
; max_z_height: 12.92
; filament: 1
; HEADER_BLOCK_END

; THUMBNAIL_BLOCK_START

;
; THUMBNAIL_BLOCK_END

; external perimeters extrusion width = 0.42mm
; perimeters extrusion width = 0.45mm
; infill extrusion width = 0.44mm
; solid infill extrusion width = 0.44mm
; top infill extrusion width = 0.38mm
; first layer extrusion width = 0.42mm

; EXECUTABLE_BLOCK_START
EXCLUDE_OBJECT_DEFINE NAME=FTS_Loop_Narrow.STL_id_0_copy_0 CENTER=126.624,130.392 POLYGON=[[99.2109,127.892],[119.696,118.392],[133.552,118.392],[154.037,127.892],[154.037,132.892],[133.552,142.392],[119.696,142.392],[99.2109,132.892],[99.2109,127.892]]
M73 P0 R11
M106 S0
M106 P2 S0
;TYPE:Custom
G9111 bedTemp=55 extruderTemp=210
M117
G90
G21
M83 ; use relative distances for extrusion
; Filament gcode
M106 S0
M106 P2 S0
;LAYER_CHANGE
;Z:0.2
;HEIGHT:0.2
 ; PURGE LINE
M204 P500
SET_VELOCITY_LIMIT SQUARE_CORNER_VELOCITY=9
G1 Z0.50 F900 ; for object exclusion
G1 X89.365 Y255 F18000
G1 Z.25 F900
G1 E0.8 F2400
G1 E0.6
G1 F3000
G1 X158.835 Y255 E3.72454
G1 X158.835 Y255.45 E.0252
M73 P0 R10
G1 X89.365 Y255.45 E3.72454
G1 X89.365 Y255.02 E.02305
G1 Z0.5 F600

G1 E-.8 F2400
; AFTER_LAYER_CHANGE 0 @ 0.2mm
;_SET_FAN_SPEED_CHANGING_LAYER
SET_VELOCITY_LIMIT ACCEL=2000 ACCEL_TO_DECEL=1000
; printing object FTS_Loop_Narrow.STL id:0 copy 0
EXCLUDE_OBJECT_START NAME=FTS_Loop_Narrow.STL_id_0_copy_0
G1 X110.956 Y132.03 F24000
G1 Z.6
G1 Z.2
G1 E.8 F2400
;TYPE:Brim
;WIDTH:0.42
G1 F4800
G1 X110.765 Y131.414 E.01979
G1 X110.667 Y130.774 E.0199
G1 X110.654 Y130.444 E.01015
G1 X110.702 Y129.699 E.02296
G1 X110.845 Y129.071 E.01976
G1 X111.08 Y128.468 E.0199
G1 X111.237 Y128.171 E.01033
G1 X117.005 Y118.18 E.35448
G1 X117.371 Y117.642 E.02001
G1 X117.809 Y117.169 E.01979
G1 X118.314 Y116.764 E.01987
G1 X118.679 Y116.539 E.01319
G1 X119.263 Y116.257 E.01992
G1 X119.878 Y116.067 E.01979
G1 X120.518 Y115.969 E.0199
G1 X120.854 Y115.956 E.01033
G1 X132.39 Y115.956 E.35448
G1 X133.04 Y116.004 E.02001
G1 X133.668 Y116.146 E.01979
G1 X134.27 Y116.381 E.01987
G1 X134.648 Y116.585 E.01319
G1 X135.184 Y116.95 E.01992
G1 X135.657 Y117.387 E.01979
G1 X136.062 Y117.892 E.0199
G1 X136.241 Y118.177 E.01033
G1 X142.009 Y128.168 E.35448
G1 X142.292 Y128.754 E.02001
G1 X142.483 Y129.369 E.01979
G1 X142.581 Y130.009 E.0199
G1 X142.594 Y130.339 E.01015
G1 X142.545 Y131.085 E.02296
G1 X142.403 Y131.712 E.01976
G1 X142.168 Y132.316 E.0199
G1 X142.011 Y132.613 E.01033
G1 X136.243 Y142.604 E.35448
G1 X135.876 Y143.142 E.02001
G1 X135.439 Y143.615 E.01979
G1 X134.934 Y144.019 E.01987
G1 X134.569 Y144.245 E.01319
G1 X133.985 Y144.527 E.01992
G1 X133.37 Y144.717 E.01979
G1 X132.73 Y144.815 E.0199
G1 X132.394 Y144.828 E.01033
G1 X120.857 Y144.828 E.35448
G1 X120.208 Y144.78 E.02001
G1 X119.58 Y144.637 E.01979
G1 X118.977 Y144.403 E.01987
G1 X118.599 Y144.199 E.01319
G1 X118.064 Y143.834 E.01992
G1 X117.591 Y143.397 E.01979
G1 X117.186 Y142.892 E.0199
G1 X117.007 Y142.607 E.01033
G1 X111.238 Y132.616 E.35448
G1 X110.973 Y132.066 E.01878
G1 X111.313 Y131.902 F24000
G1 F4800
G1 X111.311 Y131.899 E.00011
G1 X111.136 Y131.338 E.01806
G1 X111.043 Y130.732 E.01883
G1 X111.032 Y130.443 E.00887
G1 X111.079 Y129.744 E.02153
G1 X111.209 Y129.174 E.01796
G1 X111.421 Y128.631 E.01792
G1 X117.327 Y118.377 E.36359
G1 X117.663 Y117.884 E.01833
G1 X118.061 Y117.452 E.01806
G1 X118.526 Y117.077 E.01835
G1 X118.855 Y116.873 E.01191
G1 X119.409 Y116.607 E.01889
G1 X119.971 Y116.434 E.01806
G1 X120.56 Y116.344 E.01831
G1 X132.381 Y116.333 E.3632
G1 X132.975 Y116.377 E.01833
G1 X133.549 Y116.506 E.01806
G1 X134.118 Y116.727 E.01877
G1 X134.457 Y116.911 E.01185
G1 X134.955 Y117.251 E.01853
G1 X135.386 Y117.651 E.01806
G1 X135.76 Y118.121 E.01844
G1 X141.674 Y128.34 E.36281
G1 X141.937 Y128.885 E.01859
M73 P1 R10
G1 X142.116 Y129.463 E.01858
G1 X142.204 Y130.039 E.01792
G1 X142.216 Y130.34 E.00927
G1 X142.169 Y131.04 E.02153
G1 X142.039 Y131.609 E.01796
G1 X141.827 Y132.153 E.01792
G1 X135.921 Y142.407 E.36359
G1 X135.585 Y142.9 E.01833
G1 X135.187 Y143.332 E.01806
G1 X134.722 Y143.706 E.01835
G1 X134.382 Y143.917 E.01227
G1 X133.854 Y144.171 E.01801
G1 X133.293 Y144.346 E.01806
G1 X132.7 Y144.438 E.01844
G1 X132.384 Y144.451 E.00972
G1 X120.876 Y144.451 E.35363
G1 X120.256 Y144.404 E.0191
G1 X119.683 Y144.273 E.01806
G1 X119.13 Y144.056 E.01825
G1 X118.79 Y143.873 E.01185
G1 X118.293 Y143.533 E.01853
G1 X117.862 Y143.133 E.01806
G1 X117.488 Y142.663 E.01844
G1 X111.57 Y132.436 E.36307
G1 X111.33 Y131.938 E.01699
G1 X111.67 Y131.774 F24000
G1 F4800
G1 X111.666 Y131.767 E.00023
G1 X111.507 Y131.26 E.01633
G1 X111.418 Y130.69 E.01774
G1 X111.41 Y130.443 E.00758
G1 X111.455 Y129.79 E.02011
G1 X111.574 Y129.278 E.01617
G1 X111.766 Y128.787 E.0162
G1 X117.649 Y118.574 E.36215
G1 X117.954 Y118.126 E.01665
G1 X118.313 Y117.734 E.01634
G1 X118.739 Y117.39 E.01682
G1 X119.032 Y117.207 E.0106
G1 X119.555 Y116.956 E.01784
G1 X120.064 Y116.801 E.01633
G1 X120.597 Y116.721 E.01659
G1 X132.371 Y116.71 E.36177
G1 X132.911 Y116.751 E.01665
G1 X133.43 Y116.866 E.01633
G1 X133.966 Y117.074 E.01765
G1 X134.266 Y117.236 E.01048
G1 X134.725 Y117.552 E.01713
G1 X135.114 Y117.915 E.01633
G1 X135.452 Y118.341 E.01671
G1 X141.338 Y128.513 E.36113
G1 X141.581 Y129.016 E.01716
G1 X141.749 Y129.556 E.01736
G1 X141.827 Y130.069 E.01595
G1 X141.838 Y130.341 E.00838
G1 X141.793 Y130.993 E.02009
G1 X141.674 Y131.506 E.01617
G1 X141.481 Y131.997 E.0162
G1 X135.599 Y142.21 E.36215
G1 X135.294 Y142.658 E.01665
G1 X134.934 Y143.05 E.01634
G1 X134.509 Y143.394 E.01681
G1 X134.195 Y143.588 E.01134
G1 X133.723 Y143.816 E.01611
G1 X133.216 Y143.976 E.01634
G1 X132.67 Y144.061 E.01698
G1 X132.374 Y144.074 E.00909
G1 X120.894 Y144.074 E.35275
G1 X120.304 Y144.028 E.01818
G1 X119.786 Y143.909 E.01633
G1 X119.282 Y143.71 E.01664
G1 X118.982 Y143.547 E.0105
G1 X118.523 Y143.232 E.01713
G1 X118.134 Y142.869 E.01633
G1 X117.796 Y142.443 E.01671
G1 X111.902 Y132.256 E.36164
G1 X111.687 Y131.81 E.01519
G1 X112.027 Y131.646 F24000
G1 F4800
G1 X112.021 Y131.636 E.00037
G1 X111.878 Y131.183 E.0146
G1 X111.794 Y130.648 E.01664
G1 X111.788 Y130.444 E.00626
G1 X111.831 Y129.838 E.01868
G1 X111.938 Y129.382 E.01437
G1 X112.111 Y128.944 E.01449
G1 X117.966 Y118.778 E.36046
G1 X118.246 Y118.368 E.01526
G1 X118.567 Y118.016 E.01463
G1 X118.953 Y117.702 E.0153
G1 X119.208 Y117.541 E.00927
G1 X119.701 Y117.306 E.01677
G1 X120.155 Y117.169 E.01459
G1 X120.634 Y117.098 E.01487
G1 X132.361 Y117.088 E.36035
G1 X132.848 Y117.124 E.015
G1 X133.312 Y117.226 E.0146
G1 X133.813 Y117.42 E.01652
G1 X134.073 Y117.562 E.0091
G1 X134.494 Y117.853 E.01573
G1 X134.841 Y118.178 E.0146
G1 X135.144 Y118.561 E.01499
G1 X141.003 Y128.686 E.35946
G1 X141.226 Y129.147 E.01573
G1 X141.381 Y129.649 E.01614
G1 X141.45 Y130.099 E.01398
G1 X141.46 Y130.342 E.00748
G1 X141.417 Y130.946 E.01862
G1 X141.31 Y131.402 E.01437
G1 X141.136 Y131.84 E.01449
G1 X135.281 Y142.006 E.36046
G1 X135.002 Y142.416 E.01526
G1 X134.681 Y142.768 E.01463
G1 X134.296 Y143.081 E.01526
G1 X134.008 Y143.26 E.0104
G1 X133.591 Y143.461 E.01423
G1 X133.137 Y143.605 E.01463
G1 X132.639 Y143.685 E.01551
G1 X132.364 Y143.697 E.00846
G1 X120.913 Y143.697 E.35184
G1 X120.353 Y143.653 E.01725
G1 X119.891 Y143.544 E.0146
G1 X119.436 Y143.365 E.01503
G1 X119.174 Y143.222 E.00915
G1 X118.753 Y142.931 E.01573
G1 X118.407 Y142.606 E.0146
G1 X118.104 Y142.223 E.01499
G1 X112.233 Y132.075 E.36023
G1 X112.044 Y131.682 E.0134
G1 X112.384 Y131.519 F24000
G1 F4800
G1 X112.376 Y131.503 E.00053
G1 X112.248 Y131.104 E.01287
G1 X112.17 Y130.596 E.01579
G1 X112.207 Y129.886 E.02187
G1 X112.302 Y129.487 E.01258
G1 X112.456 Y129.101 E.01278
G1 X118.284 Y118.982 E.3588
G1 X118.538 Y118.609 E.01388
G1 X118.821 Y118.297 E.01293
G1 X119.168 Y118.013 E.01378
G1 X119.385 Y117.876 E.00791
G1 X119.846 Y117.656 E.01568
G1 X120.246 Y117.536 E.01283
G1 X120.67 Y117.475 E.01316
G1 X132.352 Y117.465 E.35895
G1 X132.785 Y117.497 E.01336
G1 X133.194 Y117.586 E.01286
G1 X133.661 Y117.766 E.01536
G1 X133.88 Y117.887 E.0077
G1 X134.263 Y118.153 E.01432
G1 X134.568 Y118.44 E.01287
G1 X134.835 Y118.78 E.01329
G1 X140.667 Y128.86 E.35782
G1 X140.87 Y129.278 E.01429
G1 X141.014 Y129.742 E.01492
G1 X141.073 Y130.128 E.01201
G1 X141.082 Y130.342 E.00657
G1 X141.041 Y130.898 E.01714
G1 X140.946 Y131.297 E.01258
G1 X140.792 Y131.683 E.01278
G1 X134.964 Y141.802 E.3588
G1 X134.71 Y142.175 E.01388
G1 X134.427 Y142.487 E.01293
G1 X134.082 Y142.769 E.0137
G1 X133.821 Y142.931 E.00945
G1 X133.444 Y143.112 E.01285
G1 X133.058 Y143.234 E.01244
G1 X132.607 Y143.308 E.01405
G1 X132.353 Y143.32 E.00781
G1 X120.933 Y143.32 E.35091
G1 X120.403 Y143.277 E.01632
G1 X119.996 Y143.18 E.01286
G1 X119.59 Y143.019 E.01343
G1 X119.367 Y142.897 E.0078
G1 X118.985 Y142.631 E.01432
G1 X118.68 Y142.343 E.01287
G1 X118.413 Y142.003 E.01329
G1 X112.565 Y131.895 E.35884
G1 X112.401 Y131.555 E.0116
G1 X112.741 Y131.391 F24000
G1 F4800
G1 X112.731 Y131.37 E.00071
G1 X112.619 Y131.026 E.01111
G1 X112.549 Y130.566 E.01431
G1 X112.584 Y129.929 E.01959
G1 X112.665 Y129.594 E.01061
G1 X112.8 Y129.259 E.0111
G1 X118.602 Y119.186 E.35717
G1 X118.83 Y118.849 E.01252
G1 X119.075 Y118.578 E.01124
G1 X119.383 Y118.324 E.01226
G1 X119.562 Y118.21 E.00651
G1 X119.99 Y118.007 E.01456
G1 X120.335 Y117.905 E.01107
G1 X120.705 Y117.852 E.01147
G1 X132.342 Y117.843 E.35757
G1 X132.723 Y117.871 E.01175
G1 X133.077 Y117.947 E.01112
G1 X133.508 Y118.113 E.01419
G1 X133.687 Y118.211 E.00626
G1 X134.031 Y118.452 E.01291
G1 X134.294 Y118.702 E.01114
G1 X134.526 Y118.999 E.01159
G1 X140.332 Y129.033 E.3562
G1 X140.515 Y129.409 E.01286
G1 X140.647 Y129.835 E.0137
G1 X140.696 Y130.158 E.01004
G1 X140.704 Y130.342 E.00565
G1 X140.665 Y130.849 E.01563
G1 X140.583 Y131.19 E.01078
G1 X140.448 Y131.525 E.0111
G1 X134.646 Y141.598 E.35717
G1 X134.418 Y141.935 E.01252
G1 X134.173 Y142.206 E.01123
G1 X133.868 Y142.457 E.01212
G1 X133.634 Y142.603 E.00848
G1 X133.312 Y142.757 E.01097
G1 X132.978 Y142.864 E.01077
G1 X132.574 Y142.931 E.0126
G1 X132.341 Y142.943 E.00715
G1 X120.952 Y142.943 E.34994
G1 X120.454 Y142.902 E.01537
G1 X120.102 Y142.817 E.01112
G1 X119.745 Y142.674 E.01183
G1 X119.561 Y142.573 E.00644
G1 X119.217 Y142.332 E.01291
G1 X118.954 Y142.082 E.01114
G1 X118.722 Y141.785 E.01159
G1 X112.897 Y131.714 E.35747
G1 X112.758 Y131.427 E.0098
G1 X113.123 Y131.282 F24000
G1 F4800
G1 X113.019 Y131.021 E.00863
G1 X112.931 Y130.449 E.01777
G1 X112.992 Y129.866 E.01801
G1 X113.216 Y129.268 E.01963
G1 X118.989 Y119.281 E.35446
G1 X119.357 Y118.846 E.01751
G1 X119.827 Y118.505 E.01784
G1 X120.366 Y118.295 E.01777
G1 X120.895 Y118.218 E.01643
G1 X132.353 Y118.218 E.35207
G1 X132.882 Y118.295 E.01643
G1 X133.421 Y118.505 E.01777
G1 X133.895 Y118.849 E.01801
G1 X134.302 Y119.342 E.01963
G1 X140.031 Y129.266 E.35212
G1 X140.256 Y129.867 E.01971
G1 X140.316 Y130.448 E.01796
G1 X140.234 Y131.001 E.01716
G1 X140.03 Y131.52 E.01713
G1 X134.304 Y141.438 E.35191
G1 X133.873 Y141.955 E.02069
G1 X133.399 Y142.29 E.01782
G1 X132.862 Y142.495 E.01767
G1 X132.357 Y142.566 E.01566
G1 X120.891 Y142.566 E.35233
G1 X120.386 Y142.495 E.01566
M73 P2 R10
G1 X119.848 Y142.29 E.01767
G1 X119.375 Y141.955 E.01782
G1 X118.944 Y141.438 E.02069
G1 X113.216 Y131.517 E.35199
G1 X113.137 Y131.319 E.00656
G1 X113.486 Y131.184 F24000
G1 F4800
G1 X113.366 Y130.874 E.01022
G1 X113.304 Y130.395 E.01484
G1 X113.367 Y129.908 E.0151
G1 X113.538 Y129.464 E.01462
G1 X119.277 Y119.523 E.35268
G1 X119.576 Y119.153 E.01462
G1 X119.967 Y118.855 E.0151
G1 X120.413 Y118.669 E.01484
G1 X120.887 Y118.595 E.01475
G1 X132.361 Y118.595 E.35257
G1 X132.835 Y118.669 E.01475
G1 X133.281 Y118.855 E.01484
G1 X133.672 Y119.153 E.0151
G1 X133.971 Y119.523 E.01462
G1 X139.709 Y129.462 E.35263
G1 X139.882 Y129.91 E.01476
G1 X139.944 Y130.39 E.01487
G1 X139.886 Y130.856 E.01442
G1 X139.708 Y131.324 E.01539
G1 X133.973 Y141.257 E.35244
G1 X133.653 Y141.649 E.01554
G1 X133.263 Y141.939 E.01494
G1 X132.816 Y142.12 E.01481
G1 X132.365 Y142.189 E.01403
G1 X120.883 Y142.189 E.35282
G1 X120.431 Y142.12 E.01403
G1 X119.985 Y141.939 E.01481
G1 X119.595 Y141.649 E.01494
G1 X119.275 Y141.257 E.01554
G1 X113.539 Y131.322 E.3525
G1 X113.5 Y131.222 E.0033
G1 X113.844 Y131.083 F24000
G1 F4800
G1 X113.74 Y130.824 E.00858
G1 X113.678 Y130.443 E.01188
G1 X113.717 Y130.049 E.01215
G1 X113.86 Y129.66 E.01276
G1 X119.608 Y119.704 E.35322
G1 X119.874 Y119.385 E.01276
G1 X120.195 Y119.155 E.01215
G1 X120.556 Y119.018 E.01188
G1 X120.878 Y118.972 E.00998
G1 X132.37 Y118.972 E.35311
G1 X132.692 Y119.018 E.00998
G1 X133.053 Y119.155 E.01188
G1 X133.374 Y119.385 E.01215
G1 X133.64 Y119.704 E.01276
G1 X139.387 Y129.658 E.35317
G1 X139.508 Y129.959 E.00998
G1 X139.57 Y130.345 E.012
G1 X139.536 Y130.715 E.01142
G1 X139.386 Y131.127 E.01348
G1 X133.642 Y141.076 E.35299
G1 X133.36 Y141.411 E.01344
G1 X133.037 Y141.637 E.01212
G1 X132.676 Y141.77 E.01181
G1 X132.374 Y141.812 E.00939
G1 X120.874 Y141.812 E.35335
G1 X120.571 Y141.77 E.00939
G1 X120.211 Y141.637 E.01181
G1 X119.888 Y141.411 E.01212
G1 X119.606 Y141.076 E.01344
G1 X113.861 Y131.126 E.35305
G1 X113.859 Y131.12 E.00018
G1 X114.185 Y130.932 F24000
G1 F4800
G1 X114.184 Y130.93 E.00007
G1 X114.088 Y130.68 E.00825
G1 X114.051 Y130.385 E.00912
G1 X114.091 Y130.09 E.00914
G1 X114.182 Y129.857 E.00771
G1 X119.939 Y119.885 E.35382
G1 X120.096 Y119.689 E.00771
G1 X120.331 Y119.507 E.00914
G1 X120.605 Y119.391 E.00912
G1 X120.87 Y119.349 E.00825
G1 X132.378 Y119.349 E.3536
G1 X132.643 Y119.391 E.00825
G1 X132.916 Y119.507 E.00912
G1 X133.151 Y119.689 E.00914
G1 X133.308 Y119.885 E.00771
G1 X139.064 Y129.854 E.35371
G1 X139.16 Y130.104 E.00825
G1 X139.197 Y130.402 E.00923
G1 X139.161 Y130.676 E.00849
G1 X139.064 Y130.93 E.00836
G1 X133.31 Y140.896 E.3536
G1 X133.141 Y141.105 E.00825
G1 X132.905 Y141.284 E.00912
G1 X132.629 Y141.396 E.00914
G1 X132.381 Y141.435 E.00771
G1 X120.867 Y141.435 E.35382
G1 X120.619 Y141.396 E.00771
G1 X120.343 Y141.284 E.00914
G1 X120.107 Y141.105 E.00912
G1 X119.938 Y140.896 E.00825
G1 X114.205 Y130.967 E.35231
G1 X114.531 Y130.778 F24000
G1 F4800
G1 X114.506 Y130.734 E.00157
G1 X114.44 Y130.546 E.00613
G1 X114.425 Y130.348 E.00607
G1 X114.462 Y130.153 E.0061
G1 X114.504 Y130.053 E.00335
G1 X120.27 Y120.066 E.35435
G1 X120.337 Y119.979 E.00335
G1 X120.487 Y119.85 E.0061
G1 X120.665 Y119.764 E.00607
G1 X120.861 Y119.726 E.00613
G1 X132.387 Y119.726 E.35415
G1 X132.583 Y119.764 E.00613
G1 X132.761 Y119.85 E.00607
G1 X132.911 Y119.979 E.0061
G1 X132.978 Y120.066 E.00335
G1 X138.742 Y130.05 E.35425
G1 X138.808 Y130.238 E.00613
G1 X138.823 Y130.439 E.00617
G1 X138.809 Y130.542 E.00322
G1 X138.742 Y130.734 E.00623
G1 X132.979 Y140.716 E.35415
G1 X132.849 Y140.867 E.00613
G1 X132.685 Y140.978 E.00607
G1 X132.498 Y141.043 E.0061
G1 X132.39 Y141.058 E.00335
G1 X120.858 Y141.058 E.35435
G1 X120.75 Y141.043 E.00335
G1 X120.562 Y140.978 E.0061
G1 X120.399 Y140.867 E.00607
G1 X120.269 Y140.716 E.00613
G1 X114.551 Y130.813 E.35135
G1 X114.878 Y130.624 F24000
G1 F4800
G1 X114.827 Y130.536 E.00313
G1 X114.802 Y130.442 E.003
G1 X114.802 Y130.342 E.00307
G1 X114.827 Y130.248 E.003
G1 X120.601 Y120.248 E.35481
