; HEADER_BLOCK_START
; generated by OrcaSlicer-WaveOverhangs 2.4.0-dev on 2026-05-13 at 15:34:50
; WAVE_OVERHANG_BUILD wave_overhangs_version=dev orca_base=2.4.0-dev
; WAVE_OVERHANG_CONFIG region=0 algo=andersons outer_perim=1 spacing=0.460 flow_mm3_per_mm=0.200 speed=2.0 travel=40.0 fan=100 floor_layers=2 min_angle=0.0 min_length=0.00 max_iterations=0 ring_overlap=0.15 pattern=zigzag spacing_mode=uniform seam_mode=alternating perimeter_overlap=0.20 minimum_wave_width=0.70 min_new_area=0.0100 corner_enable=0 corner_spacing=0.420 corner_taper=10.00 corner_angle=91 end_retract=0.00 nozzle_temp_override=0 min_wave_time=0.00 min_layer_time=0.00 wall_loops=3 top_shell_layers=2 bottom_shell_layers=4 infill_density=15 infill_pattern=rectilinear support_remainder=1 instead_of_bridges=1
; WAVE_OVERHANG_CONFIG region=1 algo=andersons outer_perim=1 spacing=0.460 flow_mm3_per_mm=0.200 speed=2.0 travel=40.0 fan=100 floor_layers=2 min_angle=0.0 min_length=0.00 max_iterations=0 ring_overlap=0.15 pattern=zigzag spacing_mode=uniform seam_mode=alternating perimeter_overlap=0.20 minimum_wave_width=0.70 min_new_area=0.0100 corner_enable=0 corner_spacing=0.420 corner_taper=10.00 corner_angle=91 end_retract=0.00 nozzle_temp_override=0 min_wave_time=0.00 min_layer_time=0.00 wall_loops=3 top_shell_layers=2 bottom_shell_layers=4 infill_density=15 infill_pattern=rectilinear support_remainder=1 instead_of_bridges=1
; total layer number: 138
; filament_density: 1.24
; filament_diameter: 1.75
; max_z_height: 20.12
; filament: 1
; HEADER_BLOCK_END

; THUMBNAIL_BLOCK_START

;
; THUMBNAIL_BLOCK_END

; external perimeters extrusion width = 0.42mm
; perimeters extrusion width = 0.45mm
; infill extrusion width = 0.44mm
; solid infill extrusion width = 0.44mm
; top infill extrusion width = 0.38mm
; first layer extrusion width = 0.42mm

; external perimeters extrusion width = 0.42mm
; perimeters extrusion width = 0.45mm
; infill extrusion width = 0.44mm
; solid infill extrusion width = 0.44mm
; top infill extrusion width = 0.38mm
; first layer extrusion width = 0.42mm

; EXECUTABLE_BLOCK_START
EXCLUDE_OBJECT_DEFINE NAME=FTS_Loop_Narrow.STL_id_0_copy_0 CENTER=122.403,69.2041 POLYGON=[[94.9904,66.7041],[115.475,57.2041],[129.332,57.2041],[149.816,66.7041],[149.816,71.7041],[129.332,81.2041],[115.475,81.2041],[94.9904,71.7041],[94.9904,66.7041]]
EXCLUDE_OBJECT_DEFINE NAME=FTS_Loop_Holes.STL_id_1_copy_0 CENTER=124.958,191.273 POLYGON=[[107.474,190.325],[107.679,188.442],[108.086,186.591],[108.691,184.795],[109.487,183.076],[110.464,181.452],[111.611,179.944],[112.914,178.568],[114.008,177.614],[114.358,177.341],[115.063,176.832],[115.926,176.278],[117.6,175.39],[119.361,174.689],[121.186,174.182],[123.056,173.875],[124.948,173.773],[126.84,173.875],[128.71,174.182],[130.536,174.689],[132.296,175.39],[133.971,176.278],[135.539,177.341],[136.983,178.568],[138.286,179.944],[139.433,181.452],[140.41,183.076],[141.206,184.795],[141.811,186.591],[142.218,188.442],[142.423,190.325],[142.427,190.397],[142.443,191.716],[142.423,192.22],[142.218,194.104],[141.811,195.955],[141.206,197.75],[140.41,199.47],[139.433,201.094],[138.286,202.602],[136.983,203.978],[135.539,205.204],[133.971,206.268],[132.297,207.155],[130.536,207.857],[128.71,208.364],[126.841,208.67],[124.948,208.773],[123.056,208.67],[121.187,208.364],[119.361,207.857],[117.6,207.155],[115.926,206.268],[114.358,205.204],[112.914,203.978],[111.611,202.602],[110.464,201.094],[109.487,199.47],[108.691,197.75],[108.086,195.955],[107.679,194.104],[107.474,192.22],[107.474,190.325]]
M73 P0 R33
M106 S0
M106 P2 S0
;TYPE:Custom
G9111 bedTemp=55 extruderTemp=210
M117
G90
G21
M83 ; use relative distances for extrusion
; Filament gcode
M106 S0
M106 P2 S0
;LAYER_CHANGE
;Z:0.2
;HEIGHT:0.2
 ; PURGE LINE
M204 P500
SET_VELOCITY_LIMIT SQUARE_CORNER_VELOCITY=9
G1 Z0.50 F900 ; for object exclusion
G1 X89.365 Y255 F18000
G1 Z.25 F900
G1 E0.8 F2400
G1 E0.6
G1 F3000
G1 X158.835 Y255 E3.72454
G1 X158.835 Y255.45 E.0252
G1 X89.365 Y255.45 E3.72454
G1 X89.365 Y255.02 E.02305
G1 Z0.5 F600

G1 E-.8 F2400
; AFTER_LAYER_CHANGE 0 @ 0.2mm
;_SET_FAN_SPEED_CHANGING_LAYER
SET_VELOCITY_LIMIT ACCEL=2000 ACCEL_TO_DECEL=1000
; printing object FTS_Loop_Narrow.STL id:0 copy 0
EXCLUDE_OBJECT_START NAME=FTS_Loop_Narrow.STL_id_0_copy_0
G1 X113.843 Y82.646 F24000
G1 Z.6
G1 Z.2
G1 E.8 F2400
;TYPE:Brim
;WIDTH:0.42
G1 F4800
G1 X113.37 Y82.209 E.01979
G1 X112.965 Y81.704 E.0199
G1 X112.786 Y81.419 E.01033
G1 X107.018 Y71.428 E.35448
G1 X106.735 Y70.842 E.02001
G1 X106.544 Y70.227 E.01979
G1 X106.446 Y69.587 E.0199
G1 X106.434 Y69.257 E.01015
G1 X106.482 Y68.511 E.02296
G1 X106.624 Y67.884 E.01976
G1 X106.859 Y67.28 E.0199
G1 X107.016 Y66.983 E.01033
G1 X112.784 Y56.992 E.35448
G1 X113.151 Y56.454 E.02001
G1 X113.588 Y55.981 E.01979
G1 X114.093 Y55.577 E.01987
G1 X114.458 Y55.351 E.01319
G1 X115.042 Y55.069 E.01992
G1 X115.657 Y54.879 E.01979
G1 X116.298 Y54.781 E.0199
G1 X116.634 Y54.768 E.01033
G1 X128.17 Y54.768 E.35448
G1 X128.819 Y54.816 E.02001
G1 X129.447 Y54.959 E.01979
G1 X130.05 Y55.193 E.01987
G1 X130.428 Y55.397 E.01319
G1 X130.964 Y55.762 E.01992
G1 X131.437 Y56.199 E.01979
G1 X131.841 Y56.704 E.0199
G1 X132.021 Y56.989 E.01033
G1 X137.789 Y66.98 E.35448
G1 X138.072 Y67.566 E.02001
G1 X138.262 Y68.182 E.01979
G1 X138.36 Y68.822 E.0199
G1 X138.373 Y69.152 E.01015
G1 X138.325 Y69.897 E.02296
G1 X138.183 Y70.525 E.01976
G1 X137.947 Y71.128 E.0199
G1 X137.791 Y71.425 E.01033
G1 X132.023 Y81.416 E.35448
G1 X131.656 Y81.954 E.02001
G1 X131.218 Y82.427 E.01979
G1 X130.714 Y82.832 E.01987
G1 X130.349 Y83.057 E.01319
G1 X129.765 Y83.339 E.01992
G1 X129.149 Y83.529 E.01979
G1 X128.509 Y83.627 E.0199
G1 X128.173 Y83.64 E.01033
G1 X116.637 Y83.64 E.35448
G1 X115.988 Y83.592 E.02001
G1 X115.359 Y83.45 E.01979
G1 X114.757 Y83.215 E.01987
G1 X114.379 Y83.011 E.01319
G1 X113.876 Y82.669 E.01869
G1 X114.09 Y82.357 F24000
G1 F4800
G1 X114.072 Y82.345 E.00065
G1 X113.642 Y81.945 E.01806
G1 X113.267 Y81.475 E.01844
G1 X107.35 Y71.248 E.36307
G1 X107.091 Y70.711 E.01833
G1 X106.915 Y70.15 E.01806
G1 X106.822 Y69.544 E.01883
G1 X106.812 Y69.256 E.00887
G1 X106.858 Y68.556 E.02153
G1 X106.989 Y67.987 E.01796
G1 X107.201 Y67.443 E.01792
G1 X113.106 Y57.189 E.36359
G1 X113.442 Y56.696 E.01833
G1 X113.84 Y56.264 E.01806
G1 X114.306 Y55.89 E.01835
G1 X114.635 Y55.685 E.01191
G1 X115.189 Y55.419 E.01889
G1 X115.751 Y55.246 E.01806
G1 X116.34 Y55.156 E.01831
G1 X128.16 Y55.145 E.3632
G1 X128.755 Y55.189 E.01833
G1 X129.328 Y55.318 E.01806
G1 X129.898 Y55.54 E.01877
G1 X130.237 Y55.723 E.01185
G1 X130.735 Y56.063 E.01853
G1 X131.165 Y56.463 E.01806
G1 X131.539 Y56.933 E.01844
G1 X137.453 Y67.152 E.36281
G1 X137.716 Y67.697 E.01859
G1 X137.895 Y68.275 E.01858
G1 X137.984 Y68.851 E.01792
G1 X137.995 Y69.153 E.00927
G1 X137.949 Y69.852 E.02153
G1 X137.818 Y70.422 E.01796
G1 X137.606 Y70.965 E.01792
G1 X131.701 Y81.219 E.36359
G1 X131.365 Y81.712 E.01833
G1 X130.967 Y82.144 E.01806
G1 X130.501 Y82.519 E.01835
G1 X130.162 Y82.729 E.01227
G1 X129.634 Y82.983 E.01801
G1 X129.073 Y83.159 E.01806
G1 X128.48 Y83.251 E.01844
G1 X128.164 Y83.263 E.00972
G1 X116.655 Y83.263 E.35363
G1 X116.035 Y83.216 E.0191
G1 X115.462 Y83.085 E.01806
G1 X114.909 Y82.868 E.01825
G1 X114.57 Y82.685 E.01185
G1 X114.123 Y82.379 E.01665
G1 X114.337 Y82.068 F24000
G1 F4800
G1 X114.302 Y82.044 E.00129
G1 X113.914 Y81.681 E.01633
G1 X113.576 Y81.255 E.01671
G1 X107.681 Y71.068 E.36164
G1 X107.446 Y70.58 E.01665
G1 X107.286 Y70.073 E.01633
G1 X107.198 Y69.502 E.01774
G1 X107.19 Y69.255 E.00758
G1 X107.235 Y68.603 E.02011
G1 X107.353 Y68.09 E.01617
G1 X107.546 Y67.599 E.0162
G1 X113.428 Y57.386 E.36215
G1 X113.733 Y56.938 E.01665
G1 X114.093 Y56.546 E.01634
G1 X114.519 Y56.202 E.01682
G1 X114.811 Y56.019 E.0106
G1 X115.335 Y55.768 E.01784
G1 X115.843 Y55.613 E.01633
G1 X116.377 Y55.533 E.01659
G1 X128.151 Y55.522 E.36177
G1 X128.691 Y55.563 E.01665
G1 X129.21 Y55.678 E.01633
G1 X129.745 Y55.886 E.01765
G1 X130.045 Y56.049 E.01048
G1 X130.505 Y56.364 E.01713
G1 X130.893 Y56.727 E.01633
G1 X131.231 Y57.153 E.01671
G1 X137.118 Y67.325 E.36113
G1 X137.361 Y67.828 E.01716
G1 X137.528 Y68.368 E.01736
G1 X137.607 Y68.881 E.01595
G1 X137.617 Y69.153 E.00838
G1 X137.572 Y69.806 E.02009
G1 X137.454 Y70.318 E.01617
G1 X137.261 Y70.809 E.0162
G1 X131.379 Y81.022 E.36215
G1 X131.073 Y81.47 E.01665
G1 X130.714 Y81.862 E.01634
G1 X130.288 Y82.206 E.01681
G1 X129.975 Y82.4 E.01134
G1 X129.502 Y82.628 E.01611
G1 X128.995 Y82.788 E.01634
G1 X128.449 Y82.874 E.01698
G1 X128.154 Y82.886 E.00909
G1 X116.674 Y82.886 E.35275
G1 X116.084 Y82.841 E.01818
G1 X115.566 Y82.721 E.01633
G1 X115.062 Y82.522 E.01664
G1 X114.762 Y82.36 E.0105
G1 X114.37 Y82.09 E.0146
G1 X114.585 Y81.779 F24000
G1 F4800
G1 X114.533 Y81.743 E.00194
G1 X114.186 Y81.418 E.0146
G1 X113.884 Y81.035 E.01499
G1 X108.013 Y70.887 E.36023
G1 X107.801 Y70.448 E.015
G1 X107.657 Y69.995 E.0146
G1 X107.574 Y69.46 E.01664
G1 X107.567 Y69.256 E.00626
G1 X107.611 Y68.65 E.01868
G1 X107.717 Y68.194 E.01437
G1 X107.891 Y67.756 E.01449
G1 X113.746 Y57.59 E.36046
G1 X114.025 Y57.18 E.01526
G1 X114.346 Y56.828 E.01463
G1 X114.733 Y56.514 E.0153
G1 X114.988 Y56.354 E.00927
G1 X115.48 Y56.118 E.01677
G1 X115.935 Y55.981 E.01459
G1 X116.414 Y55.911 E.01487
G1 X128.141 Y55.9 E.36035
G1 X128.628 Y55.936 E.015
G1 X129.092 Y56.038 E.0146
G1 X129.593 Y56.232 E.01652
G1 X129.853 Y56.374 E.0091
G1 X130.274 Y56.665 E.01573
G1 X130.621 Y56.99 E.0146
G1 X130.923 Y57.373 E.01499
G1 X136.782 Y67.499 E.35946
G1 X137.005 Y67.959 E.01573
G1 X137.161 Y68.461 E.01614
G1 X137.23 Y68.911 E.01398
G1 X137.239 Y69.154 E.00748
G1 X137.196 Y69.758 E.01862
G1 X137.089 Y70.214 E.01437
G1 X136.916 Y70.652 E.01449
G1 X131.061 Y80.818 E.36046
G1 X130.782 Y81.228 E.01526
G1 X130.461 Y81.58 E.01463
G1 X130.075 Y81.893 E.01526
G1 X129.788 Y82.072 E.0104
G1 X129.371 Y82.273 E.01423
G1 X128.917 Y82.417 E.01463
G1 X128.418 Y82.497 E.01551
G1 X128.143 Y82.509 E.00846
G1 X116.693 Y82.509 E.35184
G1 X116.133 Y82.465 E.01725
G1 X115.67 Y82.357 E.0146
G1 X115.215 Y82.177 E.01503
G1 X114.954 Y82.034 E.00915
G1 X114.618 Y81.802 E.01255
G1 X114.834 Y81.491 F24000
G1 F4800
G1 X114.764 Y81.443 E.0026
G1 X114.46 Y81.156 E.01287
G1 X114.193 Y80.816 E.01329
G1 X108.345 Y70.707 E.35884
G1 X108.156 Y70.315 E.01336
G1 X108.028 Y69.916 E.01287
G1 X107.95 Y69.409 E.01579
G1 X107.987 Y68.698 E.02187
G1 X108.081 Y68.299 E.01258
G1 X108.236 Y67.913 E.01278
G1 X114.064 Y57.794 E.3588
G1 X114.317 Y57.421 E.01388
G1 X114.6 Y57.109 E.01293
G1 X114.947 Y56.826 E.01378
G1 X115.165 Y56.688 E.00791
G1 X115.625 Y56.468 E.01568
G1 X116.025 Y56.349 E.01283
G1 X116.449 Y56.288 E.01316
G1 X128.131 Y56.277 E.35895
G1 X128.565 Y56.31 E.01336
G1 X128.974 Y56.398 E.01286
G1 X129.44 Y56.578 E.01536
G1 X129.66 Y56.699 E.0077
G1 X130.043 Y56.965 E.01432
G1 X130.347 Y57.253 E.01287
G1 X130.614 Y57.593 E.01329
G1 X136.447 Y67.672 E.35782
G1 X136.65 Y68.09 E.01429
G1 X136.794 Y68.554 E.01492
G1 X136.853 Y68.941 E.01201
G1 X136.861 Y69.154 E.00657
G1 X136.82 Y69.71 E.01714
G1 X136.726 Y70.109 E.01258
G1 X136.571 Y70.495 E.01278
G1 X130.743 Y80.614 E.3588
G1 X130.49 Y80.987 E.01388
G1 X130.207 Y81.299 E.01293
G1 X129.862 Y81.581 E.0137
G1 X129.6 Y81.744 E.00945
G1 X129.223 Y81.924 E.01285
G1 X128.837 Y82.047 E.01244
G1 X128.386 Y82.12 E.01405
G1 X128.132 Y82.132 E.00781
G1 X116.712 Y82.132 E.35091
G1 X116.183 Y82.089 E.01632
G1 X115.776 Y81.993 E.01286
G1 X115.369 Y81.831 E.01343
G1 X115.147 Y81.709 E.0078
G1 X114.866 Y81.514 E.0105
G1 X115.083 Y81.205 F24000
G1 F4800
G1 X114.997 Y81.144 E.00325
G1 X114.734 Y80.894 E.01114
G1 X114.502 Y80.597 E.01159
G1 X108.676 Y70.527 E.35747
G1 X108.51 Y70.182 E.01174
G1 X108.399 Y69.838 E.01111
G1 X108.329 Y69.378 E.01431
G1 X108.364 Y68.741 E.01959
G1 X108.445 Y68.406 E.01061
G1 X108.58 Y68.071 E.0111
G1 X114.381 Y57.998 E.35717
G1 X114.61 Y57.661 E.01252
G1 X114.855 Y57.39 E.01124
G1 X115.163 Y57.136 E.01226
G1 X115.342 Y57.022 E.00651
G1 X115.77 Y56.819 E.01456
G1 X116.115 Y56.717 E.01107
G1 X116.485 Y56.665 E.01147
G1 X128.122 Y56.655 E.35757
G1 X128.503 Y56.683 E.01175
G1 X128.857 Y56.759 E.01112
G1 X129.288 Y56.925 E.01419
G1 X129.466 Y57.023 E.00626
G1 X129.81 Y57.264 E.01291
G1 X130.073 Y57.514 E.01114
G1 X130.305 Y57.811 E.01159
G1 X136.111 Y67.845 E.3562
G1 X136.294 Y68.222 E.01286
G1 X136.426 Y68.647 E.0137
G1 X136.476 Y68.97 E.01004
G1 X136.483 Y69.154 E.00565
G1 X136.444 Y69.661 E.01563
G1 X136.362 Y70.002 E.01078
G1 X136.227 Y70.337 E.0111
G1 X130.426 Y80.41 E.35717
G1 X130.197 Y80.747 E.01252
G1 X129.952 Y81.018 E.01123
G1 X129.647 Y81.269 E.01212
G1 X129.413 Y81.415 E.00848
G1 X129.091 Y81.569 E.01097
G1 X128.758 Y81.676 E.01077
G1 X128.353 Y81.743 E.0126
G1 X128.121 Y81.755 E.00715
G1 X116.732 Y81.755 E.34994
G1 X116.234 Y81.714 E.01537
G1 X115.882 Y81.629 E.01112
G1 X115.524 Y81.486 E.01183
G1 X115.341 Y81.385 E.00644
G1 X115.116 Y81.227 E.00843
G1 X115.346 Y80.903 F24000
G1 F4800
G1 X115.155 Y80.767 E.00719
G1 X114.724 Y80.25 E.02069
G1 X108.996 Y70.33 E.35199
G1 X108.798 Y69.833 E.01643
G1 X108.711 Y69.261 E.01777
G1 X108.772 Y68.678 E.01801
G1 X108.995 Y68.08 E.01963
G1 X114.768 Y58.093 E.35446
G1 X115.137 Y57.658 E.01751
G1 X115.607 Y57.317 E.01784
G1 X116.145 Y57.107 E.01777
G1 X116.674 Y57.03 E.01643
G1 X128.132 Y57.03 E.35207
G1 X128.661 Y57.107 E.01643
G1 X129.2 Y57.317 E.01777
G1 X129.674 Y57.662 E.01801
G1 X130.081 Y58.154 E.01963
G1 X135.811 Y68.079 E.35212
G1 X136.036 Y68.679 E.01971
G1 X136.096 Y69.26 E.01796
G1 X136.014 Y69.813 E.01716
G1 X135.81 Y70.332 E.01713
G1 X130.083 Y80.25 E.35191
G1 X129.652 Y80.767 E.02069
G1 X129.179 Y81.102 E.01782
G1 X128.641 Y81.307 E.01767
G1 X128.137 Y81.378 E.01566
G1 X116.67 Y81.378 E.35233
G1 X116.166 Y81.307 E.01566
G1 X115.628 Y81.102 E.01767
G1 X115.378 Y80.926 E.00939
G1 X115.6 Y80.629 F24000
G1 F4800
G1 X115.374 Y80.461 E.00864
G1 X115.055 Y80.069 E.01554
G1 X109.318 Y70.134 E.3525
G1 X109.146 Y69.686 E.01475
G1 X109.084 Y69.207 E.01484
G1 X109.147 Y68.72 E.0151
G1 X109.318 Y68.276 E.01462
G1 X115.057 Y58.336 E.35268
G1 X115.356 Y57.966 E.01462
G1 X115.747 Y57.667 E.0151
G1 X116.192 Y57.481 E.01484
G1 X116.666 Y57.407 E.01475
G1 X128.141 Y57.407 E.35257
G1 X128.615 Y57.481 E.01475
G1 X129.06 Y57.667 E.01484
G1 X129.451 Y57.966 E.0151
G1 X129.75 Y58.336 E.01462
G1 X135.488 Y68.274 E.35263
G1 X135.661 Y68.722 E.01476
G1 X135.724 Y69.202 E.01487
G1 X135.665 Y69.668 E.01442
G1 X135.487 Y70.136 E.01539
G1 X129.752 Y80.069 E.35244
G1 X129.433 Y80.461 E.01554
G1 X129.043 Y80.751 E.01494
G1 X128.596 Y80.932 E.01481
G1 X128.145 Y81.001 E.01403
G1 X116.662 Y81.001 E.35282
G1 X116.211 Y80.932 E.01403
G1 X115.764 Y80.751 E.01481
G1 X115.632 Y80.652 E.00508
G1 X115.845 Y80.347 F24000
G1 F4800
G1 X115.667 Y80.223 E.00666
G1 X115.386 Y79.888 E.01344
G1 X109.641 Y69.938 E.35305
G1 X109.519 Y69.636 E.00998
G1 X109.458 Y69.255 E.01188
G1 X109.496 Y68.861 E.01215
G1 X109.64 Y68.472 E.01276
G1 X115.388 Y58.517 E.35322
G1 X115.653 Y58.197 E.01276
G1 X115.975 Y57.967 E.01215
G1 X116.336 Y57.83 E.01188
G1 X116.657 Y57.784 E.00998
G1 X128.149 Y57.784 E.35311
G1 X128.471 Y57.83 E.00998
G1 X128.832 Y57.967 E.01188
G1 X129.154 Y58.197 E.01215
G1 X129.419 Y58.517 E.01276
G1 X135.166 Y68.47 E.35317
G1 X135.288 Y68.772 E.00998
G1 X135.349 Y69.157 E.012
G1 X135.316 Y69.527 E.01142
G1 X135.165 Y69.939 E.01348
G1 X129.421 Y79.888 E.35299
G1 X129.14 Y80.223 E.01344
G1 X128.816 Y80.449 E.01212
G1 X128.456 Y80.583 E.01181
G1 X128.153 Y80.624 E.00939
G1 X116.654 Y80.624 E.35335
G1 X116.351 Y80.583 E.00939
G1 X115.991 Y80.449 E.01181
G1 X115.878 Y80.37 E.00424
G1 X116.099 Y80.078 F24000
G1 F4800
G1 X115.886 Y79.917 E.0082
G1 X115.717 Y79.708 E.00825
G1 X109.963 Y69.742 E.3536
G1 X109.867 Y69.492 E.00825
G1 X109.83 Y69.197 E.00912
G1 X109.871 Y68.903 E.00914
G1 X109.961 Y68.669 E.00771
G1 X115.719 Y58.697 E.35382
G1 X115.876 Y58.501 E.00771
G1 X116.111 Y58.319 E.00914
G1 X116.384 Y58.204 E.00912
G1 X116.65 Y58.161 E.00825
G1 X128.157 Y58.161 E.3536
