; HEADER_BLOCK_START
; generated by OrcaSlicer-WaveOverhangs 2.4.0-dev on 2026-05-13 at 15:02:16
; WAVE_OVERHANG_BUILD wave_overhangs_version=dev orca_base=2.4.0-dev
; WAVE_OVERHANG_CONFIG region=0 algo=andersons outer_perim=1 spacing=0.460 flow_mm3_per_mm=0.200 speed=2.0 travel=40.0 fan=100 floor_layers=2 min_angle=0.0 min_length=0.00 max_iterations=0 ring_overlap=0.15 pattern=zigzag spacing_mode=uniform seam_mode=alternating perimeter_overlap=0.20 minimum_wave_width=0.70 min_new_area=0.0100 corner_enable=0 corner_spacing=0.420 corner_taper=10.00 corner_angle=91 end_retract=0.00 nozzle_temp_override=0 min_wave_time=0.00 min_layer_time=0.00 wall_loops=3 top_shell_layers=2 bottom_shell_layers=4 infill_density=15 infill_pattern=rectilinear support_remainder=1 instead_of_bridges=1
; total layer number: 84
; filament_density: 1.24
; filament_diameter: 1.75
; max_z_height: 20.12
; filament: 1
; HEADER_BLOCK_END

; THUMBNAIL_BLOCK_START

;
; THUMBNAIL_BLOCK_END

; external perimeters extrusion width = 0.42mm
; perimeters extrusion width = 0.45mm
; infill extrusion width = 0.44mm
; solid infill extrusion width = 0.44mm
; top infill extrusion width = 0.38mm
; first layer extrusion width = 0.42mm

; EXECUTABLE_BLOCK_START
EXCLUDE_OBJECT_DEFINE NAME=FTS_Loop_Holes.STL_id_0_copy_0 CENTER=129.379,139.187 POLYGON=[[111.905,138.239],[112.11,136.355],[112.517,134.505],[113.122,132.709],[113.918,130.989],[114.895,129.366],[116.041,127.857],[117.344,126.482],[118.789,125.255],[120.357,124.192],[122.031,123.304],[123.791,122.603],[124.622,122.345],[125.617,122.096],[127.487,121.789],[129.379,121.687],[131.271,121.789],[133.141,122.096],[134.967,122.603],[136.727,123.304],[138.401,124.192],[139.97,125.255],[141.414,126.482],[142.717,127.857],[143.864,129.366],[144.841,130.989],[145.636,132.709],[146.241,134.505],[146.649,136.355],[146.853,138.239],[146.853,140.134],[146.649,142.018],[146.241,143.868],[146.222,143.938],[145.636,145.664],[144.841,147.384],[143.864,149.007],[142.717,150.516],[141.414,151.891],[139.97,153.118],[138.401,154.182],[136.727,155.069],[134.967,155.77],[133.141,156.277],[131.271,156.584],[129.379,156.687],[127.487,156.584],[125.617,156.277],[123.791,155.77],[122.031,155.069],[120.357,154.182],[118.789,153.118],[117.344,151.891],[116.041,150.516],[114.895,149.007],[113.918,147.384],[113.122,145.664],[112.517,143.868],[112.11,142.018],[111.905,140.134],[111.905,138.239]]
M73 P0 R23
M106 S0
M106 P2 S0
;TYPE:Custom
G9111 bedTemp=55 extruderTemp=210
M117
G90
G21
M83 ; use relative distances for extrusion
; Filament gcode
M106 S0
M106 P2 S0
;LAYER_CHANGE
;Z:0.2
;HEIGHT:0.2
 ; PURGE LINE
M204 P500
SET_VELOCITY_LIMIT SQUARE_CORNER_VELOCITY=9
G1 Z0.50 F900 ; for object exclusion
G1 X89.365 Y255 F18000
G1 Z.25 F900
G1 E0.8 F2400
G1 E0.6
G1 F3000
G1 X158.835 Y255 E3.72454
G1 X158.835 Y255.45 E.0252
G1 X89.365 Y255.45 E3.72454
G1 X89.365 Y255.02 E.02305
G1 Z0.5 F600

G1 E-.8 F2400
; AFTER_LAYER_CHANGE 0 @ 0.2mm
;_SET_FAN_SPEED_CHANGING_LAYER
SET_VELOCITY_LIMIT ACCEL=2000 ACCEL_TO_DECEL=1000
; printing object FTS_Loop_Holes.STL id:0 copy 0
EXCLUDE_OBJECT_START NAME=FTS_Loop_Holes.STL_id_0_copy_0
G1 X115.453 Y142.957 F24000
G1 Z.6
G1 Z.2
G1 E.8 F2400
;TYPE:Brim
;WIDTH:0.42
G1 F4800
G1 X115.148 Y141.565 E.0438
G1 X115.058 Y140.939 E.01942
G1 X114.955 Y139.513 E.04392
G1 X114.954 Y138.88 E.01945
G1 X115.055 Y137.454 E.04393
G1 X115.145 Y136.829 E.01942
G1 X115.447 Y135.435 E.0438
G1 X115.625 Y134.829 E.01941
G1 X116.123 Y133.491 E.04386
G1 X116.385 Y132.915 E.01944
G1 X117.07 Y131.66 E.04394
G1 X117.411 Y131.128 E.01942
G1 X118.265 Y129.987 E.04379
G1 X118.677 Y129.51 E.01939
G1 X119.683 Y128.502 E.04373
G1 X120.16 Y128.088 E.01943
G1 X121.308 Y127.227 E.04409
G1 X121.841 Y126.884 E.01945
G1 X123.091 Y126.201 E.04377
G1 X123.665 Y125.938 E.01939
G1 X124.998 Y125.44 E.04374
G1 X125.604 Y125.261 E.01941
G1 X127.002 Y124.956 E.04398
G1 X127.636 Y124.865 E.01968
G1 X129.085 Y124.762 E.04463
G1 X129.714 Y124.763 E.01932
G1 X131.113 Y124.863 E.0431
G1 X131.734 Y124.952 E.01929
G1 X133.122 Y125.253 E.04365
G1 X133.728 Y125.43 E.01938
G1 X135.072 Y125.929 E.04407
G1 X135.652 Y126.194 E.01957
G1 X136.912 Y126.881 E.04411
G1 X137.442 Y127.222 E.01937
G1 X138.579 Y128.072 E.04362
G1 X139.056 Y128.485 E.01938
G1 X140.059 Y129.486 E.04356
G1 X140.472 Y129.961 E.01933
G1 X141.335 Y131.111 E.04416
G1 X141.68 Y131.646 E.01958
G1 X142.367 Y132.903 E.04402
G1 X142.63 Y133.478 E.0194
G1 X143.128 Y134.81 E.04371
G1 X143.306 Y135.416 E.01939
G1 X143.61 Y136.809 E.0438
G1 X143.7 Y137.434 E.01942
G1 X143.804 Y138.86 E.04392
G1 X143.804 Y139.493 E.01945
G1 X143.703 Y140.919 E.04393
G1 X143.613 Y141.545 E.01942
G1 X143.311 Y142.938 E.0438
G1 X143.133 Y143.544 E.01941
G1 X142.636 Y144.882 E.04386
G1 X142.373 Y145.458 E.01944
G1 X141.688 Y146.713 E.04394
G1 X141.347 Y147.245 E.01942
G1 X140.494 Y148.386 E.04379
G1 X140.081 Y148.864 E.01939
G1 X139.075 Y149.871 E.04373
G1 X138.599 Y150.285 E.01941
G1 X137.453 Y151.144 E.044
G1 X136.917 Y151.489 E.01958
G1 X135.655 Y152.178 E.04418
G1 X135.083 Y152.439 E.01933
G1 X133.755 Y152.935 E.04355
G1 X133.15 Y153.113 E.01938
G1 X131.763 Y153.416 E.04364
G1 X131.139 Y153.507 E.01937
G1 X129.708 Y153.611 E.04409
G1 X129.071 Y153.611 E.01957
G1 X127.64 Y153.509 E.04409
G1 X127.015 Y153.42 E.01937
G1 X125.628 Y153.118 E.04364
G1 X125.022 Y152.941 E.01938
G1 X123.694 Y152.447 E.04355
G1 X123.122 Y152.186 E.01933
G1 X121.859 Y151.499 E.04418
G1 X121.322 Y151.155 E.01958
G1 X120.175 Y150.298 E.044
G1 X119.698 Y149.884 E.01941
G1 X118.691 Y148.879 E.04373
G1 X118.278 Y148.402 E.01939
G1 X117.423 Y147.262 E.04379
G1 X117.08 Y146.731 E.01942
G1 X116.394 Y145.476 E.04394
G1 X116.131 Y144.901 E.01944
G1 X115.631 Y143.563 E.04386
G1 X115.464 Y142.996 E.01818
G1 X115.826 Y142.889 F24000
G1 F4800
G1 X115.817 Y142.86 E.00094
G1 X115.521 Y141.501 E.04273
G1 X115.433 Y140.894 E.01884
G1 X115.332 Y139.504 E.04285
G1 X115.331 Y138.897 E.01862
G1 X115.43 Y137.498 E.0431
G1 X115.517 Y136.891 E.01884
G1 X115.812 Y135.532 E.04273
G1 X115.982 Y134.952 E.01859
G1 X116.473 Y133.632 E.04328
G1 X116.725 Y133.081 E.01861
G1 X117.393 Y131.856 E.04286
G1 X117.724 Y131.34 E.01884
G1 X118.561 Y130.22 E.04296
G1 X118.957 Y129.764 E.01856
G1 X119.937 Y128.781 E.04265
G1 X120.401 Y128.379 E.01885
G1 X121.521 Y127.539 E.04301
G1 X122.037 Y127.207 E.01887
G1 X123.263 Y126.537 E.04295
G1 X123.813 Y126.285 E.01856
G1 X125.114 Y125.799 E.04267
G1 X125.701 Y125.626 E.01883
G1 X127.073 Y125.326 E.04315
G1 X127.68 Y125.239 E.01884
G1 X129.094 Y125.14 E.04355
G1 X129.696 Y125.14 E.01849
G1 X131.068 Y125.238 E.04227
G1 X131.663 Y125.323 E.01846
G1 X133.026 Y125.617 E.04283
G1 X133.613 Y125.789 E.0188
G1 X134.924 Y126.277 E.04299
G1 X135.479 Y126.529 E.01874
G1 X136.716 Y127.204 E.04328
G1 X137.23 Y127.534 E.01879
G1 X138.346 Y128.369 E.0428
G1 X138.802 Y128.764 E.01855
G1 X139.781 Y129.741 E.04249
G1 X140.181 Y130.202 E.01876
G1 X141.023 Y131.323 E.04308
G1 X141.354 Y131.836 E.01874
G1 X142.028 Y133.069 E.04319
G1 X142.283 Y133.626 E.01882
G1 X142.768 Y134.926 E.04264
G1 X142.939 Y135.505 E.01856
G1 X143.238 Y136.872 E.04298
G1 X143.326 Y137.479 E.01884
G1 X143.426 Y138.87 E.04285
G1 X143.427 Y139.476 E.01862
G1 X143.328 Y140.875 E.0431
G1 X143.241 Y141.482 E.01884
G1 X142.946 Y142.841 E.04273
G1 X142.777 Y143.421 E.01859
G1 X142.285 Y144.741 E.04328
G1 X142.034 Y145.293 E.01861
G1 X141.366 Y146.517 E.04286
G1 X141.035 Y147.033 E.01884
G1 X140.197 Y148.153 E.04296
G1 X139.802 Y148.61 E.01856
G1 X138.821 Y149.592 E.04265
G1 X138.358 Y149.994 E.01883
G1 X137.234 Y150.836 E.04317
G1 X136.721 Y151.166 E.01875
G1 X135.49 Y151.838 E.0431
G1 X134.935 Y152.092 E.01875
G1 X133.64 Y152.576 E.04248
G1 X133.061 Y152.746 E.01855
G1 X131.7 Y153.044 E.04281
G1 X131.094 Y153.132 E.0188
G1 X129.698 Y153.233 E.04301
G1 X129.088 Y153.234 E.01874
G1 X127.676 Y153.133 E.04351
G1 X127.078 Y153.047 E.01855
G1 X125.725 Y152.754 E.04256
G1 X125.137 Y152.582 E.0188
G1 X123.842 Y152.1 E.04247
G1 X123.294 Y151.85 E.0185
G1 X122.054 Y151.177 E.04335
G1 X121.534 Y150.843 E.019
G1 X120.409 Y150.001 E.04317
G1 X119.952 Y149.605 E.01858
G1 X118.97 Y148.624 E.04265
G1 X118.569 Y148.162 E.01881
G1 X117.735 Y147.05 E.04271
G1 X117.407 Y146.541 E.01859
G1 X116.733 Y145.31 E.04311
G1 X116.478 Y144.752 E.01886
G1 X115.988 Y143.44 E.04304
G1 X115.837 Y142.928 E.01641
G1 X116.199 Y142.822 F24000
G1 F4800
G1 X116.182 Y142.762 E.00189
G1 X115.893 Y141.438 E.04166
G1 X115.808 Y140.85 E.01826
G1 X115.709 Y139.494 E.04177
G1 X115.709 Y138.915 E.0178
G1 X115.805 Y137.543 E.04227
G1 X115.889 Y136.954 E.01826
G1 X116.177 Y135.629 E.04166
G1 X116.339 Y135.075 E.01776
G1 X116.823 Y133.772 E.0427
G1 X117.064 Y133.246 E.01778
G1 X117.715 Y132.052 E.04179
G1 X118.036 Y131.552 E.01826
G1 X118.858 Y130.454 E.04213
G1 X119.236 Y130.018 E.01774
G1 X120.192 Y129.06 E.04158
G1 X120.641 Y128.67 E.01827
G1 X121.733 Y127.852 E.04194
G1 X122.233 Y127.529 E.01829
G1 X123.436 Y126.872 E.04212
G1 X123.961 Y126.633 E.01774
G1 X125.229 Y126.158 E.0416
G1 X125.799 Y125.991 E.01825
G1 X127.145 Y125.697 E.04232
G1 X127.725 Y125.614 E.018
G1 X129.104 Y125.517 E.04248
G1 X129.679 Y125.517 E.01767
G1 X131.024 Y125.613 E.04145
G1 X131.593 Y125.694 E.01764
G1 X132.929 Y125.982 E.042
G1 X133.498 Y126.149 E.01822
G1 X134.777 Y126.624 E.04192
G1 X135.307 Y126.865 E.01791
G1 X136.52 Y127.527 E.04245
G1 X137.019 Y127.847 E.01821
G1 X138.112 Y128.665 E.04197
G1 X138.548 Y129.043 E.01773
G1 X139.502 Y129.996 E.04142
G1 X139.89 Y130.442 E.01818
G1 X140.711 Y131.535 E.04201
G1 X141.027 Y132.025 E.01791
G1 X141.689 Y133.234 E.04235
G1 X141.935 Y133.774 E.01824
G1 X142.409 Y135.042 E.04157
G1 X142.572 Y135.595 E.01774
G1 X142.866 Y136.935 E.04215
G1 X142.951 Y137.523 E.01826
G1 X143.049 Y138.879 E.04177
G1 X143.05 Y139.459 E.0178
G1 X142.953 Y140.831 E.04227
G1 X142.869 Y141.419 E.01826
G1 X142.581 Y142.744 E.04166
G1 X142.42 Y143.299 E.01776
G1 X141.935 Y144.601 E.0427
G1 X141.694 Y145.127 E.01778
G1 X141.043 Y146.321 E.04179
G1 X140.722 Y146.821 E.01826
G1 X139.901 Y147.919 E.04213
G1 X139.523 Y148.355 E.01774
G1 X138.566 Y149.313 E.04158
G1 X138.118 Y149.702 E.01825
G1 X137.016 Y150.529 E.04234
G1 X136.525 Y150.844 E.01791
G1 X135.324 Y151.499 E.04203
G1 X134.786 Y151.745 E.01817
G1 X133.524 Y152.216 E.04141
G1 X132.971 Y152.38 E.01773
G1 X131.636 Y152.672 E.04198
G1 X131.049 Y152.757 E.01822
G1 X129.688 Y152.856 E.04193
G1 X129.106 Y152.857 E.0179
G1 X127.712 Y152.758 E.04293
G1 X127.141 Y152.675 E.01772
G1 X125.822 Y152.389 E.04149
G1 X125.252 Y152.222 E.01822
G1 X123.989 Y151.752 E.04141
G1 X123.466 Y151.514 E.01768
G1 X122.25 Y150.854 E.04251
G1 X121.746 Y150.53 E.01841
G1 X120.643 Y149.705 E.04234
G1 X120.206 Y149.326 E.01775
G1 X119.249 Y148.37 E.04158
G1 X118.86 Y147.922 E.01823
G1 X118.047 Y146.837 E.04164
G1 X117.733 Y146.352 E.01776
G1 X117.073 Y145.145 E.04228
G1 X116.825 Y144.604 E.01828
G1 X116.345 Y143.317 E.0422
G1 X116.21 Y142.86 E.01464
G1 X116.573 Y142.754 F24000
G1 F4800
G1 X116.547 Y142.665 E.00284
G1 X116.265 Y141.375 E.04059
G1 X116.182 Y140.805 E.01768
G1 X116.087 Y139.484 E.04071
G1 X116.086 Y138.932 E.01697
G1 X116.18 Y137.587 E.04143
G1 X116.262 Y137.017 E.01768
G1 X116.542 Y135.726 E.04059
G1 X116.696 Y135.197 E.01693
G1 X117.174 Y133.913 E.04211
G1 X117.403 Y133.411 E.01695
G1 X118.038 Y132.248 E.04072
G1 X118.349 Y131.764 E.01768
G1 X119.154 Y130.688 E.0413
G1 X119.515 Y130.272 E.01691
G1 X120.446 Y129.339 E.04051
G1 X120.881 Y128.961 E.01769
G1 X121.945 Y128.164 E.04086
G1 X122.43 Y127.852 E.01771
G1 X123.609 Y127.208 E.04128
G1 X124.109 Y126.98 E.01691
G1 X125.345 Y126.518 E.04053
G1 X125.897 Y126.355 E.01767
G1 X127.216 Y126.068 E.04148
G1 X127.769 Y125.989 E.01716
G1 X129.113 Y125.894 E.04141
G1 X129.669 Y125.894 E.0171
G1 X130.98 Y125.987 E.04038
G1 X131.522 Y126.064 E.01682
G1 X132.832 Y126.347 E.04117
G1 X133.383 Y126.508 E.01764
G1 X134.629 Y126.971 E.04085
G1 X135.135 Y127.201 E.01707
G1 X136.324 Y127.849 E.04161
G1 X136.807 Y128.159 E.01763
G1 X137.878 Y128.962 E.04114
G1 X138.294 Y129.322 E.0169
G1 X139.223 Y130.25 E.04036
G1 X139.599 Y130.683 E.0176
G1 X140.399 Y131.748 E.04094
G1 X140.701 Y132.215 E.01707
G1 X141.349 Y133.4 E.04152
G1 X141.588 Y133.923 E.01766
G1 X142.05 Y135.158 E.0405
G1 X142.206 Y135.685 E.01691
G1 X142.494 Y136.999 E.04131
G1 X142.576 Y137.568 E.01768
G1 X142.671 Y138.889 E.04071
G1 X142.673 Y139.441 E.01697
G1 X142.578 Y140.787 E.04143
G1 X142.497 Y141.356 E.01768
G1 X142.217 Y142.647 E.04059
G1 X142.063 Y143.176 E.01693
G1 X141.584 Y144.46 E.04211
G1 X141.355 Y144.962 E.01695
G1 X140.72 Y146.125 E.04072
G1 X140.41 Y146.61 E.01768
G1 X139.604 Y147.686 E.0413
G1 X139.243 Y148.101 E.01691
G1 X138.312 Y149.034 E.04052
G1 X137.878 Y149.411 E.01767
G1 X136.797 Y150.221 E.0415
G1 X136.329 Y150.521 E.01708
G1 X135.159 Y151.16 E.04096
G1 X134.638 Y151.398 E.01759
G1 X133.408 Y151.857 E.04034
G1 X132.881 Y152.013 E.0169
G1 X131.573 Y152.3 E.04115
G1 X131.005 Y152.382 E.01764
G1 X129.678 Y152.479 E.04086
G1 X129.123 Y152.48 E.01707
G1 X127.749 Y152.382 E.04234
G1 X127.204 Y152.303 E.01689
G1 X125.919 Y152.024 E.04043
G1 X125.368 Y151.863 E.01764
G1 X124.137 Y151.405 E.04034
G1 X123.638 Y151.178 E.01685
G1 X122.446 Y150.531 E.04168
G1 X121.957 Y150.218 E.01782
G1 X120.876 Y149.408 E.0415
G1 X120.461 Y149.047 E.01692
G1 X119.528 Y148.115 E.04052
G1 X119.151 Y147.681 E.01765
G1 X118.359 Y146.625 E.04057
G1 X118.06 Y146.162 E.01694
G1 X117.412 Y144.979 E.04145
G1 X117.172 Y144.455 E.0177
G1 X116.701 Y143.194 E.04137
G1 X116.584 Y142.792 E.01286
G1 X116.946 Y142.686 F24000
G1 F4800
G1 X116.911 Y142.568 E.00379
G1 X116.637 Y141.311 E.03952
G1 X116.557 Y140.76 E.0171
G1 X116.464 Y139.474 E.03964
G1 X116.463 Y138.949 E.01614
G1 X116.555 Y137.631 E.0406
G1 X116.634 Y137.08 E.0171
G1 X116.907 Y135.823 E.03952
G1 X117.053 Y135.32 E.01609
G1 X117.524 Y134.054 E.04152
G1 X117.743 Y133.577 E.01612
G1 X118.361 Y132.444 E.03966
G1 X118.661 Y131.975 E.01709
G1 X119.45 Y130.921 E.04046
G1 X119.794 Y130.526 E.01608
G1 X120.701 Y129.618 E.03945
G1 X121.121 Y129.253 E.01711
G1 X122.157 Y128.476 E.03978
G1 X122.626 Y128.174 E.01713
G1 X123.781 Y127.544 E.04045
G1 X124.258 Y127.327 E.01608
G1 X125.461 Y126.877 E.03947
G1 X125.994 Y126.72 E.01709
G1 X127.286 Y126.439 E.04064
G1 X127.812 Y126.364 E.01632
G1 X129.122 Y126.272 E.04035
G1 X129.66 Y126.271 E.01652
G1 X130.936 Y126.362 E.03932
G1 X131.452 Y126.435 E.01599
G1 X132.735 Y126.712 E.04034
G1 X133.268 Y126.868 E.01706
G1 X134.481 Y127.319 E.03978
G1 X134.963 Y127.537 E.01624
G1 X136.128 Y128.172 E.04078
G1 X136.595 Y128.472 E.01704
G1 X137.645 Y129.258 E.0403
G1 X138.039 Y129.601 E.01607
G1 X138.944 Y130.505 E.0393
G1 X139.308 Y130.923 E.01703
G1 X140.087 Y131.961 E.03987
G1 X140.374 Y132.404 E.01624
G1 X141.01 Y133.566 E.04068
G1 X141.241 Y134.071 E.01708
G1 X141.69 Y135.273 E.03944
G1 X141.839 Y135.775 E.01608
G1 X142.121 Y137.062 E.04048
G1 X142.201 Y137.613 E.0171
G1 X142.294 Y138.899 E.03964
G1 X142.296 Y139.425 E.01614
G1 X142.203 Y140.742 E.0406
G1 X142.124 Y141.293 E.0171
G1 X141.852 Y142.55 E.03953
G1 X141.706 Y143.053 E.01609
G1 X141.234 Y144.32 E.04152
G1 X141.016 Y144.796 E.01612
G1 X140.398 Y145.93 E.03966
G1 X140.097 Y146.398 E.01709
G1 X139.308 Y147.452 E.04046
G1 X138.965 Y147.847 E.01608
G1 X138.057 Y148.756 E.03945
G1 X137.638 Y149.12 E.01708
G1 X136.578 Y149.913 E.04066
G1 X136.133 Y150.198 E.01624
G1 X134.994 Y150.82 E.03989
G1 X134.49 Y151.05 E.01702
G1 X133.292 Y151.498 E.03928
G1 X132.791 Y151.647 E.01608
G1 X131.509 Y151.928 E.04032
G1 X130.96 Y152.007 E.01706
G1 X129.668 Y152.101 E.03979
G1 X129.14 Y152.103 E.01623
G1 X127.785 Y152.006 E.04174
G1 X127.268 Y151.931 E.01606
G1 X126.016 Y151.659 E.03937
G1 X125.483 Y151.503 E.01706
G1 X124.285 Y151.057 E.03928
G1 X123.809 Y150.842 E.01603
G1 X122.641 Y150.208 E.04084
G1 X122.169 Y149.905 E.01723
G1 X121.11 Y149.112 E.04066
G1 X120.715 Y148.768 E.0161
G1 X119.806 Y147.861 E.03945
G1 X119.442 Y147.441 E.01707
G1 X118.671 Y146.412 E.03951
