; HEADER_BLOCK_START
; generated by OrcaSlicer-WaveOverhangs 2.4.0-dev on 2026-05-13 at 15:58:15
; WAVE_OVERHANG_BUILD wave_overhangs_version=dev orca_base=2.4.0-dev
; WAVE_OVERHANG_CONFIG region=0 algo=andersons outer_perim=1 spacing=0.460 flow_mm3_per_mm=0.200 speed=2.0 travel=40.0 fan=100 floor_layers=2 min_angle=0.0 min_length=0.00 max_iterations=0 ring_overlap=0.15 pattern=zigzag spacing_mode=uniform seam_mode=alternating perimeter_overlap=0.20 minimum_wave_width=0.70 min_new_area=0.0100 corner_enable=0 corner_spacing=0.420 corner_taper=10.00 corner_angle=91 end_retract=0.00 nozzle_temp_override=0 min_wave_time=0.00 min_layer_time=0.00 wall_loops=3 top_shell_layers=2 bottom_shell_layers=4 infill_density=15 infill_pattern=rectilinear support_remainder=1 instead_of_bridges=1
; total layer number: 84
; filament_density: 1.24
; filament_diameter: 1.75
; max_z_height: 20.12
; filament: 1
; HEADER_BLOCK_END

; THUMBNAIL_BLOCK_START

;
; THUMBNAIL_BLOCK_END

; external perimeters extrusion width = 0.42mm
; perimeters extrusion width = 0.45mm
; infill extrusion width = 0.44mm
; solid infill extrusion width = 0.44mm
; top infill extrusion width = 0.38mm
; first layer extrusion width = 0.42mm

; EXECUTABLE_BLOCK_START
EXCLUDE_OBJECT_DEFINE NAME=FTS_Loop_Holes.STL_id_0_copy_0 CENTER=128.673,128.219 POLYGON=[[111.189,127.272],[111.394,125.388],[111.801,123.537],[112.406,121.742],[113.202,120.022],[114.178,118.398],[115.325,116.89],[116.628,115.514],[117.722,114.561],[118.072,114.287],[118.778,113.778],[119.641,113.224],[121.315,112.336],[123.075,111.635],[124.901,111.128],[126.771,110.822],[128.663,110.719],[130.555,110.822],[132.425,111.128],[134.251,111.635],[136.011,112.336],[137.685,113.224],[139.254,114.287],[140.698,115.514],[142.001,116.89],[143.148,118.398],[144.124,120.022],[144.92,121.742],[145.525,123.537],[145.932,125.388],[146.137,127.271],[146.141,127.344],[146.157,128.663],[146.137,129.166],[145.933,131.05],[145.525,132.901],[144.92,134.696],[144.125,136.416],[143.148,138.04],[142.001,139.548],[140.698,140.924],[139.254,142.151],[137.685,143.214],[136.011,144.102],[134.251,144.803],[132.425,145.31],[130.555,145.616],[128.663,145.719],[126.771,145.616],[124.901,145.31],[123.075,144.803],[121.315,144.102],[119.641,143.214],[118.073,142.151],[116.628,140.924],[115.325,139.548],[114.179,138.04],[113.202,136.416],[112.406,134.696],[111.801,132.901],[111.394,131.05],[111.189,129.166],[111.189,127.272]]
M73 P0 R22
M106 S0
M106 P2 S0
;TYPE:Custom
G9111 bedTemp=55 extruderTemp=210
M117
G90
G21
M83 ; use relative distances for extrusion
; Filament gcode
M106 S0
M106 P2 S0
;LAYER_CHANGE
;Z:0.2
;HEIGHT:0.2
 ; PURGE LINE
M204 P500
SET_VELOCITY_LIMIT SQUARE_CORNER_VELOCITY=9
G1 Z0.50 F900 ; for object exclusion
G1 X89.365 Y255 F18000
G1 Z.25 F900
G1 E0.8 F2400
G1 E0.6
G1 F3000
G1 X158.835 Y255 E3.72454
G1 X158.835 Y255.45 E.0252
G1 X89.365 Y255.45 E3.72454
G1 X89.365 Y255.02 E.02305
G1 Z0.5 F600

G1 E-.8 F2400
; AFTER_LAYER_CHANGE 0 @ 0.2mm
;_SET_FAN_SPEED_CHANGING_LAYER
SET_VELOCITY_LIMIT ACCEL=2000 ACCEL_TO_DECEL=1000
; printing object FTS_Loop_Holes.STL id:0 copy 0
EXCLUDE_OBJECT_START NAME=FTS_Loop_Holes.STL_id_0_copy_0
G1 X114.537 Y131.153 F24000
G1 Z.6
G1 Z.2
G1 E.8 F2400
;TYPE:Brim
;WIDTH:0.42
G1 F4800
G1 X114.422 Y130.532 E.01942
G1 X114.263 Y129.113 E.04386
G1 X114.237 Y128.481 E.01942
G1 X114.282 Y127.055 E.04386
G1 X114.347 Y126.426 E.01942
G1 X114.594 Y125.02 E.04386
G1 X114.748 Y124.407 E.01942
G1 X115.193 Y123.05 E.04386
G1 X115.433 Y122.463 E.01949
G1 X116.07 Y121.178 E.04408
G1 X116.39 Y120.634 E.01938
G1 X117.195 Y119.464 E.04365
G1 X117.589 Y118.97 E.0194
G1 X118.557 Y117.921 E.04386
G1 X119.018 Y117.489 E.01942
G1 X120.125 Y116.588 E.04386
G1 X120.643 Y116.225 E.01942
G1 X121.855 Y115.499 E.04343
G1 X122.414 Y115.216 E.01924
G1 X123.742 Y114.656 E.04429
G1 X124.347 Y114.452 E.01961
G1 X125.729 Y114.092 E.04387
G1 X126.35 Y113.977 E.01943
G1 X127.769 Y113.819 E.04386
G1 X128.401 Y113.793 E.01942
G1 X129.813 Y113.837 E.04343
G1 X130.436 Y113.901 E.01924
G1 X131.856 Y114.149 E.04429
G1 X132.475 Y114.304 E.01961
G1 X133.832 Y114.748 E.04387
G1 X134.417 Y114.988 E.01943
G1 X135.696 Y115.621 E.04386
G1 X136.241 Y115.941 E.01942
G1 X137.418 Y116.75 E.04386
G1 X137.912 Y117.145 E.01942
G1 X138.961 Y118.113 E.04386
G1 X139.393 Y118.574 E.01942
G1 X140.294 Y119.681 E.04386
G1 X140.657 Y120.199 E.01942
G1 X141.391 Y121.424 E.04386
G1 X141.676 Y121.988 E.01942
G1 X142.228 Y123.304 E.04386
G1 X142.43 Y123.903 E.01942
G1 X142.79 Y125.285 E.04386
G1 X142.905 Y125.906 E.01942
G1 X143.063 Y127.325 E.04386
G1 X143.089 Y127.956 E.01942
G1 X143.044 Y129.383 E.04386
G1 X142.979 Y130.015 E.0195
G1 X142.729 Y131.428 E.04409
G1 X142.576 Y132.039 E.01937
G1 X142.133 Y133.389 E.04364
G1 X141.894 Y133.973 E.0194
G1 X141.261 Y135.252 E.04386
G1 X140.941 Y135.797 E.01942
G1 X140.132 Y136.973 E.04387
G1 X139.737 Y137.467 E.01942
G1 X138.769 Y138.517 E.04386
G1 X138.308 Y138.949 E.01942
G1 X137.201 Y139.85 E.04387
G1 X136.683 Y140.213 E.01942
G1 X135.471 Y140.939 E.04343
G1 X134.912 Y141.222 E.01924
G1 X133.584 Y141.782 E.04429
G1 X132.979 Y141.986 E.01961
G1 X131.598 Y142.345 E.04387
G1 X130.976 Y142.46 E.01943
G1 X129.557 Y142.619 E.04387
G1 X128.926 Y142.645 E.01942
G1 X127.499 Y142.6 E.04386
G1 X126.87 Y142.535 E.01942
G1 X125.464 Y142.288 E.04386
G1 X124.851 Y142.134 E.01942
G1 X123.494 Y141.689 E.04386
G1 X122.909 Y141.45 E.01942
G1 X121.63 Y140.817 E.04386
G1 X121.085 Y140.497 E.01942
G1 X119.909 Y139.688 E.04386
G1 X119.415 Y139.293 E.01942
G1 X118.365 Y138.325 E.04386
G1 X117.933 Y137.864 E.01942
G1 X117.032 Y136.757 E.04387
G1 X116.669 Y136.239 E.01942
G1 X115.935 Y135.014 E.04387
G1 X115.65 Y134.45 E.01942
G1 X115.098 Y133.134 E.04386
G1 X114.896 Y132.535 E.01942
G1 X114.547 Y131.192 E.04264
G1 X114.912 Y131.097 F24000
G1 F4800
G1 X114.906 Y131.075 E.00069
G1 X114.794 Y130.472 E.01884
G1 X114.639 Y129.089 E.04279
G1 X114.615 Y128.484 E.0186
G1 X114.659 Y127.076 E.04328
G1 X114.721 Y126.474 E.0186
G1 X114.962 Y125.102 E.04279
G1 X115.109 Y124.515 E.0186
G1 X115.545 Y123.184 E.04303
G1 X115.779 Y122.615 E.01891
G1 X116.404 Y121.354 E.04325
G1 X116.71 Y120.834 E.01855
G1 X117.496 Y119.692 E.04258
G1 X117.878 Y119.213 E.01882
G1 X118.822 Y118.19 E.04279
G1 X119.269 Y117.77 E.01884
G1 X120.356 Y116.887 E.04304
G1 X120.852 Y116.54 E.0186
G1 X122.034 Y115.831 E.04236
G1 X122.576 Y115.556 E.01866
G1 X123.872 Y115.011 E.04322
G1 X124.451 Y114.814 E.01877
G1 X125.807 Y114.462 E.04304
G1 X126.41 Y114.35 E.01885
G1 X127.802 Y114.195 E.04304
G1 X128.406 Y114.171 E.0186
G1 X129.784 Y114.214 E.04236
G1 X130.388 Y114.276 E.01866
G1 X131.774 Y114.517 E.04322
G1 X132.367 Y114.665 E.01877
G1 X133.698 Y115.101 E.04304
G1 X134.265 Y115.334 E.01885
G1 X135.513 Y115.951 E.04279
G1 X136.035 Y116.258 E.0186
G1 X137.189 Y117.051 E.04304
G1 X137.669 Y117.434 E.01884
G1 X138.692 Y118.378 E.04279
G1 X139.112 Y118.825 E.01884
G1 X139.995 Y119.912 E.04304
G1 X140.342 Y120.408 E.0186
G1 X141.058 Y121.602 E.04279
G1 X141.335 Y122.15 E.01884
G1 X141.874 Y123.434 E.04279
G1 X142.068 Y124.007 E.0186
G1 X142.42 Y125.362 E.04304
G1 X142.532 Y125.966 E.01884
G1 X142.687 Y127.349 E.04279
G1 X142.711 Y127.954 E.0186
G1 X142.667 Y129.362 E.04328
G1 X142.604 Y129.966 E.01867
G1 X142.361 Y131.345 E.04302
G1 X142.212 Y131.938 E.01879
G1 X141.78 Y133.254 E.04256
G1 X141.552 Y133.814 E.01857
G1 X140.931 Y135.069 E.04304
G1 X140.62 Y135.598 E.01884
G1 X139.826 Y136.752 E.04304
G1 X139.448 Y137.225 E.0186
G1 X138.504 Y138.248 E.04279
G1 X138.057 Y138.668 E.01884
G1 X136.97 Y139.551 E.04304
G1 X136.474 Y139.898 E.01859
G1 X135.292 Y140.607 E.04236
G1 X134.75 Y140.882 E.01866
G1 X133.454 Y141.427 E.04322
G1 X132.875 Y141.623 E.01878
G1 X131.52 Y141.976 E.04304
G1 X130.916 Y142.088 E.01885
G1 X129.533 Y142.243 E.04279
G1 X128.928 Y142.267 E.0186
G1 X127.52 Y142.223 E.04328
G1 X126.918 Y142.161 E.0186
G1 X125.546 Y141.92 E.04279
G1 X124.952 Y141.771 E.01884
G1 X123.621 Y141.334 E.04304
G1 X123.061 Y141.104 E.0186
G1 X121.813 Y140.487 E.04279
G1 X121.284 Y140.176 E.01884
G1 X120.137 Y139.387 E.04279
G1 X119.664 Y139.009 E.0186
G1 X118.634 Y138.06 E.04304
G1 X118.214 Y137.613 E.01884
G1 X117.331 Y136.526 E.04304
G1 X116.984 Y136.03 E.0186
G1 X116.268 Y134.836 E.04279
G1 X115.991 Y134.288 E.01884
G1 X115.452 Y133.004 E.04279
G1 X115.258 Y132.431 E.0186
G1 X114.922 Y131.136 E.04112
G1 X115.287 Y131.041 F24000
G1 F4800
G1 X115.273 Y130.99 E.00163
G1 X115.167 Y130.413 E.01801
G1 X115.016 Y129.064 E.04172
G1 X114.992 Y128.478 E.01802
G1 X115.036 Y127.097 E.04245
G1 X115.096 Y126.522 E.01777
G1 X115.331 Y125.185 E.04172
G1 X115.471 Y124.624 E.01777
G1 X115.898 Y123.319 E.0422
G1 X116.124 Y122.767 E.01833
G1 X116.738 Y121.53 E.04241
G1 X117.031 Y121.033 E.01773
G1 X117.796 Y119.92 E.04151
G1 X118.167 Y119.456 E.01824
G1 X119.088 Y118.459 E.04171
G1 X119.521 Y118.052 E.01826
G1 X120.587 Y117.186 E.04221
G1 X121.061 Y116.854 E.01777
G1 X122.213 Y116.163 E.04129
G1 X122.738 Y115.897 E.01809
G1 X124.003 Y115.365 E.04215
G1 X124.555 Y115.177 E.01794
G1 X125.884 Y114.831 E.0422
G1 X126.469 Y114.723 E.01826
G1 X127.834 Y114.571 E.04221
G1 X128.412 Y114.548 E.01777
G1 X129.755 Y114.59 E.04129
G1 X130.341 Y114.65 E.01809
G1 X131.692 Y114.886 E.04215
G1 X132.258 Y115.027 E.01794
G1 X133.564 Y115.454 E.0422
G1 X134.114 Y115.679 E.01826
G1 X135.33 Y116.282 E.04172
G1 X135.829 Y116.574 E.01777
G1 X136.961 Y117.352 E.04221
G1 X137.426 Y117.723 E.01826
G1 X138.423 Y118.643 E.04171
G1 X138.83 Y119.077 E.01826
G1 X139.696 Y120.143 E.04221
G1 X140.028 Y120.617 E.01777
G1 X140.726 Y121.781 E.04172
G1 X140.994 Y122.312 E.01826
G1 X141.519 Y123.563 E.04172
G1 X141.705 Y124.111 E.01777
G1 X142.053 Y125.448 E.04245
G1 X142.159 Y126.025 E.01801
G1 X142.31 Y127.374 E.04172
G1 X142.334 Y127.96 E.01802
G1 X142.29 Y129.341 E.04245
G1 X142.23 Y129.918 E.01784
G1 X141.993 Y131.262 E.04194
G1 X141.849 Y131.837 E.01822
G1 X141.428 Y133.12 E.04149
G1 X141.209 Y133.655 E.01775
G1 X140.6 Y134.886 E.04221
G1 X140.299 Y135.399 E.01826
G1 X139.521 Y136.53 E.04221
G1 X139.159 Y136.982 E.01777
G1 X138.239 Y137.979 E.04172
G1 X137.805 Y138.386 E.01826
G1 X136.739 Y139.252 E.04221
G1 X136.265 Y139.584 E.01777
G1 X135.113 Y140.275 E.04129
G1 X134.588 Y140.541 E.01809
G1 X133.324 Y141.073 E.04215
G1 X132.771 Y141.261 E.01794
G1 X131.442 Y141.607 E.0422
G1 X130.857 Y141.715 E.01826
G1 X129.508 Y141.866 E.04172
G1 X128.93 Y141.89 E.01777
G1 X127.541 Y141.846 E.0427
G1 X126.966 Y141.786 E.01777
G1 X125.629 Y141.551 E.04172
G1 X125.052 Y141.407 E.01826
G1 X123.747 Y140.978 E.04221
G1 X123.212 Y140.759 E.01777
G1 X121.996 Y140.156 E.04172
G1 X121.483 Y139.855 E.01826
G1 X120.365 Y139.086 E.04172
G1 X119.912 Y138.726 E.01777
G1 X118.903 Y137.794 E.04221
G1 X118.496 Y137.361 E.01826
G1 X117.63 Y136.295 E.04221
G1 X117.298 Y135.821 E.01777
G1 X116.6 Y134.657 E.04172
G1 X116.332 Y134.126 E.01827
G1 X115.807 Y132.874 E.04172
G1 X115.621 Y132.327 E.01777
G1 X115.297 Y131.08 E.0396
G1 X115.662 Y130.985 F24000
G1 F4800
G1 X115.641 Y130.904 E.00256
G1 X115.54 Y130.354 E.01718
G1 X115.393 Y129.039 E.04065
G1 X115.37 Y128.472 E.01743
G1 X115.413 Y127.119 E.04162
G1 X115.47 Y126.57 E.01694
G1 X115.699 Y125.267 E.04066
G1 X115.835 Y124.724 E.01719
G1 X116.251 Y123.453 E.04112
G1 X116.466 Y122.926 E.01749
G1 X117.068 Y121.713 E.04158
G1 X117.351 Y121.233 E.01715
G1 X118.097 Y120.148 E.04044
G1 X118.451 Y119.705 E.01741
G1 X119.353 Y118.727 E.04089
G1 X119.772 Y118.333 E.01768
G1 X120.817 Y117.484 E.04137
G1 X121.269 Y117.169 E.01694
G1 X122.392 Y116.496 E.04023
G1 X122.901 Y116.238 E.01751
G1 X124.133 Y115.719 E.04108
G1 X124.66 Y115.54 E.0171
G1 X125.962 Y115.2 E.04137
G1 X126.528 Y115.096 E.01768
G1 X127.866 Y114.947 E.04137
G1 X128.417 Y114.926 E.01694
G1 X129.726 Y114.967 E.04023
G1 X130.293 Y115.025 E.01751
G1 X131.61 Y115.254 E.04108
G1 X132.15 Y115.388 E.0171
G1 X133.429 Y115.807 E.04137
G1 X133.962 Y116.025 E.01768
G1 X135.148 Y116.612 E.04065
G1 X135.623 Y116.89 E.01694
G1 X136.733 Y117.653 E.04137
G1 X137.183 Y118.012 E.01768
G1 X138.155 Y118.909 E.04064
G1 X138.549 Y119.328 E.01768
G1 X139.398 Y120.373 E.04137
G1 X139.713 Y120.825 E.01694
G1 X140.393 Y121.96 E.04065
G1 X140.653 Y122.474 E.01769
G1 X141.165 Y123.693 E.04065
G1 X141.342 Y124.215 E.01694
G1 X141.683 Y125.526 E.04162
G1 X141.786 Y126.084 E.01743
G1 X141.933 Y127.399 E.04065
G1 X141.956 Y127.958 E.01718
G1 X141.913 Y129.319 E.04186
G1 X141.856 Y129.87 E.017
G1 X141.625 Y131.18 E.04087
G1 X141.485 Y131.736 E.01764
G1 X141.075 Y132.986 E.04042
G1 X140.867 Y133.496 E.01692
G1 X140.27 Y134.703 E.04137
G1 X139.979 Y135.199 E.01768
G1 X139.215 Y136.308 E.04137
G1 X138.87 Y136.739 E.01694
G1 X137.973 Y137.711 E.04065
G1 X137.554 Y138.105 E.01768
G1 X136.509 Y138.953 E.04137
G1 X136.057 Y139.269 E.01694
G1 X134.934 Y139.942 E.04023
G1 X134.425 Y140.2 E.01751
G1 X133.193 Y140.719 E.04108
G1 X132.666 Y140.898 E.0171
G1 X131.356 Y141.239 E.04162
G1 X130.798 Y141.342 E.01743
G1 X129.483 Y141.489 E.04065
G1 X128.924 Y141.512 E.01719
G1 X127.563 Y141.469 E.04186
G1 X127.014 Y141.412 E.01694
G1 X125.712 Y141.183 E.04065
G1 X125.153 Y141.043 E.01768
G1 X123.874 Y140.623 E.04137
G1 X123.364 Y140.413 E.01694
G1 X122.179 Y139.826 E.04065
G1 X121.683 Y139.535 E.01768
G1 X120.593 Y138.785 E.04065
G1 X120.161 Y138.442 E.01694
G1 X119.171 Y137.529 E.04137
G1 X118.777 Y137.11 E.01768
G1 X117.929 Y136.065 E.04137
G1 X117.613 Y135.613 E.01694
G1 X116.933 Y134.478 E.04065
G1 X116.673 Y133.964 E.01769
G1 X116.161 Y132.745 E.04065
G1 X115.984 Y132.222 E.01694
G1 X115.672 Y131.023 E.03808
G1 X116.037 Y130.928 F24000
G1 F4800
G1 X116.01 Y130.826 E.00324
G1 X115.913 Y130.295 E.0166
G1 X115.769 Y129.014 E.03958
G1 X115.747 Y128.475 E.0166
G1 X115.79 Y127.14 E.04103
G1 X115.844 Y126.619 E.01611
G1 X116.068 Y125.349 E.0396
G1 X116.198 Y124.825 E.01661
G1 X116.604 Y123.587 E.04004
G1 X116.809 Y123.085 E.01666
G1 X117.398 Y121.897 E.04074
G1 X117.671 Y121.432 E.01657
G1 X118.398 Y120.376 E.03938
G1 X118.734 Y119.954 E.01659
G1 X119.618 Y118.996 E.04006
G1 X120.024 Y118.615 E.0171
G1 X121.048 Y117.783 E.04054
G1 X121.478 Y117.483 E.01611
G1 X122.571 Y116.828 E.03917
G1 X123.063 Y116.579 E.01694
G1 X124.263 Y116.074 E.04001
G1 X124.764 Y115.903 E.01627
G1 X126.04 Y115.57 E.04053
G1 X126.588 Y115.469 E.0171
G1 X127.899 Y115.323 E.04054
G1 X128.423 Y115.303 E.01611
G1 X129.697 Y115.343 E.03917
G1 X130.245 Y115.399 E.01694
G1 X131.528 Y115.623 E.04001
G1 X132.042 Y115.75 E.01627
G1 X133.295 Y116.16 E.04053
G1 X133.811 Y116.371 E.0171
G1 X134.965 Y116.942 E.03958
G1 X135.418 Y117.207 E.01611
G1 X136.505 Y117.954 E.04054
G1 X136.94 Y118.301 E.0171
G1 X137.886 Y119.174 E.03956
G1 X138.267 Y119.58 E.0171
G1 X139.099 Y120.604 E.04054
G1 X139.399 Y121.034 E.01611
G1 X140.061 Y122.139 E.03958
G1 X140.312 Y122.635 E.01711
G1 X140.81 Y123.823 E.03958
G1 X140.979 Y124.32 E.01611
G1 X141.316 Y125.612 E.04103
G1 X141.413 Y126.143 E.0166
G1 X141.557 Y127.424 E.03958
G1 X141.579 Y127.963 E.0166
G1 X141.537 Y129.298 E.04102
G1 X141.481 Y129.821 E.01617
G1 X141.256 Y131.097 E.03981
G1 X141.121 Y131.635 E.01706
G1 X140.722 Y132.852 E.03936
G1 X140.524 Y133.338 E.01609
G1 X139.94 Y134.52 E.04054
G1 X139.658 Y135 E.01709
G1 X138.91 Y136.086 E.04054
G1 X138.582 Y136.495 E.01611
G1 X137.708 Y137.442 E.03958
G1 X137.302 Y137.823 E.0171
G1 X136.278 Y138.655 E.04054
G1 X135.848 Y138.955 E.01611
G1 X134.755 Y139.61 E.03917
G1 X134.263 Y139.859 E.01694
G1 X133.063 Y140.364 E.04001
G1 X132.562 Y140.535 E.01627
G1 X131.27 Y140.872 E.04102
G1 X130.739 Y140.969 E.0166
G1 X129.458 Y141.113 E.03958
G1 X128.918 Y141.135 E.0166
G1 X127.584 Y141.092 E.04102
G1 X127.063 Y141.038 E.0161
G1 X125.794 Y140.815 E.03958
G1 X125.254 Y140.679 E.0171
G1 X124.001 Y140.267 E.04054
G1 X123.516 Y140.068 E.01611
G1 X122.362 Y139.496 E.03958
G1 X121.882 Y139.214 E.0171
G1 X120.82 Y138.484 E.03958
G1 X120.41 Y138.158 E.01611
G1 X119.44 Y137.264 E.04054
G1 X119.059 Y136.858 E.01709
G1 X118.227 Y135.834 E.04054
G1 X117.927 Y135.404 E.01611
