; HEADER_BLOCK_START
; generated by OrcaSlicer-WaveOverhangs 2.4.0-dev on 2026-05-12 at 15:06:58
; WAVE_OVERHANG_BUILD wave_overhangs_version=dev orca_base=2.4.0-dev
; WAVE_OVERHANG_CONFIG region=0 algo=andersons outer_perim=1 spacing=0.460 flow_mm3_per_mm=0.200 speed=2.0 travel=40.0 fan=100 floor_layers=2 min_angle=0.0 min_length=0.00 max_iterations=0 ring_overlap=0.15 pattern=zigzag spacing_mode=uniform seam_mode=alternating perimeter_overlap=0.20 minimum_wave_width=0.70 min_new_area=0.0100 corner_enable=0 corner_spacing=0.420 corner_taper=10.00 corner_angle=91 end_retract=0.00 nozzle_temp_override=0 min_wave_time=4.00 min_layer_time=0.00 wall_loops=3 top_shell_layers=2 bottom_shell_layers=4 infill_density=15 infill_pattern=rectilinear support_remainder=1 instead_of_bridges=0
; total layer number: 50
; filament_density: 1.24
; filament_diameter: 1.75
; max_z_height: 11.96
; filament: 1
; HEADER_BLOCK_END

; THUMBNAIL_BLOCK_START

;
; THUMBNAIL_BLOCK_END

; external perimeters extrusion width = 0.42mm
; perimeters extrusion width = 0.45mm
; infill extrusion width = 0.44mm
; solid infill extrusion width = 0.44mm
; top infill extrusion width = 0.38mm
; first layer extrusion width = 0.42mm

; EXECUTABLE_BLOCK_START
EXCLUDE_OBJECT_DEFINE NAME=FTS_Baseline.STL_id_0_copy_0 CENTER=135.779,124.454 POLYGON=[[120.779,106.954],[135.779,106.954],[150.779,126.954],[150.779,141.954],[120.779,141.954],[120.779,106.954]]
M73 P0 R14
M106 S0
M106 P2 S0
;TYPE:Custom
G9111 bedTemp=55 extruderTemp=210
M117
G90
G21
M83 ; use relative distances for extrusion
; Filament gcode
M106 S0
M106 P2 S0
;LAYER_CHANGE
;Z:0.2
;HEIGHT:0.2
 ; PURGE LINE
M204 P500
SET_VELOCITY_LIMIT SQUARE_CORNER_VELOCITY=9
G1 Z0.50 F900 ; for object exclusion
G1 X89.365 Y255 F18000
G1 Z.25 F900
G1 E0.8 F2400
G1 E0.6
G1 F3000
G1 X158.835 Y255 E3.72454
G1 X158.835 Y255.45 E.0252
G1 X89.365 Y255.45 E3.72454
G1 X89.365 Y255.02 E.02305
G1 Z0.5 F600

G1 E-.8 F2400
; AFTER_LAYER_CHANGE 0 @ 0.2mm
;_SET_FAN_SPEED_CHANGING_LAYER
SET_VELOCITY_LIMIT ACCEL=2000 ACCEL_TO_DECEL=1000
; printing object FTS_Baseline.STL id:0 copy 0
EXCLUDE_OBJECT_START NAME=FTS_Baseline.STL_id_0_copy_0
G1 X117.183 Y104.189 F24000
G1 Z.6
G1 Z.2
G1 E.8 F2400
;TYPE:Brim
;WIDTH:0.42
G1 F4800
G1 X117.611 Y103.708 E.01979
G1 X118.105 Y103.297 E.01973
G1 X118.823 Y102.881 E.02552
G1 X119.577 Y102.588 E.02484
G1 X120.207 Y102.456 E.01977
G1 X120.785 Y102.417 E.01782
G1 X135.772 Y102.417 E.4605
G1 X136.419 Y102.465 E.01992
G1 X137.292 Y102.69 E.0277
G1 X138.005 Y103.006 E.02397
G1 X138.543 Y103.358 E.01975
G1 X139.024 Y103.786 E.01979
G1 X139.436 Y104.279 E.01973
G1 X139.852 Y104.998 E.02552
G1 X140.145 Y105.751 E.02484
G1 X140.277 Y106.381 E.01977
G1 X140.315 Y106.96 E.01782
G1 X140.315 Y121.947 E.4605
G1 X140.267 Y122.593 E.01992
G1 X140.042 Y123.466 E.0277
G1 X139.726 Y124.18 E.02397
G1 X139.375 Y124.718 E.01975
G1 X138.947 Y125.199 E.01979
G1 X138.454 Y125.61 E.01973
G1 X137.735 Y126.027 E.02552
G1 X136.981 Y126.319 E.02484
G1 X136.351 Y126.452 E.01977
G1 X135.773 Y126.49 E.01782
G1 X120.786 Y126.49 E.4605
G1 X120.139 Y126.442 E.01992
G1 X119.267 Y126.217 E.0277
G1 X118.553 Y125.901 E.02397
G1 X118.015 Y125.55 E.01975
G1 X117.534 Y125.121 E.01979
G1 X117.122 Y124.628 E.01973
G1 X116.706 Y123.91 E.02552
G1 X116.413 Y123.156 E.02484
G1 X116.281 Y122.526 E.01977
G1 X116.243 Y121.947 E.01782
G1 X116.243 Y106.961 E.4605
G1 X116.291 Y106.314 E.01992
G1 X116.516 Y105.441 E.0277
G1 X116.832 Y104.728 E.02397
G1 X117.161 Y104.223 E.01853
G1 X117.478 Y104.43 F24000
G1 F4800
G1 X117.489 Y104.413 E.00062
G1 X117.869 Y103.986 E.01755
G1 X118.314 Y103.613 E.01784
G1 X118.979 Y103.226 E.02366
G1 X119.676 Y102.954 E.02298
G1 X120.266 Y102.83 E.01853
G1 X120.802 Y102.794 E.01649
G1 X135.762 Y102.795 E.4597
G1 X136.367 Y102.841 E.01864
G1 X137.158 Y103.045 E.02511
G1 X137.816 Y103.335 E.02208
G1 X138.32 Y103.664 E.01849
G1 X138.746 Y104.043 E.01755
G1 X139.119 Y104.489 E.01784
G1 X139.507 Y105.154 E.02366
G1 X139.779 Y105.85 E.02298
G1 X139.901 Y106.425 E.01804
G1 X139.938 Y106.976 E.01698
G1 X139.938 Y121.937 E.4597
G1 X139.891 Y122.542 E.01864
G1 X139.687 Y123.333 E.02511
G1 X139.398 Y123.991 E.02208
G1 X139.069 Y124.494 E.01849
G1 X138.689 Y124.921 E.01755
G1 X138.244 Y125.294 E.01784
G1 X137.579 Y125.681 E.02366
G1 X136.864 Y125.959 E.02354
G1 X136.308 Y126.076 E.01748
G1 X135.764 Y126.113 E.01675
G1 X120.796 Y126.113 E.45993
G1 X120.191 Y126.066 E.01864
G1 X119.4 Y125.862 E.02511
G1 X118.742 Y125.572 E.02208
G1 X118.238 Y125.244 E.01849
G1 X117.812 Y124.864 E.01755
G1 X117.439 Y124.419 E.01784
G1 X117.051 Y123.753 E.02366
G1 X116.774 Y123.039 E.02354
G1 X116.657 Y122.482 E.01748
G1 X116.62 Y121.939 E.01675
G1 X116.62 Y106.971 E.45993
G1 X116.667 Y106.366 E.01864
G1 X116.871 Y105.574 E.02511
G1 X117.16 Y104.917 E.02208
G1 X117.456 Y104.463 E.01664
G1 X117.773 Y104.67 F24000
G1 F4800
G1 X117.795 Y104.636 E.00123
G1 X118.138 Y104.252 E.01583
G1 X118.524 Y103.929 E.01546
G1 X119.136 Y103.571 E.02179
G1 X119.775 Y103.32 E.0211
G1 X120.326 Y103.204 E.01728
G1 X120.818 Y103.171 E.01515
G1 X135.743 Y103.172 E.45862
G1 X136.314 Y103.217 E.01761
G1 X137.025 Y103.4 E.02256
G1 X137.627 Y103.664 E.02018
G1 X138.097 Y103.97 E.01721
G1 X138.48 Y104.313 E.01583
G1 X138.803 Y104.699 E.01546
G1 X139.162 Y105.311 E.02179
G1 X139.413 Y105.95 E.02111
G1 X139.525 Y106.469 E.01631
G1 X139.561 Y106.993 E.01613
G1 X139.561 Y121.927 E.45887
G1 X139.515 Y122.489 E.01734
G1 X139.332 Y123.2 E.02256
G1 X139.069 Y123.802 E.02018
G1 X138.763 Y124.271 E.01721
G1 X138.42 Y124.655 E.01583
G1 X138.034 Y124.978 E.01546
G1 X137.422 Y125.336 E.02178
G1 X136.748 Y125.598 E.02223
G1 X136.248 Y125.702 E.01568
G1 X135.747 Y125.736 E.01543
G1 X120.806 Y125.735 E.4591
G1 X120.244 Y125.69 E.01734
G1 X119.533 Y125.507 E.02256
G1 X118.931 Y125.243 E.02018
G1 X118.462 Y124.938 E.01721
G1 X118.078 Y124.594 E.01583
G1 X117.755 Y124.209 E.01546
G1 X117.397 Y123.597 E.02178
G1 X117.135 Y122.922 E.02223
G1 X117.031 Y122.423 E.01568
G1 X116.997 Y121.922 E.01542
G1 X116.997 Y106.981 E.4591
G1 X117.043 Y106.418 E.01734
G1 X117.226 Y105.707 E.02256
G1 X117.489 Y105.105 E.02018
G1 X117.751 Y104.703 E.01475
G1 X118.068 Y104.91 F24000
G1 F4800
G1 X118.101 Y104.86 E.00184
G1 X118.396 Y104.53 E.01359
G1 X118.735 Y104.245 E.0136
G1 X119.294 Y103.916 E.01993
G1 X119.875 Y103.686 E.01921
G1 X120.385 Y103.578 E.01602
G1 X120.834 Y103.548 E.01381
G1 X135.724 Y103.549 E.45753
G1 X136.261 Y103.593 E.01658
G1 X136.893 Y103.756 E.02005
G1 X137.439 Y103.993 E.01828
G1 X137.873 Y104.276 E.01592
G1 X138.203 Y104.571 E.01359
G1 X138.488 Y104.909 E.0136
G1 X138.817 Y105.468 E.01993
G1 X139.047 Y106.051 E.01926
G1 X139.151 Y106.53 E.01507
G1 X139.184 Y107.01 E.01477
G1 X139.184 Y121.907 E.45774
G1 X139.14 Y122.436 E.01631
G1 X138.977 Y123.068 E.02005
M73 P1 R14
G1 X138.74 Y123.614 E.01828
G1 X138.457 Y124.048 E.01592
G1 X138.162 Y124.377 E.01359
G1 X137.823 Y124.663 E.0136
G1 X137.249 Y124.999 E.02044
G1 X136.631 Y125.237 E.02035
G1 X136.189 Y125.328 E.01387
G1 X135.731 Y125.359 E.01412
G1 X120.817 Y125.358 E.45826
G1 X120.297 Y125.314 E.01603
G1 X119.665 Y125.152 E.02005
G1 X119.119 Y124.914 E.01828
G1 X118.685 Y124.632 E.01592
G1 X118.355 Y124.337 E.01359
G1 X118.07 Y123.998 E.0136
G1 X117.734 Y123.424 E.02044
G1 X117.496 Y122.806 E.02035
G1 X117.405 Y122.364 E.01387
G1 X117.374 Y121.905 E.01412
G1 X117.375 Y106.991 E.45826
G1 X117.418 Y106.471 E.01603
G1 X117.581 Y105.839 E.02005
G1 X117.818 Y105.294 E.01828
G1 X118.047 Y104.943 E.01285
G1 X118.364 Y105.15 F24000
G1 F4800
G1 X118.407 Y105.083 E.00244
G1 X118.654 Y104.807 E.01137
G1 X118.946 Y104.56 E.01176
G1 X119.452 Y104.26 E.01807
G1 X119.976 Y104.052 E.01731
G1 X120.445 Y103.952 E.01475
G1 X120.85 Y103.926 E.01246
G1 X135.704 Y103.926 E.45642
G1 X136.208 Y103.969 E.01555
G1 X136.762 Y104.111 E.01757
G1 X137.251 Y104.323 E.01638
G1 X137.65 Y104.582 E.01461
G1 X137.926 Y104.829 E.01137
G1 X138.173 Y105.121 E.01176
G1 X138.473 Y105.627 E.01807
G1 X138.682 Y106.152 E.01739
G1 X138.777 Y106.592 E.01381
G1 X138.807 Y107.027 E.0134
G1 X138.806 Y121.887 E.4566
G1 X138.764 Y122.382 E.01528
G1 X138.621 Y122.936 E.01758
G1 X138.41 Y123.426 E.01638
G1 X138.151 Y123.824 E.01461
G1 X137.904 Y124.1 E.01137
G1 X137.612 Y124.347 E.01174
G1 X137.077 Y124.661 E.01908
G1 X136.516 Y124.876 E.01845
G1 X136.131 Y124.954 E.01208
G1 X135.714 Y124.982 E.01282
G1 X120.837 Y124.981 E.45713
G1 X120.351 Y124.939 E.015
G1 X119.796 Y124.796 E.01759
G1 X119.307 Y124.585 E.01638
G1 X118.908 Y124.326 E.01461
G1 X118.633 Y124.079 E.01137
G1 X118.385 Y123.787 E.01174
G1 X118.071 Y123.251 E.01908
G1 X117.857 Y122.69 E.01845
G1 X117.779 Y122.305 E.01208
G1 X117.751 Y121.889 E.01282
G1 X117.752 Y107.012 E.45713
G1 X117.794 Y106.525 E.015
G1 X117.937 Y105.971 E.01759
G1 X118.148 Y105.482 E.01638
G1 X118.342 Y105.183 E.01095
G1 X118.659 Y105.389 F24000
G1 F4800
G1 X118.713 Y105.306 E.00303
G1 X118.924 Y105.073 E.00966
G1 X119.158 Y104.874 E.00945
G1 X119.627 Y104.596 E.01675
G1 X120.095 Y104.412 E.01545
G1 X120.488 Y104.328 E.01237
G1 X120.858 Y104.303 E.01138
G1 X135.683 Y104.303 E.45552
G1 X136.154 Y104.344 E.01452
G1 X136.631 Y104.467 E.01514
G1 X137.063 Y104.652 E.01446
G1 X137.426 Y104.888 E.0133
G1 X137.66 Y105.098 E.00966
G1 X137.859 Y105.333 E.00945
G1 X138.129 Y105.786 E.01621
G1 X138.317 Y106.254 E.01551
G1 X138.404 Y106.653 E.01254
G1 X138.43 Y107.043 E.01202
G1 X138.429 Y121.866 E.45544
G1 X138.389 Y122.328 E.01425
G1 X138.266 Y122.805 E.01515
G1 X138.08 Y123.238 E.01446
G1 X137.845 Y123.601 E.0133
G1 X137.635 Y123.834 E.00966
G1 X137.401 Y124.032 E.0094
G1 X136.904 Y124.324 E.0177
G1 X136.401 Y124.514 E.01653
G1 X136.073 Y124.58 E.01028
G1 X135.698 Y124.604 E.01155
G1 X120.858 Y124.604 E.45598
G1 X120.405 Y124.563 E.01397
G1 X119.927 Y124.44 E.01516
G1 X119.495 Y124.255 E.01446
G1 X119.132 Y124.019 E.0133
G1 X118.898 Y123.809 E.00966
G1 X118.701 Y123.576 E.0094
G1 X118.409 Y123.079 E.0177
G1 X118.218 Y122.576 E.01653
G1 X118.153 Y122.247 E.01028
G1 X118.128 Y121.872 E.01155
G1 X118.129 Y107.033 E.45598
G1 X118.169 Y106.58 E.01397
G1 X118.292 Y106.102 E.01516
G1 X118.478 Y105.669 E.01446
G1 X118.638 Y105.423 E.00903
G1 X118.945 Y105.643 F24000
G1 F4800
G1 X119.204 Y105.341 E.01222
G1 X119.394 Y105.189 E.00749
G1 X119.986 Y104.853 E.0209
G1 X120.37 Y104.737 E.01235
G1 X120.819 Y104.68 E.01389
G1 X135.73 Y104.68 E.45818
G1 X136.344 Y104.778 E.0191
G1 X136.714 Y104.904 E.01201
G1 X137.085 Y105.116 E.01313
G1 X137.271 Y105.263 E.00729
G1 X137.432 Y105.423 E.00699
G1 X137.831 Y106.049 E.02279
G1 X137.876 Y106.15 E.00341
G1 X137.996 Y106.545 E.01269
G1 X138.053 Y106.993 E.01389
G1 X138.053 Y121.905 E.45818
G1 X137.955 Y122.518 E.0191
G1 X137.829 Y122.889 E.01201
G1 X137.617 Y123.259 E.01313
G1 X137.47 Y123.446 E.00729
G1 X137.309 Y123.607 E.00699
G1 X136.684 Y124.005 E.02279
G1 X136.583 Y124.051 E.00341
G1 X136.188 Y124.171 E.01269
G1 X135.739 Y124.228 E.01389
G1 X120.828 Y124.228 E.45818
G1 X120.214 Y124.129 E.0191
G1 X119.844 Y124.004 E.01201
G1 X119.473 Y123.792 E.01313
G1 X119.287 Y123.645 E.00729
G1 X119.126 Y123.484 E.00699
G1 X118.727 Y122.859 E.02279
G1 X118.682 Y122.758 E.00341
G1 X118.562 Y122.362 E.01269
G1 X118.505 Y121.914 E.01389
G1 X118.512 Y106.921 E.46071
G1 X118.603 Y106.39 E.01656
G1 X118.729 Y106.019 E.01202
G1 X118.925 Y105.678 E.01208
G1 X119.231 Y105.889 F24000
G1 F4800
G1 X119.44 Y105.635 E.01012
G1 X119.581 Y105.516 E.00566
G1 X120.083 Y105.218 E.01794
G1 X120.489 Y105.095 E.01303
G1 X120.812 Y105.057 E.00999
G1 X135.739 Y105.057 E.45867
G1 X136.288 Y105.151 E.01712
G1 X136.524 Y105.229 E.00763
G1 X136.844 Y105.406 E.01125
G1 X137.042 Y105.563 E.00775
G1 X137.169 Y105.693 E.00558
G1 X137.513 Y106.252 E.02018
G1 X137.638 Y106.663 E.0132
G1 X137.676 Y106.986 E.00999
G1 X137.676 Y121.914 E.45867
G1 X137.582 Y122.463 E.01712
G1 X137.503 Y122.698 E.00763
G1 X137.327 Y123.019 E.01125
G1 X137.17 Y123.217 E.00775
G1 X137.04 Y123.343 E.00558
G1 X136.481 Y123.688 E.02018
G1 X136.069 Y123.812 E.0132
G1 X135.746 Y123.851 E.00999
G1 X120.819 Y123.851 E.45867
G1 X120.27 Y123.756 E.01712
G1 X120.034 Y123.678 E.00763
G1 X119.714 Y123.501 E.01125
G1 X119.516 Y123.345 E.00775
G1 X119.389 Y123.214 E.00558
G1 X119.045 Y122.655 E.02018
G1 X118.92 Y122.244 E.0132
G1 X118.882 Y121.921 E.00999
G1 X118.882 Y106.994 E.45867
G1 X118.976 Y106.445 E.01712
G1 X119.055 Y106.209 E.00763
G1 X119.212 Y105.924 E.00999
G1 X119.521 Y106.13 F24000
G1 F4800
G1 X119.688 Y105.918 E.00827
G1 X119.777 Y105.839 E.00365
G1 X120.187 Y105.58 E.01492
G1 X120.529 Y105.47 E.01102
G1 X120.805 Y105.434 E.00856
G1 X135.749 Y105.434 E.45917
G1 X136.226 Y105.523 E.01492
G1 X136.404 Y105.587 E.00582
G1 X136.603 Y105.696 E.00698
G1 X136.814 Y105.863 E.00827
G1 X136.894 Y105.951 E.00365
G1 X137.153 Y106.362 E.01492
G1 X137.263 Y106.703 E.01102
G1 X137.299 Y106.98 E.00856
G1 X137.299 Y121.923 E.45917
G1 X137.21 Y122.4 E.01492
G1 X137.146 Y122.579 E.00582
G1 X137.037 Y122.778 E.00697
G1 X136.87 Y122.989 E.00827
G1 X136.781 Y123.069 E.00365
G1 X136.371 Y123.327 E.01492
G1 X136.029 Y123.437 E.01102
G1 X135.753 Y123.473 E.00856
G1 X120.81 Y123.473 E.45917
G1 X120.332 Y123.384 E.01492
G1 X120.154 Y123.321 E.00582
G1 X119.955 Y123.211 E.00697
G1 X119.744 Y123.044 E.00827
G1 X119.664 Y122.956 E.00365
G1 X119.405 Y122.545 E.01492
G1 X119.295 Y122.204 E.01102
G1 X119.259 Y121.928 E.00856
G1 X119.259 Y106.984 E.45917
G1 X119.348 Y106.507 E.01492
G1 X119.412 Y106.329 E.00582
G1 X119.502 Y106.165 E.00575
G1 X119.828 Y106.353 F24000
G1 F4800
G1 X119.852 Y106.312 E.00145
G1 X119.982 Y106.154 E.00629
G1 X120.3 Y105.94 E.01179
G1 X120.576 Y105.844 E.00897
G1 X120.798 Y105.811 E.00689
G1 X135.759 Y105.811 E.45972
G1 X136.156 Y105.893 E.01245
G1 X136.269 Y105.939 E.00374
G1 X136.421 Y106.026 E.00539
G1 X136.578 Y106.157 E.00629
G1 X136.793 Y106.475 E.01179
G1 X136.889 Y106.751 E.00897
G1 X136.922 Y106.972 E.00689
G1 X136.922 Y121.934 E.45972
G1 X136.839 Y122.33 E.01245
G1 X136.794 Y122.444 E.00374
G1 X136.707 Y122.596 E.00539
G1 X136.576 Y122.753 E.00629
G1 X136.258 Y122.968 E.01179
G1 X135.982 Y123.063 E.00897
G1 X135.76 Y123.096 E.00689
G1 X120.799 Y123.096 E.45972
G1 X120.402 Y123.014 E.01245
G1 X120.289 Y122.969 E.00374
G1 X120.137 Y122.881 E.00539
G1 X119.98 Y122.75 E.00629
G1 X119.765 Y122.432 E.01179
G1 X119.669 Y122.157 E.00897
G1 X119.636 Y121.935 E.00689
G1 X119.636 Y106.974 E.45972
G1 X119.719 Y106.577 E.01245
G1 X119.764 Y106.464 E.00374
G1 X119.808 Y106.387 E.00271
G1 X120.135 Y106.576 F24000
G1 F4800
G1 X120.183 Y106.492 E.00297
G1 X120.264 Y106.405 E.00364
G1 X120.428 Y106.294 E.0061
G1 X120.637 Y106.216 E.00684
G1 X120.789 Y106.188 E.00477
G1 X135.771 Y106.188 E.46033
G1 X136.074 Y106.261 E.00958
G1 X136.241 Y106.358 E.00594
G1 X136.328 Y106.438 E.00364
G1 X136.438 Y106.603 E.0061
G1 X136.517 Y106.811 E.00684
G1 X136.545 Y106.964 E.00477
G1 X136.545 Y121.945 E.46033
G1 X136.472 Y122.248 E.00958
G1 X136.375 Y122.416 E.00594
G1 X136.294 Y122.502 E.00364
G1 X136.13 Y122.613 E.0061
G1 X135.921 Y122.691 E.00684
G1 X135.769 Y122.719 E.00477
G1 X120.787 Y122.719 E.46033
G1 X120.484 Y122.646 E.00958
G1 X120.317 Y122.55 E.00594
G1 X120.23 Y122.469 E.00364
G1 X120.12 Y122.304 E.0061
G1 X120.041 Y122.096 E.00684
G1 X120.013 Y121.943 E.00477
G1 X120.013 Y106.962 E.46033
G1 X120.086 Y106.659 E.00958
G1 X120.115 Y106.61 E.00173
G1 X120.451 Y106.758 F24000
G1 F4800
G1 X120.549 Y106.652 E.00443
G1 X120.779 Y106.565 E.00756
G1 X135.779 Y106.565 E.46091
G1 X135.975 Y106.625 E.0063
G1 X136.081 Y106.724 E.00443
G1 X136.168 Y106.954 E.00756
G1 X136.168 Y121.954 E.46091
G1 X136.107 Y122.15 E.0063
G1 X136.009 Y122.256 E.00443
G1 X135.779 Y122.342 E.00756
G1 X120.779 Y122.342 E.46091
G1 X120.583 Y122.282 E.0063
M73 P2 R14
G1 X120.477 Y122.184 E.00443
G1 X120.39 Y121.954 E.00756
G1 X120.39 Y106.954 E.46091
G1 X120.439 Y106.796 E.00507
G1 E-.3 F2400
;WIPE_START
G1 F4800
G1 X120.549 Y106.652 E-.09058
G1 X120.779 Y106.565 E-.12297
G1 X121.352 Y106.565 E-.28646
;WIPE_END
G1 X126.567 Y112.138 Z.6 F24000
