; HEADER_BLOCK_START
; generated by OrcaSlicer-WaveOverhangs 2.4.0-dev on 2026-05-12 at 15:51:02
; WAVE_OVERHANG_BUILD wave_overhangs_version=dev orca_base=2.4.0-dev
; WAVE_OVERHANG_CONFIG region=0 algo=andersons outer_perim=1 spacing=0.460 flow_mm3_per_mm=0.200 speed=2.0 travel=40.0 fan=100 floor_layers=2 min_angle=0.0 min_length=0.00 max_iterations=0 ring_overlap=0.15 pattern=zigzag spacing_mode=uniform seam_mode=alternating perimeter_overlap=0.20 minimum_wave_width=0.70 min_new_area=0.0100 corner_enable=0 corner_spacing=0.420 corner_taper=10.00 corner_angle=91 end_retract=0.00 nozzle_temp_override=0 min_wave_time=4.00 min_layer_time=0.00 wall_loops=3 top_shell_layers=2 bottom_shell_layers=4 infill_density=15 infill_pattern=rectilinear support_remainder=1 instead_of_bridges=0
; total layer number: 84
; filament_density: 1.24
; filament_diameter: 1.75
; max_z_height: 20.12
; filament: 1
; HEADER_BLOCK_END

; THUMBNAIL_BLOCK_START

;
; THUMBNAIL_BLOCK_END

; external perimeters extrusion width = 0.42mm
; perimeters extrusion width = 0.45mm
; infill extrusion width = 0.44mm
; solid infill extrusion width = 0.44mm
; top infill extrusion width = 0.38mm
; first layer extrusion width = 0.42mm

; EXECUTABLE_BLOCK_START
EXCLUDE_OBJECT_DEFINE NAME=FTS_Bridge.STL_id_0_copy_0 CENTER=135.842,101.598 POLYGON=[[120.842,74.0982],[135.842,74.0982],[150.842,94.0982],[150.842,129.098],[135.842,129.098],[120.842,109.098],[120.842,74.0982]]
M73 P0 R22
M106 S0
M106 P2 S0
;TYPE:Custom
G9111 bedTemp=55 extruderTemp=210
M117
G90
G21
M83 ; use relative distances for extrusion
; Filament gcode
M106 S0
M106 P2 S0
;LAYER_CHANGE
;Z:0.2
;HEIGHT:0.2
 ; PURGE LINE
M204 P500
SET_VELOCITY_LIMIT SQUARE_CORNER_VELOCITY=9
G1 Z0.50 F900 ; for object exclusion
G1 X89.365 Y255 F18000
G1 Z.25 F900
G1 E0.8 F2400
G1 E0.6
G1 F3000
G1 X158.835 Y255 E3.72454
G1 X158.835 Y255.45 E.0252
G1 X89.365 Y255.45 E3.72454
G1 X89.365 Y255.02 E.02305
G1 Z0.5 F600

G1 E-.8 F2400
; AFTER_LAYER_CHANGE 0 @ 0.2mm
;_SET_FAN_SPEED_CHANGING_LAYER
SET_VELOCITY_LIMIT ACCEL=2000 ACCEL_TO_DECEL=1000
; printing object FTS_Bridge.STL id:0 copy 0
EXCLUDE_OBJECT_START NAME=FTS_Bridge.STL_id_0_copy_0
G1 X132.246 Y111.334 F24000
G1 Z.6
G1 Z.2
G1 E.8 F2400
;TYPE:Brim
;WIDTH:0.42
G1 F4800
G1 X132.675 Y110.853 E.01979
G1 X133.168 Y110.442 E.01973
G1 X133.886 Y110.025 E.02552
G1 X134.64 Y109.732 E.02484
G1 X135.27 Y109.6 E.01977
G1 X135.849 Y109.562 E.01782
G1 X150.835 Y109.562 E.4605
G1 X151.482 Y109.61 E.01992
G1 X152.355 Y109.835 E.0277
G1 X153.068 Y110.151 E.02397
G1 X153.606 Y110.502 E.01975
G1 X154.088 Y110.931 E.01979
G1 X154.499 Y111.424 E.01973
G1 X154.915 Y112.142 E.02552
G1 X155.208 Y112.896 E.02484
G1 X155.34 Y113.526 E.01977
G1 X155.379 Y114.104 E.01782
G1 X155.379 Y129.091 E.4605
G1 X155.331 Y129.738 E.01992
G1 X155.106 Y130.611 E.0277
G1 X154.79 Y131.324 E.02397
G1 X154.438 Y131.862 E.01975
G1 X154.01 Y132.344 E.01979
G1 X153.517 Y132.755 E.01973
G1 X152.798 Y133.171 E.02552
G1 X152.045 Y133.464 E.02484
G1 X151.415 Y133.596 E.01977
G1 X150.836 Y133.635 E.01782
G1 X135.849 Y133.635 E.4605
G1 X135.203 Y133.586 E.01992
G1 X134.33 Y133.362 E.0277
G1 X133.616 Y133.046 E.02397
G1 X133.078 Y132.694 E.01975
G1 X132.597 Y132.266 E.01979
G1 X132.186 Y131.773 E.01973
G1 X131.769 Y131.054 E.02552
G1 X131.477 Y130.3 E.02484
G1 X131.344 Y129.671 E.01977
G1 X131.306 Y129.092 E.01782
G1 X131.306 Y114.105 E.4605
G1 X131.354 Y113.459 E.01992
G1 X131.579 Y112.586 E.0277
G1 X131.895 Y111.872 E.02397
G1 X132.225 Y111.368 E.01853
G1 X132.541 Y111.574 F24000
G1 F4800
G1 X132.552 Y111.557 E.00062
G1 X132.932 Y111.131 E.01755
G1 X133.377 Y110.758 E.01784
G1 X134.043 Y110.37 E.02366
G1 X134.739 Y110.099 E.02298
G1 X135.329 Y109.974 E.01853
G1 X135.865 Y109.939 E.01649
G1 X150.825 Y109.939 E.4597
G1 X151.43 Y109.986 E.01864
G1 X152.222 Y110.19 E.02511
G1 X152.879 Y110.48 E.02208
G1 X153.383 Y110.808 E.01849
G1 X153.81 Y111.188 E.01755
G1 X154.183 Y111.633 E.01784
G1 X154.57 Y112.299 E.02366
G1 X154.842 Y112.995 E.02298
G1 X154.964 Y113.569 E.01804
G1 X155.002 Y114.121 E.01698
G1 X155.001 Y129.081 E.4597
G1 X154.954 Y129.686 E.01864
G1 X154.751 Y130.477 E.02511
G1 X154.461 Y131.135 E.02208
G1 X154.132 Y131.639 E.01849
G1 X153.753 Y132.066 E.01755
G1 X153.307 Y132.439 E.01784
G1 X152.642 Y132.826 E.02366
G1 X151.928 Y133.103 E.02354
G1 X151.371 Y133.22 E.01748
G1 X150.827 Y133.257 E.01675
G1 X135.859 Y133.257 E.45993
G1 X135.254 Y133.21 E.01864
G1 X134.463 Y133.007 E.02511
G1 X133.805 Y132.717 E.02208
G1 X133.301 Y132.388 E.01849
G1 X132.875 Y132.009 E.01755
G1 X132.502 Y131.563 E.01784
G1 X132.114 Y130.898 E.02366
G1 X131.837 Y130.184 E.02354
G1 X131.72 Y129.627 E.01748
G1 X131.683 Y129.083 E.01675
G1 X131.683 Y114.115 E.45993
G1 X131.73 Y113.51 E.01864
G1 X131.934 Y112.719 E.02511
G1 X132.224 Y112.061 E.02208
G1 X132.52 Y111.608 E.01664
G1 X132.836 Y111.814 F24000
G1 F4800
G1 X132.858 Y111.781 E.00123
G1 X133.202 Y111.397 E.01583
G1 X133.587 Y111.074 E.01546
G1 X134.199 Y110.715 E.02179
G1 X134.839 Y110.464 E.0211
G1 X135.389 Y110.348 E.01728
G1 X135.881 Y110.316 E.01515
G1 X150.806 Y110.316 E.45862
G1 X151.378 Y110.362 E.01761
G1 X152.089 Y110.545 E.02256
G1 X152.691 Y110.808 E.02018
G1 X153.16 Y111.114 E.01721
G1 X153.544 Y111.458 E.01583
G1 X153.867 Y111.843 E.01546
G1 X154.225 Y112.455 E.02179
G1 X154.476 Y113.095 E.02111
G1 X154.588 Y113.614 E.01631
G1 X154.625 Y114.137 E.01613
G1 X154.624 Y129.071 E.45887
G1 X154.579 Y129.634 E.01734
G1 X154.395 Y130.345 E.02256
G1 X154.132 Y130.946 E.02018
G1 X153.826 Y131.416 E.01721
G1 X153.483 Y131.8 E.01583
G1 X153.097 Y132.123 E.01546
G1 X152.486 Y132.481 E.02178
G1 X151.811 Y132.742 E.02223
G1 X151.311 Y132.846 E.01568
G1 X150.811 Y132.88 E.01543
G1 X135.869 Y132.88 E.4591
G1 X135.307 Y132.835 E.01734
G1 X134.596 Y132.651 E.02256
G1 X133.994 Y132.388 E.02018
G1 X133.525 Y132.082 E.01721
G1 X133.141 Y131.739 E.01583
G1 X132.818 Y131.353 E.01546
G1 X132.46 Y130.742 E.02178
G1 X132.198 Y130.067 E.02223
G1 X132.094 Y129.567 E.01568
G1 X132.06 Y129.066 E.01542
G1 X132.061 Y114.125 E.4591
G1 X132.106 Y113.563 E.01734
G1 X132.289 Y112.852 E.02256
G1 X132.553 Y112.25 E.02018
G1 X132.815 Y111.848 E.01475
G1 X133.132 Y112.054 F24000
G1 F4800
G1 X133.164 Y112.004 E.00184
G1 X133.459 Y111.674 E.01359
G1 X133.798 Y111.389 E.0136
G1 X134.357 Y111.06 E.01993
G1 X134.938 Y110.83 E.01921
G1 X135.448 Y110.722 E.01602
G1 X135.897 Y110.693 E.01381
G1 X150.787 Y110.693 E.45753
G1 X151.325 Y110.738 E.01658
G1 X151.957 Y110.9 E.02005
G1 X152.502 Y111.138 E.01828
G1 X152.936 Y111.42 E.01592
G1 X153.266 Y111.715 E.01359
G1 X153.551 Y112.054 E.0136
G1 X153.88 Y112.613 E.01993
G1 X154.111 Y113.196 E.01926
G1 X154.214 Y113.675 E.01507
G1 X154.247 Y114.154 E.01477
G1 X154.247 Y129.051 E.45774
G1 X154.203 Y129.58 E.01631
G1 X154.04 Y130.212 E.02005
G1 X153.803 Y130.758 E.01828
G1 X153.52 Y131.192 E.01592
G1 X153.225 Y131.522 E.01359
G1 X152.887 Y131.807 E.0136
G1 X152.313 Y132.143 E.02044
G1 X151.695 Y132.381 E.02035
G1 X151.252 Y132.472 E.01387
G1 X150.794 Y132.503 E.01412
G1 X135.88 Y132.502 E.45826
G1 X135.36 Y132.459 E.01603
G1 X134.728 Y132.296 E.02005
G1 X134.182 Y132.059 E.01828
G1 X133.748 Y131.776 E.01592
G1 X133.419 Y131.481 E.01359
G1 X133.133 Y131.143 E.0136
G1 X132.797 Y130.569 E.02044
G1 X132.559 Y129.951 E.02035
G1 X132.468 Y129.508 E.01387
G1 X132.437 Y129.05 E.01412
G1 X132.438 Y114.136 E.45826
G1 X132.482 Y113.616 E.01603
G1 X132.644 Y112.984 E.02005
G1 X132.882 Y112.438 E.01828
G1 X133.11 Y112.088 E.01285
G1 X133.427 Y112.294 F24000
G1 F4800
G1 X133.47 Y112.228 E.00244
G1 X133.717 Y111.952 E.01137
G1 X134.009 Y111.704 E.01176
G1 X134.515 Y111.405 E.01807
G1 X135.039 Y111.196 E.01731
G1 X135.508 Y111.096 E.01475
G1 X135.913 Y111.07 E.01246
G1 X150.767 Y111.07 E.45642
G1 X151.271 Y111.113 E.01555
G1 X151.825 Y111.256 E.01757
G1 X152.314 Y111.467 E.01638
G1 X152.713 Y111.726 E.01461
G1 X152.989 Y111.973 E.01137
G1 X153.236 Y112.265 E.01176
G1 X153.536 Y112.771 E.01807
G1 X153.745 Y113.297 E.01739
G1 X153.841 Y113.736 E.01381
G1 X153.87 Y114.171 E.0134
G1 X153.87 Y129.031 E.4566
G1 X153.827 Y129.527 E.01528
G1 X153.685 Y130.081 E.01758
G1 X153.473 Y130.57 E.01638
G1 X153.214 Y130.969 E.01461
G1 X152.967 Y131.245 E.01137
G1 X152.676 Y131.492 E.01174
G1 X152.14 Y131.806 E.01908
G1 X151.579 Y132.02 E.01845
G1 X151.194 Y132.098 E.01208
G1 X150.777 Y132.126 E.01282
G1 X135.9 Y132.125 E.45713
G1 X135.414 Y132.083 E.015
G1 X134.86 Y131.941 E.01759
G1 X134.37 Y131.729 E.01638
G1 X133.972 Y131.47 E.01461
G1 X133.696 Y131.223 E.01137
G1 X133.449 Y130.932 E.01174
G1 X133.135 Y130.396 E.01908
G1 X132.92 Y129.835 E.01845
G1 X132.842 Y129.45 E.01208
G1 X132.814 Y129.033 E.01282
G1 X132.815 Y114.156 E.45713
G1 X132.857 Y113.67 E.015
G1 X133 Y113.116 E.01759
G1 X133.211 Y112.626 E.01638
G1 X133.405 Y112.328 E.01095
G1 X133.723 Y112.534 F24000
G1 F4800
G1 X133.777 Y112.451 E.00303
G1 X133.987 Y112.217 E.00966
G1 X134.221 Y112.019 E.00945
G1 X134.69 Y111.741 E.01675
G1 X135.158 Y111.556 E.01545
G1 X135.552 Y111.472 E.01237
G1 X135.921 Y111.447 E.01138
G1 X150.746 Y111.448 E.45552
G1 X151.217 Y111.489 E.01452
G1 X151.694 Y111.612 E.01514
G1 X152.127 Y111.797 E.01446
G1 X152.489 Y112.033 E.0133
G1 X152.723 Y112.243 E.00966
G1 X152.922 Y112.477 E.00945
G1 X153.192 Y112.93 E.01621
G1 X153.38 Y113.399 E.01551
G1 X153.467 Y113.798 E.01254
G1 X153.493 Y114.188 E.01202
G1 X153.493 Y129.01 E.45544
G1 X153.452 Y129.472 E.01425
G1 X153.329 Y129.95 E.01515
G1 X153.144 Y130.383 E.01446
G1 X152.908 Y130.745 E.0133
G1 X152.698 Y130.979 E.00966
G1 X152.464 Y131.177 E.0094
G1 X151.967 Y131.468 E.0177
G1 X151.464 Y131.659 E.01653
G1 X151.136 Y131.724 E.01028
G1 X150.761 Y131.749 E.01155
G1 X135.922 Y131.748 E.45598
G1 X135.469 Y131.708 E.01397
G1 X134.991 Y131.585 E.01516
G1 X134.558 Y131.4 E.01446
G1 X134.195 Y131.164 E.0133
G1 X133.962 Y130.954 E.00966
G1 X133.764 Y130.72 E.0094
G1 X133.472 Y130.223 E.0177
G1 X133.282 Y129.72 E.01653
G1 X133.216 Y129.392 E.01028
G1 X133.192 Y129.017 E.01155
G1 X133.192 Y114.178 E.45598
G1 X133.232 Y113.725 E.01397
G1 X133.356 Y113.247 E.01516
G1 X133.541 Y112.814 E.01446
G1 X133.701 Y112.567 E.00903
G1 X134.008 Y112.788 F24000
G1 F4800
G1 X134.267 Y112.486 E.01222
G1 X134.457 Y112.334 E.00749
G1 X135.049 Y111.998 E.0209
G1 X135.434 Y111.881 E.01235
G1 X135.882 Y111.824 E.01389
G1 X150.793 Y111.824 E.45818
G1 X151.407 Y111.923 E.0191
G1 X151.777 Y112.048 E.01201
G1 X152.148 Y112.26 E.01313
G1 X152.334 Y112.407 E.00729
G1 X152.495 Y112.568 E.00699
G1 X152.894 Y113.193 E.02279
G1 X152.94 Y113.294 E.00341
G1 X153.059 Y113.69 E.01269
G1 X153.116 Y114.138 E.01389
G1 X153.116 Y129.049 E.45818
G1 X153.018 Y129.663 E.0191
G1 X152.892 Y130.033 E.01201
G1 X152.68 Y130.404 E.01313
G1 X152.533 Y130.59 E.00729
G1 X152.373 Y130.751 E.00699
G1 X151.747 Y131.15 E.02279
G1 X151.646 Y131.195 E.00341
G1 X151.251 Y131.315 E.01269
G1 X150.803 Y131.372 E.01389
G1 X135.891 Y131.372 E.45818
G1 X135.278 Y131.274 E.0191
G1 X134.907 Y131.148 E.01201
G1 X134.536 Y130.936 E.01313
G1 X134.35 Y130.789 E.00729
G1 X134.189 Y130.628 E.00699
G1 X133.791 Y130.003 E.02279
G1 X133.745 Y129.902 E.00341
G1 X133.625 Y129.507 E.01269
G1 X133.568 Y129.059 E.01389
G1 X133.575 Y114.065 E.46071
G1 X133.667 Y113.534 E.01656
G1 X133.792 Y113.164 E.01202
G1 X133.988 Y112.823 E.01208
G1 X134.294 Y113.034 F24000
G1 F4800
G1 X134.504 Y112.779 E.01012
G1 X134.644 Y112.661 E.00566
G1 X135.146 Y112.362 E.01794
G1 X135.552 Y112.24 E.01303
G1 X135.875 Y112.201 E.00999
G1 X150.802 Y112.201 E.45867
G1 X151.351 Y112.296 E.01712
G1 X151.587 Y112.374 E.00763
G1 X151.908 Y112.551 E.01125
G1 X152.105 Y112.707 E.00775
G1 X152.232 Y112.838 E.00558
G1 X152.576 Y113.397 E.02018
G1 X152.701 Y113.808 E.0132
G1 X152.739 Y114.131 E.00999
G1 X152.739 Y129.058 E.45867
G1 X152.645 Y129.607 E.01712
M73 P1 R22
G1 X152.567 Y129.843 E.00763
G1 X152.39 Y130.164 E.01125
G1 X152.233 Y130.361 E.00775
G1 X152.103 Y130.488 E.00558
G1 X151.544 Y130.832 E.02018
G1 X151.133 Y130.957 E.0132
G1 X150.81 Y130.995 E.00999
G1 X135.882 Y130.995 E.45867
G1 X135.333 Y130.901 E.01712
G1 X135.098 Y130.823 E.00763
G1 X134.777 Y130.646 E.01125
G1 X134.579 Y130.489 E.00775
G1 X134.453 Y130.359 E.00558
G1 X134.108 Y129.8 E.02018
G1 X133.984 Y129.389 E.0132
G1 X133.945 Y129.066 E.00999
G1 X133.945 Y114.138 E.45867
G1 X134.04 Y113.589 E.01712
G1 X134.118 Y113.353 E.00763
G1 X134.275 Y113.069 E.00999
G1 X134.585 Y113.274 F24000
G1 F4800
G1 X134.752 Y113.063 E.00827
G1 X134.84 Y112.983 E.00365
G1 X135.251 Y112.725 E.01492
G1 X135.592 Y112.614 E.01102
G1 X135.868 Y112.578 E.00856
G1 X150.812 Y112.578 E.45917
G1 X151.289 Y112.667 E.01492
G1 X151.467 Y112.731 E.00582
G1 X151.666 Y112.841 E.00698
G1 X151.877 Y113.008 E.00827
G1 X151.957 Y113.096 E.00365
G1 X152.216 Y113.507 E.01492
G1 X152.326 Y113.848 E.01102
G1 X152.362 Y114.124 E.00856
G1 X152.362 Y129.068 E.45917
G1 X152.273 Y129.545 E.01492
G1 X152.209 Y129.723 E.00582
G1 X152.1 Y129.922 E.00697
G1 X151.933 Y130.133 E.00827
G1 X151.845 Y130.213 E.00365
G1 X151.434 Y130.472 E.01492
G1 X151.093 Y130.582 E.01102
G1 X150.816 Y130.618 E.00856
G1 X135.873 Y130.618 E.45917
G1 X135.395 Y130.529 E.01492
M73 P1 R21
G1 X135.217 Y130.465 E.00582
G1 X135.018 Y130.356 E.00697
G1 X134.807 Y130.189 E.00827
G1 X134.727 Y130.101 E.00365
G1 X134.469 Y129.69 E.01492
G1 X134.358 Y129.348 E.01102
G1 X134.323 Y129.072 E.00856
G1 X134.323 Y114.129 E.45917
G1 X134.412 Y113.651 E.01492
G1 X134.475 Y113.473 E.00582
G1 X134.565 Y113.309 E.00575
G1 X134.891 Y113.497 F24000
G1 F4800
G1 X134.915 Y113.456 E.00145
G1 X135.046 Y113.299 E.00629
G1 X135.363 Y113.084 E.01179
G1 X135.639 Y112.988 E.00897
G1 X135.861 Y112.956 E.00689
G1 X150.822 Y112.956 E.45972
G1 X151.219 Y113.038 E.01245
G1 X151.332 Y113.083 E.00374
G1 X151.484 Y113.171 E.00539
G1 X151.642 Y113.302 E.00629
G1 X151.856 Y113.619 E.01179
G1 X151.952 Y113.895 E.00897
G1 X151.985 Y114.117 E.00689
G1 X151.985 Y129.078 E.45972
G1 X151.903 Y129.475 E.01245
G1 X151.857 Y129.588 E.00374
G1 X151.77 Y129.74 E.00539
G1 X151.639 Y129.897 E.00629
G1 X151.321 Y130.112 E.01179
G1 X151.045 Y130.208 E.00897
G1 X150.824 Y130.241 E.00689
G1 X135.862 Y130.241 E.45972
G1 X135.465 Y130.159 E.01245
G1 X135.352 Y130.113 E.00374
G1 X135.2 Y130.026 E.00539
G1 X135.043 Y129.895 E.00629
G1 X134.828 Y129.577 E.01179
G1 X134.733 Y129.301 E.00897
G1 X134.7 Y129.08 E.00689
G1 X134.7 Y114.118 E.45972
G1 X134.782 Y113.721 E.01245
G1 X134.827 Y113.608 E.00374
G1 X134.871 Y113.532 E.00271
G1 X135.198 Y113.72 F24000
G1 F4800
G1 X135.246 Y113.636 E.00297
G1 X135.327 Y113.549 E.00364
G1 X135.492 Y113.439 E.0061
G1 X135.7 Y113.36 E.00684
G1 X135.852 Y113.333 E.00477
G1 X150.834 Y113.333 E.46033
G1 X151.137 Y113.406 E.00958
G1 X151.304 Y113.502 E.00594
G1 X151.391 Y113.583 E.00364
G1 X151.502 Y113.747 E.0061
G1 X151.58 Y113.956 E.00684
G1 X151.608 Y114.108 E.00477
G1 X151.608 Y129.09 E.46033
G1 X151.535 Y129.393 E.00958
G1 X151.438 Y129.56 E.00594
G1 X151.358 Y129.647 E.00364
G1 X151.193 Y129.758 E.0061
G1 X150.985 Y129.836 E.00684
G1 X150.832 Y129.864 E.00477
G1 X135.851 Y129.864 E.46033
G1 X135.548 Y129.791 E.00958
G1 X135.38 Y129.694 E.00594
G1 X135.294 Y129.614 E.00364
G1 X135.183 Y129.449 E.0061
G1 X135.104 Y129.241 E.00684
G1 X135.077 Y129.088 E.00477
G1 X135.077 Y114.107 E.46033
G1 X135.15 Y113.804 E.00958
G1 X135.178 Y113.755 E.00173
G1 X135.514 Y113.902 F24000
G1 F4800
G1 X135.612 Y113.796 E.00443
G1 X135.842 Y113.71 E.00756
G1 X150.842 Y113.71 E.46091
G1 X151.038 Y113.77 E.0063
G1 X151.144 Y113.868 E.00443
G1 X151.231 Y114.098 E.00756
G1 X151.231 Y129.098 E.46091
G1 X151.171 Y129.294 E.0063
G1 X151.072 Y129.4 E.00443
G1 X150.842 Y129.487 E.00756
G1 X135.842 Y129.487 E.46091
G1 X135.646 Y129.427 E.0063
G1 X135.54 Y129.328 E.00443
G1 X135.454 Y129.098 E.00756
G1 X135.454 Y114.098 E.46091
G1 X135.502 Y113.94 E.00507
G1 E-.3 F2400
;WIPE_START
G1 F4800
G1 X135.612 Y113.796 E-.09058
G1 X135.842 Y113.71 E-.12297
G1 X136.415 Y113.71 E-.28646
;WIPE_END
G1 X136.068 Y106.085 Z.6 F24000
G1 X135.502 Y93.635 Z.6
