; HEADER_BLOCK_START
; generated by OrcaSlicer-WaveOverhangs 2.4.0-dev on 2026-05-12 at 16:18:18
; WAVE_OVERHANG_BUILD wave_overhangs_version=dev orca_base=2.4.0-dev
; WAVE_OVERHANG_CONFIG region=0 algo=andersons outer_perim=1 spacing=0.460 flow_mm3_per_mm=0.200 speed=2.0 travel=40.0 fan=100 floor_layers=2 min_angle=0.0 min_length=0.00 max_iterations=0 ring_overlap=0.15 pattern=smart spacing_mode=uniform seam_mode=alternating perimeter_overlap=0.20 minimum_wave_width=0.70 min_new_area=0.0100 corner_enable=0 corner_spacing=0.420 corner_taper=10.00 corner_angle=91 end_retract=0.00 nozzle_temp_override=0 min_wave_time=4.00 min_layer_time=0.00 wall_loops=3 top_shell_layers=2 bottom_shell_layers=4 infill_density=15 infill_pattern=rectilinear support_remainder=1 instead_of_bridges=0
; total layer number: 84
; filament_density: 1.24
; filament_diameter: 1.75
; max_z_height: 20.12
; filament: 1
; HEADER_BLOCK_END

; THUMBNAIL_BLOCK_START

;
; THUMBNAIL_BLOCK_END

; external perimeters extrusion width = 0.42mm
; perimeters extrusion width = 0.45mm
; infill extrusion width = 0.44mm
; solid infill extrusion width = 0.44mm
; top infill extrusion width = 0.38mm
; first layer extrusion width = 0.42mm

; EXECUTABLE_BLOCK_START
EXCLUDE_OBJECT_DEFINE NAME=FTS_Bridge.STL_id_0_copy_0 CENTER=135.842,101.598 POLYGON=[[120.842,74.0982],[135.842,74.0982],[150.842,94.0982],[150.842,129.098],[135.842,129.098],[120.842,109.098],[120.842,74.0982]]
M73 P0 R23
M106 S0
M106 P2 S0
;TYPE:Custom
G9111 bedTemp=55 extruderTemp=210
M117
G90
G21
M83 ; use relative distances for extrusion
; Filament gcode
M106 S0
M106 P2 S0
;LAYER_CHANGE
;Z:0.2
;HEIGHT:0.2
 ; PURGE LINE
M204 P500
SET_VELOCITY_LIMIT SQUARE_CORNER_VELOCITY=9
G1 Z0.50 F900 ; for object exclusion
G1 X89.365 Y255 F18000
G1 Z.25 F900
G1 E0.8 F2400
G1 E0.6
G1 F3000
G1 X158.835 Y255 E3.72454
G1 X158.835 Y255.45 E.0252
G1 X89.365 Y255.45 E3.72454
G1 X89.365 Y255.02 E.02305
G1 Z0.5 F600

G1 E-.8 F2400
; AFTER_LAYER_CHANGE 0 @ 0.2mm
;_SET_FAN_SPEED_CHANGING_LAYER
SET_VELOCITY_LIMIT ACCEL=2000 ACCEL_TO_DECEL=1000
; printing object FTS_Bridge.STL id:0 copy 0
EXCLUDE_OBJECT_START NAME=FTS_Bridge.STL_id_0_copy_0
G1 X132.349 Y111.375 F24000
G1 Z.6
G1 Z.2
G1 E.8 F2400
;TYPE:Brim
;WIDTH:0.42
G1 F4800
G1 X132.777 Y110.895 E.01976
G1 X133.272 Y110.483 E.01979
G1 X133.821 Y110.15 E.01973
G1 X134.593 Y109.846 E.0255
G1 X135.276 Y109.699 E.02145
G1 X135.848 Y109.662 E.01763
G1 X150.835 Y109.662 E.4605
G1 X151.485 Y109.71 E.02001
G1 X152.11 Y109.852 E.01971
G1 X152.945 Y110.206 E.02786
G1 X153.566 Y110.605 E.02267
G1 X154.046 Y111.033 E.01976
G1 X154.458 Y111.528 E.01979
G1 X154.79 Y112.077 E.01973
G1 X155.095 Y112.849 E.0255
G1 X155.241 Y113.532 E.02145
G1 X155.279 Y114.104 E.01763
G1 X155.279 Y129.091 E.4605
G1 X155.23 Y129.741 E.02001
G1 X155.088 Y130.366 E.01971
G1 X154.734 Y131.201 E.02786
G1 X154.336 Y131.822 E.02267
G1 X153.908 Y132.302 E.01976
G1 X153.412 Y132.713 E.01979
G1 X152.864 Y133.046 E.01971
G1 X152.039 Y133.366 E.02717
G1 X151.409 Y133.497 E.01977
G1 X150.836 Y133.535 E.01765
G1 X135.849 Y133.535 E.4605
G1 X135.2 Y133.486 E.02001
G1 X134.575 Y133.344 E.01971
G1 X133.74 Y132.99 E.02786
G1 X133.119 Y132.592 E.02267
G1 X132.639 Y132.164 E.01976
G1 X132.227 Y131.668 E.01979
G1 X131.894 Y131.12 E.01971
G1 X131.575 Y130.295 E.02717
G1 X131.444 Y129.665 E.01977
G1 X131.406 Y129.092 E.01765
G1 X131.406 Y114.105 E.4605
G1 X131.454 Y113.456 E.02001
G1 X131.596 Y112.83 E.01971
G1 X131.95 Y111.996 E.02786
G1 X132.327 Y111.409 E.02144
G1 X132.646 Y111.613 F24000
G1 F4800
G1 X132.656 Y111.597 E.00058
G1 X133.046 Y111.161 E.01797
G1 X133.485 Y110.796 E.01755
G1 X133.981 Y110.494 E.01784
G1 X134.694 Y110.212 E.02356
G1 X135.336 Y110.073 E.02019
G1 X135.865 Y110.039 E.01627
G1 X150.825 Y110.039 E.45971
G1 X151.437 Y110.086 E.01884
G1 X152.003 Y110.216 E.01785
G1 X152.759 Y110.537 E.02523
G1 X153.344 Y110.912 E.02134
G1 X153.779 Y111.302 E.01797
G1 X154.144 Y111.741 E.01755
G1 X154.446 Y112.237 E.01784
G1 X154.729 Y112.95 E.02356
G1 X154.865 Y113.576 E.01968
G1 X154.902 Y114.121 E.01677
G1 X154.901 Y129.081 E.45971
G1 X154.855 Y129.693 E.01884
G1 X154.724 Y130.259 E.01785
G1 X154.403 Y131.015 E.02523
G1 X154.029 Y131.6 E.02134
G1 X153.639 Y132.035 E.01797
G1 X153.199 Y132.4 E.01755
G1 X152.687 Y132.71 E.01839
G1 X151.923 Y133.005 E.02518
G1 X151.366 Y133.121 E.01748
G1 X150.827 Y133.157 E.01659
G1 X135.859 Y133.157 E.45993
G1 X135.248 Y133.11 E.01884
G1 X134.681 Y132.98 E.01785
G1 X133.926 Y132.659 E.02523
G1 X133.341 Y132.285 E.02134
G1 X132.905 Y131.894 E.01797
G1 X132.54 Y131.455 E.01755
G1 X132.23 Y130.943 E.01839
G1 X131.936 Y130.179 E.02518
G1 X131.82 Y129.622 E.01748
G1 X131.783 Y129.083 E.01658
G1 X131.783 Y114.115 E.45993
G1 X131.83 Y113.504 E.01884
G1 X131.96 Y112.937 E.01785
G1 X132.281 Y112.182 E.02523
G1 X132.624 Y111.646 E.01953
G1 X132.943 Y111.851 F24000
G1 F4800
G1 X132.963 Y111.819 E.00115
G1 X133.315 Y111.428 E.01616
G1 X133.712 Y111.1 E.01584
G1 X134.142 Y110.838 E.01546
G1 X134.795 Y110.577 E.02162
G1 X135.397 Y110.447 E.01891
G1 X135.881 Y110.416 E.0149
G1 X150.807 Y110.416 E.45864
G1 X151.371 Y110.459 E.0174
G1 X151.895 Y110.58 E.01653
G1 X152.574 Y110.868 E.02264
G1 X153.121 Y111.219 E.01999
G1 X153.512 Y111.571 E.01616
G1 X153.841 Y111.968 E.01584
G1 X154.103 Y112.398 E.01546
G1 X154.364 Y113.052 E.02163
G1 X154.491 Y113.637 E.01841
G1 X154.525 Y114.137 E.0154
G1 X154.524 Y129.071 E.45889
G1 X154.481 Y129.627 E.01714
G1 X154.36 Y130.151 E.01653
G1 X154.072 Y130.83 E.02264
G1 X153.721 Y131.377 E.01999
G1 X153.382 Y131.757 E.01565
G1 X152.987 Y132.087 E.01582
G1 X152.511 Y132.374 E.01706
G1 X151.807 Y132.644 E.02318
G1 X151.307 Y132.747 E.01569
G1 X150.811 Y132.78 E.01527
G1 X135.869 Y132.78 E.45911
G1 X135.313 Y132.737 E.01714
G1 X134.789 Y132.616 E.01653
G1 X134.111 Y132.328 E.02264
G1 X133.563 Y131.977 E.01999
G1 X133.184 Y131.638 E.01565
G1 X132.854 Y131.243 E.01582
G1 X132.567 Y130.767 E.01706
G1 X132.297 Y130.063 E.02318
G1 X132.194 Y129.563 E.01569
G1 X132.16 Y129.067 E.01527
G1 X132.161 Y114.125 E.45911
G1 X132.203 Y113.569 E.01714
G1 X132.324 Y113.045 E.01653
G1 X132.612 Y112.367 E.02264
G1 X132.921 Y111.884 E.01761
G1 X133.24 Y112.089 F24000
G1 F4800
G1 X133.27 Y112.042 E.00171
G1 X133.583 Y111.696 E.01433
G1 X133.925 Y111.413 E.01365
G1 X134.303 Y111.181 E.0136
G1 X134.897 Y110.943 E.01967
G1 X135.457 Y110.821 E.01762
G1 X135.896 Y110.793 E.01352
G1 X150.788 Y110.793 E.45758
G1 X151.306 Y110.832 E.01595
G1 X151.788 Y110.944 E.01519
G1 X152.388 Y111.199 E.02005
G1 X152.899 Y111.526 E.01864
G1 X153.245 Y111.839 E.01433
G1 X153.528 Y112.181 E.01365
G1 X153.759 Y112.559 E.0136
G1 X153.998 Y113.154 E.0197
G1 X154.117 Y113.698 E.01714
G1 X154.147 Y114.153 E.01401
G1 X154.146 Y129.061 E.45807
G1 X154.108 Y129.562 E.01542
G1 X153.996 Y130.043 E.0152
G1 X153.742 Y130.644 E.02005
G1 X153.414 Y131.155 E.01865
G1 X153.113 Y131.49 E.01385
G1 X152.774 Y131.773 E.01358
G1 X152.336 Y132.037 E.01571
G1 X151.692 Y132.282 E.02118
G1 X151.248 Y132.373 E.01391
G1 X150.794 Y132.403 E.01397
G1 X135.879 Y132.402 E.4583
G1 X135.379 Y132.364 E.01542
G1 X134.897 Y132.252 E.0152
G1 X134.296 Y131.998 E.02005
G1 X133.785 Y131.67 E.01865
G1 X133.451 Y131.369 E.01385
G1 X133.167 Y131.03 E.01358
G1 X132.903 Y130.592 E.01571
G1 X132.658 Y129.948 E.02118
G1 X132.568 Y129.504 E.01391
G1 X132.537 Y129.05 E.01397
G1 X132.538 Y114.135 E.4583
G1 X132.576 Y113.635 E.01542
G1 X132.688 Y113.153 E.0152
G1 X132.943 Y112.552 E.02005
G1 X133.219 Y112.122 E.0157
G1 X133.537 Y112.326 F24000
G1 F4800
G1 X133.577 Y112.264 E.00226
G1 X133.851 Y111.964 E.01249
G1 X134.152 Y111.716 E.01199
G1 X134.482 Y111.516 E.01185
G1 X135.017 Y111.302 E.01772
G1 X135.501 Y111.198 E.01522
G1 X135.905 Y111.17 E.01243
G1 X150.77 Y111.17 E.45675
G1 X151.24 Y111.206 E.01449
G1 X151.679 Y111.308 E.01386
G1 X152.203 Y111.53 E.01747
G1 X152.676 Y111.833 E.01727
G1 X152.977 Y112.107 E.01249
G1 X153.215 Y112.395 E.0115
G1 X153.416 Y112.721 E.01176
G1 X153.633 Y113.256 E.01775
G1 X153.743 Y113.76 E.01585
G1 X153.77 Y114.17 E.01262
G1 X153.769 Y129.042 E.457
G1 X153.735 Y129.496 E.01397
G1 X153.633 Y129.935 E.01387
G1 X153.411 Y130.459 E.01747
G1 X153.107 Y130.933 E.01729
G1 X152.856 Y131.212 E.01154
G1 X152.561 Y131.46 E.01184
G1 X152.161 Y131.7 E.01435
G1 X151.577 Y131.921 E.01916
G1 X151.19 Y131.999 E.01214
G1 X150.778 Y132.026 E.01268
G1 X135.889 Y132.025 E.45749
G1 X135.428 Y131.988 E.01423
G1 X135.005 Y131.889 E.01334
G1 X134.482 Y131.667 E.01747
G1 X134.008 Y131.363 E.01729
G1 X133.729 Y131.112 E.01154
G1 X133.481 Y130.817 E.01184
G1 X133.24 Y130.417 E.01435
G1 X133.02 Y129.833 E.01916
G1 X132.942 Y129.446 E.01214
G1 X132.914 Y129.034 E.01268
G1 X132.915 Y114.145 E.45749
G1 X132.952 Y113.684 E.01423
G1 X133.052 Y113.261 E.01334
G1 X133.274 Y112.738 E.01747
G1 X133.516 Y112.36 E.01378
G1 X133.834 Y112.565 F24000
G1 F4800
G1 X133.884 Y112.488 E.00284
G1 X134.106 Y112.244 E.01013
G1 X134.364 Y112.029 E.01032
G1 X134.659 Y111.851 E.01059
G1 X135.137 Y111.662 E.01578
G1 X135.546 Y111.574 E.01287
G1 X135.914 Y111.548 E.01133
G1 X150.751 Y111.548 E.45592
G1 X151.174 Y111.579 E.01303
G1 X151.571 Y111.672 E.01253
G1 X152.034 Y111.87 E.01548
G1 X152.453 Y112.14 E.01531
G1 X152.708 Y112.374 E.01064
G1 X152.912 Y112.622 E.00987
G1 X153.074 Y112.883 E.00945
G1 X153.268 Y113.359 E.01579
G1 X153.37 Y113.821 E.01454
G1 X153.393 Y114.186 E.01123
G1 X153.392 Y129.024 E.45593
G1 X153.359 Y129.447 E.01304
G1 X153.269 Y129.827 E.01201
G1 X153.071 Y130.29 E.01548
G1 X152.8 Y130.71 E.01535
G1 X152.587 Y130.945 E.00974
G1 X152.348 Y131.146 E.00961
G1 X151.986 Y131.363 E.01297
G1 X151.464 Y131.559 E.01714
G1 X151.132 Y131.625 E.01037
G1 X150.762 Y131.649 E.01141
G1 X135.909 Y131.648 E.45639
G1 X135.495 Y131.615 E.01276
G1 X135.114 Y131.525 E.01203
G1 X134.65 Y131.327 E.0155
G1 X134.23 Y131.056 E.01535
G1 X133.995 Y130.843 E.00974
G1 X133.794 Y130.604 E.00961
G1 X133.577 Y130.242 E.01297
G1 X133.381 Y129.719 E.01714
G1 X133.316 Y129.388 E.01037
G1 X133.292 Y129.018 E.01141
G1 X133.293 Y114.165 E.45639
G1 X133.325 Y113.751 E.01276
G1 X133.415 Y113.37 E.01203
G1 X133.614 Y112.906 E.0155
G1 X133.812 Y112.599 E.01124
G1 X134.127 Y112.814 F24000
G1 F4800
G1 X134.381 Y112.517 E.01201
G1 X134.713 Y112.264 E.01282
G1 X135.044 Y112.094 E.01145
G1 X135.414 Y111.981 E.01189
G1 X135.88 Y111.924 E.01442
G1 X150.8 Y111.924 E.45846
G1 X151.269 Y111.986 E.01451
G1 X151.702 Y112.133 E.01405
G1 X152.201 Y112.439 E.018
G1 X152.495 Y112.719 E.01247
G1 X152.726 Y113.052 E.01246
G1 X152.881 Y113.392 E.01147
G1 X152.977 Y113.755 E.01155
G1 X153.016 Y114.134 E.0117
G1 X153.016 Y129.056 E.45852
G1 X152.954 Y129.525 E.01451
G1 X152.808 Y129.958 E.01405
G1 X152.502 Y130.457 E.018
G1 X152.222 Y130.751 E.01247
G1 X151.889 Y130.982 E.01246
G1 X151.549 Y131.137 E.01147
G1 X151.185 Y131.233 E.01155
G1 X150.806 Y131.272 E.0117
G1 X135.884 Y131.272 E.45852
G1 X135.416 Y131.21 E.01451
G1 X134.983 Y131.064 E.01405
G1 X134.483 Y130.758 E.018
G1 X134.189 Y130.478 E.01247
G1 X133.958 Y130.144 E.01246
G1 X133.803 Y129.805 E.01147
G1 X133.708 Y129.441 E.01155
G1 X133.668 Y129.062 E.0117
G1 X133.679 Y114 E.46281
G1 X133.752 Y113.582 E.01306
G1 X133.876 Y113.24 E.01117
G1 X134.107 Y112.849 E.01395
G1 X134.431 Y113.04 F24000
G1 F4800
G1 X134.457 Y112.997 E.00153
G1 X134.607 Y112.819 E.00717
G1 X134.884 Y112.6 E.01085
G1 X135.154 Y112.455 E.00943
G1 X135.454 Y112.356 E.0097
G1 X135.873 Y112.301 E.01298
G1 X150.808 Y112.301 E.4589
G1 X151.15 Y112.344 E.01061
G1 X151.501 Y112.452 E.01127
G1 X151.942 Y112.712 E.01571
G1 X152.184 Y112.931 E.01004
G1 X152.383 Y113.208 E.01048
G1 X152.516 Y113.486 E.00946
G1 X152.601 Y113.79 E.0097
G1 X152.639 Y114.128 E.01047
G1 X152.639 Y129.064 E.45893
G1 X152.596 Y129.406 E.01061
G1 X152.489 Y129.757 E.01127
G1 X152.229 Y130.197 E.01571
G1 X152.009 Y130.44 E.01004
G1 X151.733 Y130.639 E.01048
G1 X151.455 Y130.772 E.00946
G1 X151.151 Y130.857 E.0097
G1 X150.812 Y130.895 E.01047
G1 X135.877 Y130.895 E.45893
G1 X135.534 Y130.852 E.01061
G1 X135.184 Y130.745 E.01127
G1 X134.743 Y130.485 E.01571
G1 X134.501 Y130.265 E.01004
G1 X134.302 Y129.989 E.01048
G1 X134.168 Y129.711 E.00946
G1 X134.083 Y129.407 E.0097
G1 X134.045 Y129.068 E.01047
G1 X134.05 Y114.068 E.46093
G1 X134.108 Y113.706 E.01125
G1 X134.195 Y113.441 E.0086
G1 X134.411 Y113.075 E.01305
G1 X134.729 Y113.273 F24000
G1 F4800
G1 X134.78 Y113.192 E.00296
G1 X134.894 Y113.064 E.00526
G1 X135.116 Y112.897 E.00855
G1 X135.332 Y112.787 E.00744
G1 X135.571 Y112.714 E.00769
G1 X135.866 Y112.678 E.00912
G1 X150.815 Y112.678 E.45934
G1 X151.107 Y112.719 E.00907
G1 X151.393 Y112.813 E.00925
G1 X151.749 Y113.036 E.01289
G1 X151.877 Y113.15 E.00526
G1 X152.044 Y113.372 E.00855
G1 X152.153 Y113.588 E.00744
G1 X152.226 Y113.827 E.00769
G1 X152.262 Y114.122 E.00912
G1 X152.262 Y129.071 E.45934
G1 X152.222 Y129.363 E.00907
M73 P1 R23
G1 X152.127 Y129.649 E.00925
G1 X151.905 Y130.005 E.01289
G1 X151.791 Y130.133 E.00526
G1 X151.568 Y130.3 E.00855
G1 X151.353 Y130.409 E.00744
G1 X151.113 Y130.482 E.00769
G1 X150.819 Y130.518 E.00912
G1 X135.87 Y130.518 E.45934
G1 X135.577 Y130.478 E.00907
G1 X135.291 Y130.383 E.00925
G1 X134.936 Y130.161 E.01289
G1 X134.808 Y130.047 E.00526
G1 X134.641 Y129.824 E.00855
G1 X134.531 Y129.609 E.00744
G1 X134.459 Y129.369 E.00769
G1 X134.423 Y129.075 E.00912
G1 X134.423 Y114.126 E.45934
G1 X134.463 Y113.833 E.00907
G1 X134.557 Y113.547 E.00925
G1 X134.707 Y113.307 E.0087
G1 X135.016 Y113.515 F24000
G1 F4800
G1 X135.096 Y113.397 E.00437
G1 X135.169 Y113.321 E.00325
G1 X135.339 Y113.201 E.00641
G1 X135.499 Y113.125 E.00544
G1 X135.615 Y113.089 E.00371
G1 X135.859 Y113.056 E.00758
G1 X150.823 Y113.056 E.45979
G1 X151.057 Y113.092 E.00729
G1 X151.275 Y113.171 E.00713
G1 X151.543 Y113.352 E.00993
G1 X151.62 Y113.425 E.00325
G1 X151.74 Y113.595 E.0064
G1 X151.816 Y113.755 E.00544
G1 X151.851 Y113.87 E.00371
G1 X151.885 Y114.115 E.00758
G1 X151.885 Y129.079 E.45979
G1 X151.848 Y129.313 E.00729
G1 X151.769 Y129.531 E.00713
G1 X151.589 Y129.799 E.00993
G1 X151.515 Y129.875 E.00325
G1 X151.345 Y129.996 E.0064
G1 X151.185 Y130.072 E.00544
G1 X151.07 Y130.107 E.00371
G1 X150.826 Y130.141 E.00758
G1 X135.862 Y130.141 E.45979
G1 X135.628 Y130.104 E.00729
G1 X135.409 Y130.025 E.00713
G1 X135.141 Y129.845 E.00993
G1 X135.065 Y129.771 E.00325
G1 X134.945 Y129.601 E.00641
G1 X134.869 Y129.441 E.00544
G1 X134.833 Y129.326 E.00371
G1 X134.8 Y129.081 E.00758
G1 X134.8 Y114.118 E.45979
G1 X134.836 Y113.884 E.00729
G1 X134.915 Y113.665 E.00713
G1 X134.994 Y113.548 E.00433
G1 X135.289 Y113.768 F24000
G1 F4800
G1 X135.401 Y113.618 E.00574
G1 X135.492 Y113.546 E.00358
G1 X135.668 Y113.462 E.00599
G1 X135.851 Y113.433 E.00571
G1 X150.831 Y113.433 E.4603
G1 X150.992 Y113.464 E.00504
G1 X151.145 Y113.525 E.00504
G1 X151.322 Y113.657 E.0068
G1 X151.395 Y113.748 E.00358
G1 X151.478 Y113.924 E.00599
G1 X151.508 Y114.107 E.00571
G1 X151.508 Y129.087 E.4603
G1 X151.477 Y129.248 E.00504
G1 X151.416 Y129.401 E.00504
G1 X151.284 Y129.578 E.0068
G1 X151.193 Y129.651 E.00358
G1 X151.017 Y129.734 E.00599
G1 X150.833 Y129.764 E.00571
G1 X135.853 Y129.764 E.4603
G1 X135.692 Y129.733 E.00504
G1 X135.54 Y129.672 E.00504
G1 X135.362 Y129.54 E.0068
G1 X135.29 Y129.449 E.00358
G1 X135.206 Y129.273 E.00599
G1 X135.177 Y129.089 E.00571
G1 X135.177 Y114.109 E.4603
G1 X135.208 Y113.948 E.00504
G1 X135.267 Y113.801 E.00488
G1 X135.617 Y113.941 F24000
G1 F4800
G1 X135.624 Y113.922 E.00062
G1 X135.737 Y113.832 E.00443
G1 X135.842 Y113.81 E.00331
G1 X150.842 Y113.81 E.46091
G1 X151.018 Y113.88 E.00583
G1 X151.108 Y113.993 E.00443
G1 X151.131 Y114.098 E.00331
G1 X151.131 Y129.098 E.46091
G1 X151.06 Y129.274 E.00583
G1 X150.948 Y129.364 E.00443
G1 X150.842 Y129.387 E.00331
G1 X135.842 Y129.387 E.46091
G1 X135.666 Y129.316 E.00583
G1 X135.576 Y129.203 E.00443
G1 X135.554 Y129.098 E.00331
G1 X135.554 Y114.098 E.46091
G1 X135.602 Y113.978 E.00398
G1 E-.3 F2400
;WIPE_START
G1 F4800
G1 X135.624 Y113.922 E-.03005
G1 X135.737 Y113.832 E-.07215
