; HEADER_BLOCK_START
; generated by OrcaSlicer-WaveOverhangs 2.4.0-dev on 2026-05-28 at 16:47:53
; WAVE_OVERHANG_BUILD wave_overhangs_version=dev orca_base=2.4.0-dev
; WAVE_OVERHANG_CONFIG region=0 algo=andersons outer_perim=1 spacing=0.380 flow_mm3_per_mm=0.200 speed=2.0 travel=40.0 fan=100 floor_layers=2 min_angle=0.0 min_length=0.00 max_iterations=0 ring_overlap=0.15 pattern=zigzag spacing_mode=uniform seam_mode=alternating perimeter_overlap=0.10 minimum_wave_width=0.70 min_new_area=0.0100 corner_enable=0 corner_spacing=0.000 corner_taper=0.00 corner_angle=90 end_retract=0.00 nozzle_temp_override=190 min_wave_time=0.00 min_layer_time=0.00 wall_loops=2 top_shell_layers=5 bottom_shell_layers=4 infill_density=15 infill_pattern=rectilinear support_remainder=1 instead_of_bridges=0
; WAVE_OVERHANG_CONFIG region=1 algo=andersons outer_perim=1 spacing=0.380 flow_mm3_per_mm=0.200 speed=2.0 travel=40.0 fan=100 floor_layers=2 min_angle=0.0 min_length=0.00 max_iterations=0 ring_overlap=0.15 pattern=zigzag spacing_mode=uniform seam_mode=alternating perimeter_overlap=0.10 minimum_wave_width=0.70 min_new_area=0.0100 corner_enable=0 corner_spacing=0.000 corner_taper=0.00 corner_angle=90 end_retract=0.00 nozzle_temp_override=190 min_wave_time=0.00 min_layer_time=0.00 wall_loops=2 top_shell_layers=5 bottom_shell_layers=4 infill_density=15 infill_pattern=rectilinear support_remainder=1 instead_of_bridges=0
; WAVE_OVERHANG_CONFIG region=2 algo=andersons outer_perim=1 spacing=0.380 flow_mm3_per_mm=0.200 speed=2.0 travel=40.0 fan=100 floor_layers=2 min_angle=0.0 min_length=0.00 max_iterations=0 ring_overlap=0.15 pattern=smart spacing_mode=uniform seam_mode=alternating perimeter_overlap=0.10 minimum_wave_width=0.70 min_new_area=0.0100 corner_enable=0 corner_spacing=0.000 corner_taper=0.00 corner_angle=90 end_retract=0.00 nozzle_temp_override=190 min_wave_time=0.00 min_layer_time=0.00 wall_loops=2 top_shell_layers=5 bottom_shell_layers=4 infill_density=15 infill_pattern=rectilinear support_remainder=1 instead_of_bridges=0
; WAVE_OVERHANG_CONFIG region=3 algo=andersons outer_perim=1 spacing=0.380 flow_mm3_per_mm=0.200 speed=2.0 travel=40.0 fan=100 floor_layers=2 min_angle=0.0 min_length=0.00 max_iterations=0 ring_overlap=0.15 pattern=zigzag spacing_mode=uniform seam_mode=alternating perimeter_overlap=0.10 minimum_wave_width=0.70 min_new_area=0.0100 corner_enable=0 corner_spacing=0.000 corner_taper=0.00 corner_angle=90 end_retract=0.00 nozzle_temp_override=190 min_wave_time=0.00 min_layer_time=0.00 wall_loops=2 top_shell_layers=5 bottom_shell_layers=4 infill_density=15 infill_pattern=rectilinear support_remainder=1 instead_of_bridges=0
; WAVE_OVERHANG_CONFIG region=4 algo=andersons outer_perim=1 spacing=0.380 flow_mm3_per_mm=0.200 speed=2.0 travel=40.0 fan=100 floor_layers=2 min_angle=0.0 min_length=0.00 max_iterations=0 ring_overlap=0.15 pattern=zigzag spacing_mode=uniform seam_mode=alternating perimeter_overlap=0.10 minimum_wave_width=0.70 min_new_area=0.0100 corner_enable=0 corner_spacing=0.000 corner_taper=0.00 corner_angle=90 end_retract=0.00 nozzle_temp_override=190 min_wave_time=0.00 min_layer_time=0.00 wall_loops=2 top_shell_layers=5 bottom_shell_layers=4 infill_density=15 infill_pattern=rectilinear support_remainder=1 instead_of_bridges=0
; total layer number: 394
; filament_density: 1.24
; filament_diameter: 1.75
; max_z_height: 21.08
; filament: 1
; HEADER_BLOCK_END

; THUMBNAIL_BLOCK_START

;
; THUMBNAIL_BLOCK_END

; external perimeters extrusion width = 0.42mm
; perimeters extrusion width = 0.45mm
; infill extrusion width = 0.44mm
; solid infill extrusion width = 0.44mm
; top infill extrusion width = 0.38mm
; first layer extrusion width = 0.42mm

; external perimeters extrusion width = 0.42mm
; perimeters extrusion width = 0.45mm
; infill extrusion width = 0.44mm
; solid infill extrusion width = 0.44mm
; top infill extrusion width = 0.38mm
; first layer extrusion width = 0.42mm

; external perimeters extrusion width = 0.42mm
; perimeters extrusion width = 0.45mm
; infill extrusion width = 0.44mm
; solid infill extrusion width = 0.44mm
; top infill extrusion width = 0.38mm
; first layer extrusion width = 0.42mm

; external perimeters extrusion width = 0.42mm
; perimeters extrusion width = 0.45mm
; infill extrusion width = 0.44mm
; solid infill extrusion width = 0.44mm
; top infill extrusion width = 0.38mm
; first layer extrusion width = 0.42mm

; external perimeters extrusion width = 0.42mm
; perimeters extrusion width = 0.45mm
; infill extrusion width = 0.44mm
; solid infill extrusion width = 0.44mm
; top infill extrusion width = 0.38mm
; first layer extrusion width = 0.42mm

; EXECUTABLE_BLOCK_START
EXCLUDE_OBJECT_DEFINE NAME=FTS_Thick_OneCorner.STL_id_0_copy_0 CENTER=45.8116,201.253 POLYGON=[[30.8116,198.753],[30.8116,183.753],[45.8116,183.753],[60.8116,203.753],[60.8116,218.753],[30.8116,218.753],[30.8116,198.753]]
EXCLUDE_OBJECT_DEFINE NAME=FTS_Curved_Incline.stl_id_1_copy_0 CENTER=152.483,202.78 POLYGON=[[126.778,182.428],[141.778,182.428],[178.189,197.428],[178.017,200.012],[177.595,202.563],[176.925,205.056],[176.015,207.467],[174.876,209.774],[173.518,211.954],[171.955,213.987],[170.204,215.853],[168.281,217.537],[166.206,219.021],[163.999,220.292],[161.682,221.339],[159.278,222.153],[156.81,222.725],[154.302,223.053],[151.778,223.133],[149.263,222.965],[146.78,222.552],[144.354,221.899],[142.008,221.013],[139.764,219.903],[137.644,218.581],[135.666,217.06],[133.851,215.355],[132.214,213.483],[130.771,211.464],[129.535,209.316],[128.518,207.062],[127.728,204.723],[127.172,202.322],[126.854,199.882],[126.778,197.428],[126.778,182.428]]
EXCLUDE_OBJECT_DEFINE NAME=FTS_Bridge.STL_id_2_copy_0 CENTER=45.1557,95.261 POLYGON=[[30.1557,102.761],[30.1557,67.761],[45.1557,67.761],[60.1557,87.761],[60.1557,122.761],[45.1557,122.761],[30.1557,102.761]]
EXCLUDE_OBJECT_DEFINE NAME=FTS_Loop_Narrow.STL_id_3_copy_0 CENTER=133.011,42.8304 POLYGON=[[105.598,40.3304],[126.083,30.8304],[139.939,30.8304],[160.424,40.3304],[160.424,45.3304],[139.939,54.8304],[126.083,54.8304],[105.598,45.3304],[105.598,40.3304]]
EXCLUDE_OBJECT_DEFINE NAME=FTS_Loop_Holes.STL_id_4_copy_0 CENTER=199.26,117.71 POLYGON=[[181.775,116.763],[181.98,114.879],[182.388,113.029],[182.993,111.233],[183.788,109.513],[184.765,107.89],[185.912,106.381],[187.215,105.006],[188.309,104.052],[188.659,103.779],[189.365,103.27],[190.228,102.716],[191.902,101.828],[193.662,101.127],[195.488,100.62],[197.358,100.313],[199.25,100.21],[201.142,100.313],[203.012,100.62],[204.837,101.127],[206.598,101.828],[208.272,102.715],[209.84,103.779],[211.284,105.006],[212.588,106.381],[213.734,107.89],[214.711,109.513],[215.507,111.233],[216.112,113.029],[216.519,114.879],[216.724,116.763],[216.728,116.835],[216.744,118.154],[216.724,118.658],[216.519,120.542],[216.112,122.392],[215.507,124.188],[214.711,125.908],[213.734,127.531],[212.588,129.04],[211.285,130.415],[209.84,131.642],[208.272,132.705],[206.598,133.593],[204.838,134.294],[203.012,134.801],[201.142,135.108],[199.25,135.21],[197.358,135.108],[195.488,134.801],[193.662,134.294],[191.902,133.593],[190.228,132.705],[188.659,131.642],[187.215,130.415],[185.912,129.04],[184.765,127.531],[183.788,125.908],[182.993,124.188],[182.388,122.392],[181.98,120.542],[181.775,118.658],[181.775,116.763]]
M73 P0 R110
M106 S0
M106 P2 S0
;TYPE:Custom
G9111 bedTemp=55 extruderTemp=200
M117
G90
G21
M83 ; use relative distances for extrusion
; Filament gcode
M106 S0
M106 P2 S0
;LAYER_CHANGE
;Z:0.2
;HEIGHT:0.2
 ; PURGE LINE
M204 P500
SET_VELOCITY_LIMIT SQUARE_CORNER_VELOCITY=9
G1 Z0.50 F900 ; for object exclusion
G1 X89.365 Y255 F18000
G1 Z.25 F900
G1 E0.8 F2400
G1 E0.6
G1 F3000
G1 X158.835 Y255 E3.72454
G1 X158.835 Y255.45 E.0252
G1 X89.365 Y255.45 E3.72454
G1 X89.365 Y255.02 E.02305
G1 Z0.5 F600

G1 E-.8 F2400
; AFTER_LAYER_CHANGE 0 @ 0.2mm
;_SET_FAN_SPEED_CHANGING_LAYER
SET_VELOCITY_LIMIT ACCEL=2000 ACCEL_TO_DECEL=1000
; printing object FTS_Thick_OneCorner.STL id:0 copy 0
EXCLUDE_OBJECT_START NAME=FTS_Thick_OneCorner.STL_id_0_copy_0
G1 X45.402 Y198.343 F24000
G1 Z.56
G1 Z.16
G1 E.8 F2400
;TYPE:Outer wall
;WIDTH:0.419999
G1 F3000
G1 X31.222 Y198.343 E.43571
G1 X31.222 Y184.163 E.43571
G1 X45.402 Y184.163 E.43571
G1 X45.402 Y198.303 E.43448
G1 X45.025 Y197.965 F24000
;TYPE:Inner wall
G1 F3000
G1 X31.599 Y197.965 E.41254
G1 X31.599 Y184.54 E.41254
G1 X45.025 Y184.54 E.41254
G1 X45.025 Y197.925 E.41131
;WIPE_START
G1 X44.025 Y197.928 E-.8
;WIPE_END
G1 X44.54 Y190.313 Z.56 F24000
G1 X44.911 Y184.823 Z.56
G1 Z.16
G1 E.8 F2400
;TYPE:Bottom surface
;WIDTH:0.421128
G1 F6000
G1 X31.882 Y184.823 E.40157
G1 X31.882 Y185.201 E.01166
G1 X44.742 Y185.201 E.39634
G1 X44.742 Y185.579 E.01166
G1 X31.882 Y185.579 E.39634
G1 X31.882 Y185.958 E.01166
G1 X44.742 Y185.958 E.39634
G1 X44.742 Y186.336 E.01166
G1 X31.882 Y186.336 E.39634
G1 X31.882 Y186.714 E.01166
G1 X44.742 Y186.714 E.39634
G1 X44.742 Y187.092 E.01166
G1 X31.882 Y187.092 E.39634
G1 X31.882 Y187.471 E.01166
G1 X44.742 Y187.471 E.39634
G1 X44.742 Y187.849 E.01166
G1 X31.882 Y187.849 E.39634
G1 X31.882 Y188.227 E.01166
G1 X44.742 Y188.227 E.39634
G1 X44.742 Y188.605 E.01166
G1 X31.882 Y188.605 E.39634
G1 X31.882 Y188.983 E.01166
G1 X44.742 Y188.983 E.39634
G1 X44.742 Y189.362 E.01166
G1 X31.882 Y189.362 E.39634
G1 X31.882 Y189.74 E.01166
G1 X44.742 Y189.74 E.39634
G1 X44.742 Y190.118 E.01166
G1 X31.882 Y190.118 E.39634
G1 X31.882 Y190.496 E.01166
G1 X44.742 Y190.496 E.39634
G1 X44.742 Y190.874 E.01166
G1 X31.882 Y190.874 E.39634
G1 X31.882 Y191.253 E.01166
G1 X44.742 Y191.253 E.39634
G1 X44.742 Y191.631 E.01166
G1 X31.882 Y191.631 E.39634
G1 X31.882 Y192.009 E.01166
G1 X44.742 Y192.009 E.39634
G1 X44.742 Y192.387 E.01166
G1 X31.882 Y192.387 E.39634
G1 X31.882 Y192.765 E.01166
G1 X44.742 Y192.765 E.39634
G1 X44.742 Y193.144 E.01166
G1 X31.882 Y193.144 E.39634
G1 X31.882 Y193.522 E.01166
G1 X44.742 Y193.522 E.39634
G1 X44.742 Y193.9 E.01166
G1 X31.882 Y193.9 E.39634
G1 X31.882 Y194.278 E.01166
G1 X44.742 Y194.278 E.39634
G1 X44.742 Y194.656 E.01166
G1 X31.882 Y194.656 E.39634
G1 X31.882 Y195.035 E.01166
G1 X44.742 Y195.035 E.39634
G1 X44.742 Y195.413 E.01166
G1 X31.882 Y195.413 E.39634
G1 X31.882 Y195.791 E.01166
G1 X44.742 Y195.791 E.39634
G1 X44.742 Y196.169 E.01166
G1 X31.882 Y196.169 E.39634
G1 X31.882 Y196.548 E.01166
G1 X44.742 Y196.548 E.39634
G1 X44.742 Y196.926 E.01166
G1 X31.882 Y196.926 E.39634
G1 X31.882 Y197.304 E.01166
G1 X44.742 Y197.304 E.39634
G1 X44.742 Y197.682 E.01166
G1 X31.712 Y197.682 E.40157
; stop printing object FTS_Thick_OneCorner.STL id:0 copy 0
M106 S255
M106 P2 S178
;LAYER_CHANGE
;Z:0.44
;HEIGHT:0.24

G1 E-.4 F2400
;WIPE_START
G1 F6000
G1 X32.712 Y197.682 E-.4
;WIPE_END
EXCLUDE_OBJECT_END NAME=FTS_Thick_OneCorner.STL_id_0_copy_0
; AFTER_LAYER_CHANGE 1 @ 0.44mm
;_SET_FAN_SPEED_CHANGING_LAYER
SET_VELOCITY_LIMIT ACCEL=15000 ACCEL_TO_DECEL=7500
M140 S55 ; set bed temperature
; printing object FTS_Thick_OneCorner.STL id:0 copy 0
EXCLUDE_OBJECT_START NAME=FTS_Thick_OneCorner.STL_id_0_copy_0
G1 X40.327 Y198.19 Z.8 F24000
G1 X45.602 Y198.543 Z.8
G1 Z.4
G1 E.8 F2400
SET_VELOCITY_LIMIT ACCEL=13000 ACCEL_TO_DECEL=6500
;TYPE:Outer wall
;WIDTH:0.419999
G1 F6000
G1 X31.022 Y198.543 E.52536
G1 X31.022 Y183.963 E.52536
G1 X45.602 Y183.963 E.52536
G1 X45.602 Y198.503 E.52392
SET_VELOCITY_LIMIT ACCEL=15000 ACCEL_TO_DECEL=7500
G1 X45.218 Y198.159 F24000
;TYPE:Inner wall
;WIDTH:0.449999
G1 F6000
G1 X31.405 Y198.159 E.53825
G1 X31.405 Y184.346 E.53825
G1 X45.218 Y184.346 E.53825
G1 X45.218 Y198.119 E.53669
G1 X44.86 Y197.98 F24000
;TYPE:Internal solid infill
;WIDTH:0.448392
G1 F6000
G1 X44.86 Y184.7 E.51541
G1 X44.463 Y184.7 E.0154
G1 X44.463 Y197.805 E.50863
G1 X44.066 Y197.805 E.0154
G1 X44.066 Y184.7 E.50863
G1 X43.67 Y184.7 E.0154
G1 X43.67 Y197.805 E.50863
G1 X43.273 Y197.805 E.0154
G1 X43.273 Y184.7 E.50863
G1 X42.876 Y184.7 E.0154
G1 X42.876 Y197.805 E.50863
G1 X42.479 Y197.805 E.0154
G1 X42.479 Y184.7 E.50863
G1 X42.082 Y184.7 E.0154
G1 X42.082 Y197.805 E.50863
G1 X41.685 Y197.805 E.0154
G1 X41.685 Y184.7 E.50863
G1 X41.288 Y184.7 E.0154
G1 X41.288 Y197.805 E.50863
G1 X40.891 Y197.805 E.0154
G1 X40.891 Y184.7 E.50863
G1 X40.494 Y184.7 E.0154
G1 X40.494 Y197.805 E.50863
G1 X40.098 Y197.805 E.0154
G1 X40.098 Y184.7 E.50863
G1 X39.701 Y184.7 E.0154
G1 X39.701 Y197.805 E.50863
G1 X39.304 Y197.805 E.0154
G1 X39.304 Y184.7 E.50863
G1 X38.907 Y184.7 E.0154
G1 X38.907 Y197.805 E.50863
G1 X38.51 Y197.805 E.0154
G1 X38.51 Y184.7 E.50863
G1 X38.113 Y184.7 E.0154
G1 X38.113 Y197.805 E.50863
G1 X37.716 Y197.805 E.0154
G1 X37.716 Y184.7 E.50863
G1 X37.319 Y184.7 E.0154
G1 X37.319 Y197.805 E.50863
G1 X36.923 Y197.805 E.0154
G1 X36.923 Y184.7 E.50863
G1 X36.526 Y184.7 E.0154
G1 X36.526 Y197.805 E.50863
G1 X36.129 Y197.805 E.0154
G1 X36.129 Y184.7 E.50863
G1 X35.732 Y184.7 E.0154
G1 X35.732 Y197.805 E.50863
G1 X35.335 Y197.805 E.0154
G1 X35.335 Y184.7 E.50863
G1 X34.938 Y184.7 E.0154
G1 X34.938 Y197.805 E.50863
G1 X34.541 Y197.805 E.0154
G1 X34.541 Y184.7 E.50863
G1 X34.144 Y184.7 E.0154
G1 X34.144 Y197.805 E.50863
G1 X33.747 Y197.805 E.0154
G1 X33.747 Y184.7 E.50863
G1 X33.351 Y184.7 E.0154
G1 X33.351 Y197.805 E.50863
G1 X32.954 Y197.805 E.0154
G1 X32.954 Y184.7 E.50863
G1 X32.557 Y184.7 E.0154
G1 X32.557 Y197.805 E.50863
G1 X32.16 Y197.805 E.0154
G1 X32.16 Y184.7 E.50863
G1 X31.763 Y184.7 E.0154
G1 X31.763 Y197.98 E.51541
; stop printing object FTS_Thick_OneCorner.STL id:0 copy 0
;LAYER_CHANGE
;Z:0.68
;HEIGHT:0.24

G1 E-.4 F2400
;WIPE_START
G1 F6000
G1 X31.763 Y196.98 E-.4
;WIPE_END
EXCLUDE_OBJECT_END NAME=FTS_Thick_OneCorner.STL_id_0_copy_0
; AFTER_LAYER_CHANGE 2 @ 0.68mm
;_SET_FAN_SPEED_CHANGING_LAYER
; printing object FTS_Thick_OneCorner.STL id:0 copy 0
EXCLUDE_OBJECT_START NAME=FTS_Thick_OneCorner.STL_id_0_copy_0
G1 X39.347 Y197.836 Z1.04 F24000
G1 X45.602 Y198.543 Z1.04
G1 Z.64
G1 E.8 F2400
SET_VELOCITY_LIMIT ACCEL=13000 ACCEL_TO_DECEL=6500
;TYPE:Outer wall
;WIDTH:0.419999
G1 F6000
G1 X31.022 Y198.543 E.52536
G1 X31.022 Y183.963 E.52536
G1 X45.602 Y183.963 E.52536
G1 X45.602 Y198.503 E.52392
SET_VELOCITY_LIMIT ACCEL=15000 ACCEL_TO_DECEL=7500
G1 X45.218 Y198.159 F24000
;TYPE:Inner wall
;WIDTH:0.449999
G1 F6000
G1 X31.405 Y198.159 E.53825
G1 X31.405 Y184.346 E.53825
G1 X45.218 Y184.346 E.53825
G1 X45.218 Y198.119 E.53669
G1 X45.039 Y184.704 F24000
;TYPE:Internal solid infill
;WIDTH:0.448392
G1 F6000
G1 X31.759 Y184.704 E.51541
G1 X31.759 Y185.101 E.0154
G1 X44.865 Y185.101 E.50863
G1 X44.865 Y185.498 E.0154
G1 X31.759 Y185.498 E.50863
G1 X31.759 Y185.895 E.0154
G1 X44.865 Y185.895 E.50863
G1 X44.865 Y186.291 E.0154
G1 X31.759 Y186.291 E.50863
G1 X31.759 Y186.688 E.0154
G1 X44.865 Y186.688 E.50863
G1 X44.865 Y187.085 E.0154
G1 X31.759 Y187.085 E.50863
G1 X31.759 Y187.482 E.0154
G1 X44.865 Y187.482 E.50863
G1 X44.865 Y187.879 E.0154
G1 X31.759 Y187.879 E.50863
G1 X31.759 Y188.276 E.0154
G1 X44.865 Y188.276 E.50863
G1 X44.865 Y188.673 E.0154
G1 X31.759 Y188.673 E.50863
G1 X31.759 Y189.07 E.0154
G1 X44.865 Y189.07 E.50863
G1 X44.865 Y189.467 E.0154
G1 X31.759 Y189.467 E.50863
G1 X31.759 Y189.863 E.0154
G1 X44.865 Y189.863 E.50863
G1 X44.865 Y190.26 E.0154
G1 X31.759 Y190.26 E.50863
G1 X31.759 Y190.657 E.0154
G1 X44.865 Y190.657 E.50863
G1 X44.865 Y191.054 E.0154
G1 X31.759 Y191.054 E.50863
G1 X31.759 Y191.451 E.0154
G1 X44.865 Y191.451 E.50863
G1 X44.865 Y191.848 E.0154
G1 X31.759 Y191.848 E.50863
G1 X31.759 Y192.245 E.0154
G1 X44.865 Y192.245 E.50863
G1 X44.865 Y192.642 E.0154
G1 X31.759 Y192.642 E.50863
G1 X31.759 Y193.039 E.0154
G1 X44.865 Y193.039 E.50863
G1 X44.865 Y193.435 E.0154
G1 X31.759 Y193.435 E.50863
G1 X31.759 Y193.832 E.0154
G1 X44.865 Y193.832 E.50863
G1 X44.865 Y194.229 E.0154
G1 X31.759 Y194.229 E.50863
G1 X31.759 Y194.626 E.0154
G1 X44.865 Y194.626 E.50863
G1 X44.865 Y195.023 E.0154
G1 X31.759 Y195.023 E.50863
G1 X31.759 Y195.42 E.0154
G1 X44.865 Y195.42 E.50863
G1 X44.865 Y195.817 E.0154
G1 X31.759 Y195.817 E.50863
G1 X31.759 Y196.214 E.0154
G1 X44.865 Y196.214 E.50863
