; HEADER_BLOCK_START
; generated by OrcaSlicer-WaveOverhangs 2.4.0-dev on 2026-05-21 at 12:45:22
; WAVE_OVERHANG_BUILD wave_overhangs_version=dev orca_base=2.4.0-dev
; WAVE_OVERHANG_CONFIG region=0 algo=andersons outer_perim=1 spacing=0.440 flow_mm3_per_mm=0.230 speed=2.0 travel=40.0 fan=100 floor_layers=2 min_angle=0.0 min_length=0.00 max_iterations=0 ring_overlap=0.15 pattern=zigzag spacing_mode=uniform seam_mode=alternating perimeter_overlap=0.20 minimum_wave_width=0.70 min_new_area=0.0100 corner_enable=0 corner_spacing=0.000 corner_taper=0.00 corner_angle=90 end_retract=0.80 nozzle_temp_override=0 min_wave_time=0.00 min_layer_time=0.00 wall_loops=2 top_shell_layers=5 bottom_shell_layers=4 infill_density=15 infill_pattern=rectilinear support_remainder=1 instead_of_bridges=0
; total layer number: 50
; filament_density: 1.04
; filament_diameter: 1.75
; max_z_height: 11.96
; filament: 1
; HEADER_BLOCK_END

; THUMBNAIL_BLOCK_START

;
; THUMBNAIL_BLOCK_END

; external perimeters extrusion width = 0.42mm
; perimeters extrusion width = 0.45mm
; infill extrusion width = 0.44mm
; solid infill extrusion width = 0.44mm
; top infill extrusion width = 0.38mm
; first layer extrusion width = 0.42mm

; EXECUTABLE_BLOCK_START
EXCLUDE_OBJECT_DEFINE NAME=FTS_Baseline.STL_id_0_copy_0 CENTER=125,125 POLYGON=[[110,142.5],[110,107.5],[125,107.5],[140,127.5],[140,142.5],[110,142.5]]
M73 P0 R13
M106 S0
M106 P2 S0
;TYPE:Custom
G9111 bedTemp=105 extruderTemp=260
M117
G90
G21
M83 ; use relative distances for extrusion
; Filament gcode
M106 S0
M106 P2 S0
;LAYER_CHANGE
;Z:0.2
;HEIGHT:0.2
 ; PURGE LINE
M204 P500
SET_VELOCITY_LIMIT SQUARE_CORNER_VELOCITY=9
G1 Z0.50 F900 ; for object exclusion
G1 X89.365 Y255 F18000
G1 Z.25 F900
G1 E0.8 F2400
G1 E0.6
G1 F3000
G1 X158.835 Y255 E3.72454
G1 X158.835 Y255.45 E.0252
G1 X89.365 Y255.45 E3.72454
G1 X89.365 Y255.02 E.02305
G1 Z0.5 F600

G1 E-.8 F2400
; AFTER_LAYER_CHANGE 0 @ 0.2mm
;_SET_FAN_SPEED_CHANGING_LAYER
SET_VELOCITY_LIMIT ACCEL=2000 ACCEL_TO_DECEL=1000
G1 X108.206 Y105.796 F24000
G1 Z.56
G1 Z.16
G1 E.8 F2400
;TYPE:Skirt
;WIDTH:0.42
G1 F3000
G1 X108.883 Y105.19 E.02638
G1 X110 Y104.934 E.03326
G1 X125 Y104.934 E.43551
G1 X126.363 Y105.327 E.04119
G1 X127.31 Y106.383 E.04119
G1 X127.566 Y107.5 E.03326
G1 X127.566 Y122.5 E.43551
G1 X127.173 Y123.863 E.04119
G1 X126.117 Y124.81 E.04119
G1 X125 Y125.066 E.03326
G1 X110 Y125.066 E.43551
G1 X108.637 Y124.673 E.04119
G1 X107.69 Y123.617 E.04119
G1 X107.434 Y122.5 E.03326
G1 X107.434 Y107.5 E.43551
G1 X107.827 Y106.137 E.04119
G1 X108.177 Y105.823 E.01365
G1 X108.394 Y106.103 F24000
G1 F3000
G1 X109.235 Y105.449 E.03093
G1 X110 Y105.311 E.02256
G1 X125 Y105.311 E.43551
G1 X126.248 Y105.702 E.03798
G1 X127.051 Y106.735 E.03798
G1 X127.189 Y107.5 E.02256
G1 X127.189 Y122.5 E.43551
G1 X126.798 Y123.748 E.03798
G1 X125.765 Y124.551 E.03798
G1 X125 Y124.689 E.02256
G1 X110 Y124.689 E.43551
G1 X108.752 Y124.298 E.03798
G1 X107.949 Y123.265 E.03798
G1 X107.811 Y122.5 E.02256
G1 X107.811 Y107.5 E.43551
G1 X108.202 Y106.252 E.03798
G1 X108.362 Y106.127 E.00589
; printing object FTS_Baseline.STL id:0 copy 0
;WIPE_START
G1 X109.152 Y105.514 E-.8
;WIPE_END
EXCLUDE_OBJECT_START NAME=FTS_Baseline.STL_id_0_copy_0
G1 X114.354 Y111.099 Z.56 F24000
G1 X124.59 Y122.09 Z.56
M73 P1 R13
G1 Z.16
G1 E.8 F2400
;TYPE:Outer wall
;WIDTH:0.419999
G1 F4800
G1 X110.41 Y122.09 E.4117
G1 X110.41 Y107.91 E.4117
G1 X124.59 Y107.91 E.4117
G1 X124.59 Y122.05 E.41054
G1 X124.213 Y121.713 F24000
;TYPE:Inner wall
G1 F4800
G1 X110.787 Y121.713 E.38981
G1 X110.787 Y108.287 E.38981
G1 X124.213 Y108.287 E.38981
G1 X124.213 Y121.673 E.38865
G1 E-.3 F2400
;WIPE_START
G1 F4800
G1 X123.213 Y121.676 E-.5
;WIPE_END
G1 X123.728 Y114.061 Z.56 F24000
G1 X124.1 Y108.571 Z.56
G1 Z.16
G1 E.8 F2400
;TYPE:Bottom surface
;WIDTH:0.421128
G1 F7200
G1 X111.07 Y108.571 E.37944
G1 X111.07 Y108.949 E.01101
G1 X123.93 Y108.949 E.3745
G1 X123.93 Y109.327 E.01101
G1 X111.07 Y109.327 E.3745
G1 X111.07 Y109.705 E.01101
G1 X123.93 Y109.705 E.3745
G1 X123.93 Y110.083 E.01101
G1 X111.07 Y110.083 E.3745
G1 X111.07 Y110.462 E.01101
G1 X123.93 Y110.462 E.3745
G1 X123.93 Y110.84 E.01101
G1 X111.07 Y110.84 E.3745
G1 X111.07 Y111.218 E.01101
G1 X123.93 Y111.218 E.3745
G1 X123.93 Y111.596 E.01101
G1 X111.07 Y111.596 E.3745
G1 X111.07 Y111.974 E.01101
G1 X123.93 Y111.974 E.3745
G1 X123.93 Y112.353 E.01101
G1 X111.07 Y112.353 E.3745
G1 X111.07 Y112.731 E.01101
G1 X123.93 Y112.731 E.3745
G1 X123.93 Y113.109 E.01101
G1 X111.07 Y113.109 E.3745
G1 X111.07 Y113.487 E.01101
G1 X123.93 Y113.487 E.3745
G1 X123.93 Y113.865 E.01101
G1 X111.07 Y113.865 E.3745
G1 X111.07 Y114.244 E.01101
G1 X123.93 Y114.244 E.3745
G1 X123.93 Y114.622 E.01101
G1 X111.07 Y114.622 E.3745
G1 X111.07 Y115 E.01101
G1 X123.93 Y115 E.3745
G1 X123.93 Y115.378 E.01101
G1 X111.07 Y115.378 E.3745
G1 X111.07 Y115.756 E.01101
G1 X123.93 Y115.756 E.3745
G1 X123.93 Y116.135 E.01101
G1 X111.07 Y116.135 E.3745
G1 X111.07 Y116.513 E.01101
G1 X123.93 Y116.513 E.3745
G1 X123.93 Y116.891 E.01101
G1 X111.07 Y116.891 E.3745
G1 X111.07 Y117.269 E.01101
G1 X123.93 Y117.269 E.3745
G1 X123.93 Y117.647 E.01101
G1 X111.07 Y117.647 E.3745
G1 X111.07 Y118.026 E.01101
G1 X123.93 Y118.026 E.3745
G1 X123.93 Y118.404 E.01101
G1 X111.07 Y118.404 E.3745
G1 X111.07 Y118.782 E.01101
G1 X123.93 Y118.782 E.3745
G1 X123.93 Y119.16 E.01101
G1 X111.07 Y119.16 E.3745
G1 X111.07 Y119.539 E.01101
G1 X123.93 Y119.539 E.3745
G1 X123.93 Y119.917 E.01101
G1 X111.07 Y119.917 E.3745
G1 X111.07 Y120.295 E.01101
G1 X123.93 Y120.295 E.3745
G1 X123.93 Y120.673 E.01101
G1 X111.07 Y120.673 E.3745
G1 X111.07 Y121.051 E.01101
G1 X123.93 Y121.051 E.3745
G1 X123.93 Y121.43 E.01101
M73 P2 R13
G1 X110.9 Y121.43 E.37944
; stop printing object FTS_Baseline.STL id:0 copy 0
;LAYER_CHANGE
;Z:0.44
;HEIGHT:0.24

G1 E-.46667 F2400
;WIPE_START
G1 F7200
G1 X111.9 Y121.43 E-.33333
;WIPE_END
EXCLUDE_OBJECT_END NAME=FTS_Baseline.STL_id_0_copy_0
; AFTER_LAYER_CHANGE 1 @ 0.44mm
;_SET_FAN_SPEED_CHANGING_LAYER
SET_VELOCITY_LIMIT ACCEL=15000 ACCEL_TO_DECEL=7500
M104 S250 ; set nozzle temperature
M140 S100 ; set bed temperature
G1 X111.9 Y125.066 Z.8 F24000
G1 Z.4
G1 E.8 F2400
;TYPE:Skirt
;WIDTH:0.42
G1 F3000
G1 X110 Y125.066 E.0647
G1 X108.637 Y124.673 E.0483
G1 X107.69 Y123.617 E.0483
G1 X107.434 Y122.5 E.03901
G1 X107.434 Y107.5 E.51072
G1 X107.827 Y106.137 E.0483
G1 X108.883 Y105.19 E.0483
G1 X110 Y104.934 E.03901
G1 X125 Y104.934 E.51072
G1 X126.363 Y105.327 E.0483
G1 X127.31 Y106.383 E.0483
G1 X127.566 Y107.5 E.03901
G1 X127.566 Y122.5 E.51072
G1 X127.173 Y123.863 E.0483
G1 X126.117 Y124.81 E.0483
G1 X125 Y125.066 E.03901
G1 X111.94 Y125.066 E.44466
G1 X111.94 Y124.689 F24000
G1 F3000
G1 X110 Y124.689 E.06606
G1 X108.752 Y124.298 E.04453
G1 X107.949 Y123.265 E.04453
G1 X107.811 Y122.5 E.02646
G1 X107.811 Y107.5 E.51072
G1 X108.202 Y106.252 E.04453
G1 X109.235 Y105.449 E.04453
G1 X110 Y105.311 E.02646
G1 X125 Y105.311 E.51072
G1 X126.248 Y105.702 E.04453
G1 X127.051 Y106.735 E.04453
G1 X127.189 Y107.5 E.02646
G1 X127.189 Y122.5 E.51072
G1 X126.798 Y123.748 E.04453
G1 X125.765 Y124.551 E.04453
G1 X125 Y124.689 E.02646
G1 X111.98 Y124.689 E.44329
; printing object FTS_Baseline.STL id:0 copy 0
;WIPE_START
G1 X110.98 Y124.689 E-.8
;WIPE_END
EXCLUDE_OBJECT_START NAME=FTS_Baseline.STL_id_0_copy_0
G1 X118.5 Y123.382 Z.8 F24000
G1 X124.79 Y122.29 Z.8
G1 Z.4
G1 E.8 F2400
SET_VELOCITY_LIMIT ACCEL=13000 ACCEL_TO_DECEL=6500
;TYPE:Outer wall
;WIDTH:0.419999
G1 F12000
G1 X110.21 Y122.29 E.49642
G1 X110.21 Y107.71 E.49642
G1 X124.79 Y107.71 E.49642
G1 X124.79 Y122.25 E.49505
SET_VELOCITY_LIMIT ACCEL=15000 ACCEL_TO_DECEL=7500
G1 X124.407 Y121.907 F24000
;TYPE:Inner wall
;WIDTH:0.449999
G1 F14227.397
G1 X110.593 Y121.907 E.50859
G1 X110.593 Y108.093 E.50859
G1 X124.407 Y108.093 E.50859
G1 X124.407 Y121.867 E.50712
G1 X124.049 Y121.728 F24000
;TYPE:Internal solid infill
;WIDTH:0.448392
G1 F14285.005
G1 X124.049 Y108.447 E.48701
G1 X123.652 Y108.447 E.01455
G1 X123.652 Y121.553 E.4806
G1 X123.255 Y121.553 E.01455
G1 X123.255 Y108.447 E.4806
G1 X122.858 Y108.447 E.01455
G1 X122.858 Y121.553 E.4806
G1 X122.461 Y121.553 E.01455
G1 X122.461 Y108.447 E.4806
G1 X122.064 Y108.447 E.01455
G1 X122.064 Y121.553 E.4806
G1 X121.667 Y121.553 E.01455
G1 X121.667 Y108.447 E.4806
G1 X121.27 Y108.447 E.01455
G1 X121.27 Y121.553 E.4806
G1 X120.874 Y121.553 E.01455
G1 X120.874 Y108.447 E.4806
G1 X120.477 Y108.447 E.01455
G1 X120.477 Y121.553 E.4806
G1 X120.08 Y121.553 E.01455
G1 X120.08 Y108.447 E.4806
G1 X119.683 Y108.447 E.01455
G1 X119.683 Y121.553 E.4806
G1 X119.286 Y121.553 E.01455
G1 X119.286 Y108.447 E.4806
G1 X118.889 Y108.447 E.01455
G1 X118.889 Y121.553 E.4806
G1 X118.492 Y121.553 E.01455
G1 X118.492 Y108.447 E.4806
G1 X118.095 Y108.447 E.01455
G1 X118.095 Y121.553 E.4806
G1 X117.698 Y121.553 E.01455
G1 X117.698 Y108.447 E.4806
G1 X117.302 Y108.447 E.01455
G1 X117.302 Y121.553 E.4806
G1 X116.905 Y121.553 E.01455
G1 X116.905 Y108.447 E.4806
G1 X116.508 Y108.447 E.01455
G1 X116.508 Y121.553 E.4806
G1 X116.111 Y121.553 E.01455
G1 X116.111 Y108.447 E.4806
G1 X115.714 Y108.447 E.01455
G1 X115.714 Y121.553 E.4806
G1 X115.317 Y121.553 E.01455
G1 X115.317 Y108.447 E.4806
G1 X114.92 Y108.447 E.01455
G1 X114.92 Y121.553 E.4806
G1 X114.523 Y121.553 E.01455
G1 X114.523 Y108.447 E.4806
G1 X114.126 Y108.447 E.01455
G1 X114.126 Y121.553 E.4806
G1 X113.73 Y121.553 E.01455
G1 X113.73 Y108.447 E.4806
G1 X113.333 Y108.447 E.01455
G1 X113.333 Y121.553 E.4806
G1 X112.936 Y121.553 E.01455
G1 X112.936 Y108.447 E.4806
G1 X112.539 Y108.447 E.01455
G1 X112.539 Y121.553 E.4806
G1 X112.142 Y121.553 E.01455
G1 X112.142 Y108.447 E.4806
G1 X111.745 Y108.447 E.01455
G1 X111.745 Y121.553 E.4806
G1 X111.348 Y121.553 E.01455
G1 X111.348 Y108.447 E.4806
G1 X110.951 Y108.447 E.01455
G1 X110.951 Y121.728 E.48701
; stop printing object FTS_Baseline.STL id:0 copy 0
;LAYER_CHANGE
;Z:0.68
;HEIGHT:0.24

G1 E-.63199 F2400
;WIPE_START
G1 F14285.005
G1 X110.951 Y120.728 E-.16801
;WIPE_END
EXCLUDE_OBJECT_END NAME=FTS_Baseline.STL_id_0_copy_0
; AFTER_LAYER_CHANGE 2 @ 0.68mm
;_SET_FAN_SPEED_CHANGING_LAYER
; printing object FTS_Baseline.STL id:0 copy 0
EXCLUDE_OBJECT_START NAME=FTS_Baseline.STL_id_0_copy_0
G1 X118.536 Y121.584 Z1.04 F24000
G1 X124.79 Y122.29 Z1.04
G1 Z.64
G1 E.8 F2400
SET_VELOCITY_LIMIT ACCEL=13000 ACCEL_TO_DECEL=6500
;TYPE:Outer wall
;WIDTH:0.419999
G1 F11656
G1 X110.21 Y122.29 E.49642
G1 X110.21 Y107.71 E.49642
G1 X124.79 Y107.71 E.49642
G1 X124.79 Y122.25 E.49505
SET_VELOCITY_LIMIT ACCEL=15000 ACCEL_TO_DECEL=7500
G1 X124.407 Y121.907 F24000
;TYPE:Inner wall
;WIDTH:0.449999
G1 F11656
G1 X110.593 Y121.907 E.50859
G1 X110.593 Y108.093 E.50859
G1 X124.407 Y108.093 E.50859
G1 X124.407 Y121.867 E.50712
G1 X124.228 Y108.451 F24000
;TYPE:Internal solid infill
;WIDTH:0.448392
G1 F11656
G1 X110.947 Y108.451 E.48701
G1 X110.947 Y108.848 E.01455
G1 X124.053 Y108.848 E.4806
G1 X124.053 Y109.245 E.01455
G1 X110.947 Y109.245 E.4806
G1 X110.947 Y109.642 E.01455
G1 X124.053 Y109.642 E.4806
G1 X124.053 Y110.039 E.01455
G1 X110.947 Y110.039 E.4806
G1 X110.947 Y110.436 E.01455
M73 P3 R13
G1 X124.053 Y110.436 E.4806
G1 X124.053 Y110.833 E.01455
G1 X110.947 Y110.833 E.4806
G1 X110.947 Y111.23 E.01455
G1 X124.053 Y111.23 E.4806
G1 X124.053 Y111.626 E.01455
G1 X110.947 Y111.626 E.4806
G1 X110.947 Y112.023 E.01455
G1 X124.053 Y112.023 E.4806
G1 X124.053 Y112.42 E.01455
G1 X110.947 Y112.42 E.4806
G1 X110.947 Y112.817 E.01455
G1 X124.053 Y112.817 E.4806
G1 X124.053 Y113.214 E.01455
G1 X110.947 Y113.214 E.4806
G1 X110.947 Y113.611 E.01455
G1 X124.053 Y113.611 E.4806
G1 X124.053 Y114.008 E.01455
G1 X110.947 Y114.008 E.4806
G1 X110.947 Y114.405 E.01455
G1 X124.053 Y114.405 E.4806
G1 X124.053 Y114.802 E.01455
G1 X110.947 Y114.802 E.4806
G1 X110.947 Y115.198 E.01455
G1 X124.053 Y115.198 E.4806
G1 X124.053 Y115.595 E.01455
G1 X110.947 Y115.595 E.4806
G1 X110.947 Y115.992 E.01455
G1 X124.053 Y115.992 E.4806
G1 X124.053 Y116.389 E.01455
G1 X110.947 Y116.389 E.4806
G1 X110.947 Y116.786 E.01455
G1 X124.053 Y116.786 E.4806
G1 X124.053 Y117.183 E.01455
G1 X110.947 Y117.183 E.4806
G1 X110.947 Y117.58 E.01455
G1 X124.053 Y117.58 E.4806
G1 X124.053 Y117.977 E.01455
G1 X110.947 Y117.977 E.4806
G1 X110.947 Y118.374 E.01455
G1 X124.053 Y118.374 E.4806
G1 X124.053 Y118.77 E.01455
G1 X110.947 Y118.77 E.4806
G1 X110.947 Y119.167 E.01455
G1 X124.053 Y119.167 E.4806
G1 X124.053 Y119.564 E.01455
G1 X110.947 Y119.564 E.4806
G1 X110.947 Y119.961 E.01455
G1 X124.053 Y119.961 E.4806
G1 X124.053 Y120.358 E.01455
G1 X110.947 Y120.358 E.4806
G1 X110.947 Y120.755 E.01455
G1 X124.053 Y120.755 E.4806
G1 X124.053 Y121.152 E.01455
G1 X110.947 Y121.152 E.4806
G1 X110.947 Y121.549 E.01455
G1 X124.228 Y121.549 E.48701
; stop printing object FTS_Baseline.STL id:0 copy 0
M106 S201
;LAYER_CHANGE
;Z:0.92
;HEIGHT:0.24

G1 E-.63199 F2400
;WIPE_START
G1 F14285.005
G1 X123.228 Y121.549 E-.16801
;WIPE_END
EXCLUDE_OBJECT_END NAME=FTS_Baseline.STL_id_0_copy_0
; AFTER_LAYER_CHANGE 3 @ 0.92mm
;_SET_FAN_SPEED_CHANGING_LAYER
; printing object FTS_Baseline.STL id:0 copy 0
EXCLUDE_OBJECT_START NAME=FTS_Baseline.STL_id_0_copy_0
G1 X124.79 Y122.29 Z1.28 F24000
G1 Z.88
G1 E.8 F2400
SET_VELOCITY_LIMIT ACCEL=13000 ACCEL_TO_DECEL=6500
;TYPE:Outer wall
;WIDTH:0.419999
G1 F11484
G1 X110.21 Y122.29 E.49642
G1 X110.21 Y107.71 E.49642
G1 X124.79 Y107.71 E.49642
G1 X124.79 Y122.25 E.49505
SET_VELOCITY_LIMIT ACCEL=15000 ACCEL_TO_DECEL=7500
G1 X124.407 Y121.907 F24000
;TYPE:Inner wall
;WIDTH:0.449999
G1 F11484
G1 X110.593 Y121.907 E.50859
G1 X110.593 Y108.093 E.50859
G1 X124.407 Y108.093 E.50859
G1 X124.407 Y121.867 E.50712
G1 X124.049 Y121.728 F24000
;TYPE:Internal solid infill
;WIDTH:0.448392
G1 F11484
G1 X124.049 Y108.447 E.48701
G1 X123.652 Y108.447 E.01455
G1 X123.652 Y121.553 E.4806
G1 X123.255 Y121.553 E.01455
G1 X123.255 Y108.447 E.4806
G1 X122.858 Y108.447 E.01455
G1 X122.858 Y121.553 E.4806
G1 X122.461 Y121.553 E.01455
G1 X122.461 Y108.447 E.4806
G1 X122.064 Y108.447 E.01455
G1 X122.064 Y121.553 E.4806
G1 X121.667 Y121.553 E.01455
G1 X121.667 Y108.447 E.4806
G1 X121.27 Y108.447 E.01455
G1 X121.27 Y121.553 E.4806
G1 X120.874 Y121.553 E.01455
G1 X120.874 Y108.447 E.4806
G1 X120.477 Y108.447 E.01455
G1 X120.477 Y121.553 E.4806
G1 X120.08 Y121.553 E.01455
G1 X120.08 Y108.447 E.4806
G1 X119.683 Y108.447 E.01455
G1 X119.683 Y121.553 E.4806
G1 X119.286 Y121.553 E.01455
G1 X119.286 Y108.447 E.4806
G1 X118.889 Y108.447 E.01455
G1 X118.889 Y121.553 E.4806
G1 X118.492 Y121.553 E.01455
G1 X118.492 Y108.447 E.4806
G1 X118.095 Y108.447 E.01455
G1 X118.095 Y121.553 E.4806
G1 X117.698 Y121.553 E.01455
G1 X117.698 Y108.447 E.4806
G1 X117.302 Y108.447 E.01455
G1 X117.302 Y121.553 E.4806
G1 X116.905 Y121.553 E.01455
G1 X116.905 Y108.447 E.4806
G1 X116.508 Y108.447 E.01455
G1 X116.508 Y121.553 E.4806
G1 X116.111 Y121.553 E.01455
G1 X116.111 Y108.447 E.4806
G1 X115.714 Y108.447 E.01455
G1 X115.714 Y121.553 E.4806
G1 X115.317 Y121.553 E.01455
G1 X115.317 Y108.447 E.4806
G1 X114.92 Y108.447 E.01455
G1 X114.92 Y121.553 E.4806
G1 X114.523 Y121.553 E.01455
G1 X114.523 Y108.447 E.4806
G1 X114.126 Y108.447 E.01455
G1 X114.126 Y121.553 E.4806
G1 X113.73 Y121.553 E.01455
G1 X113.73 Y108.447 E.4806
G1 X113.333 Y108.447 E.01455
G1 X113.333 Y121.553 E.4806
G1 X112.936 Y121.553 E.01455
G1 X112.936 Y108.447 E.4806
G1 X112.539 Y108.447 E.01455
G1 X112.539 Y121.553 E.4806
G1 X112.142 Y121.553 E.01455
G1 X112.142 Y108.447 E.4806
G1 X111.745 Y108.447 E.01455
G1 X111.745 Y121.553 E.4806
G1 X111.348 Y121.553 E.01455
G1 X111.348 Y108.447 E.4806
G1 X110.951 Y108.447 E.01455
G1 X110.951 Y121.728 E.48701
; stop printing object FTS_Baseline.STL id:0 copy 0
;LAYER_CHANGE
;Z:1.16
;HEIGHT:0.24

G1 E-.63199 F2400
;WIPE_START
G1 F14285.005
G1 X110.951 Y120.728 E-.16801
;WIPE_END
EXCLUDE_OBJECT_END NAME=FTS_Baseline.STL_id_0_copy_0
; AFTER_LAYER_CHANGE 4 @ 1.16mm
;_SET_FAN_SPEED_CHANGING_LAYER
; printing object FTS_Baseline.STL id:0 copy 0
EXCLUDE_OBJECT_START NAME=FTS_Baseline.STL_id_0_copy_0
