; HEADER_BLOCK_START
; generated by OrcaSlicer-WaveOverhangs 2.4.0-dev on 2026-05-21 at 13:50:37
; WAVE_OVERHANG_BUILD wave_overhangs_version=dev orca_base=2.4.0-dev
; WAVE_OVERHANG_CONFIG region=0 algo=andersons outer_perim=1 spacing=0.440 flow_mm3_per_mm=0.230 speed=2.0 travel=40.0 fan=100 floor_layers=2 min_angle=0.0 min_length=0.00 max_iterations=0 ring_overlap=0.15 pattern=zigzag spacing_mode=uniform seam_mode=alternating perimeter_overlap=0.20 minimum_wave_width=0.70 min_new_area=0.0100 corner_enable=0 corner_spacing=0.000 corner_taper=0.00 corner_angle=90 end_retract=0.80 nozzle_temp_override=0 min_wave_time=0.00 min_layer_time=0.00 wall_loops=2 top_shell_layers=5 bottom_shell_layers=4 infill_density=15 infill_pattern=rectilinear support_remainder=1 instead_of_bridges=0
; total layer number: 88
; filament_density: 1.04
; filament_diameter: 1.75
; max_z_height: 21.08
; filament: 1
; HEADER_BLOCK_END

; THUMBNAIL_BLOCK_START

;
; THUMBNAIL_BLOCK_END

; external perimeters extrusion width = 0.42mm
; perimeters extrusion width = 0.45mm
; infill extrusion width = 0.44mm
; solid infill extrusion width = 0.44mm
; top infill extrusion width = 0.38mm
; first layer extrusion width = 0.42mm

; EXECUTABLE_BLOCK_START
EXCLUDE_OBJECT_DEFINE NAME=FTS_Curved_Incline.stl_id_0_copy_0 CENTER=125,125 POLYGON=[[99.2947,104.647],[114.295,104.647],[150.705,119.647],[150.534,122.232],[150.111,124.783],[149.442,127.276],[148.532,129.687],[147.392,131.993],[146.034,134.173],[144.472,136.206],[142.72,138.073],[140.798,139.756],[138.723,141.24],[136.516,142.512],[134.199,143.559],[131.795,144.372],[129.327,144.945],[126.819,145.273],[124.295,145.353],[121.779,145.185],[119.297,144.772],[116.871,144.119],[114.525,143.233],[112.281,142.123],[110.161,140.801],[108.183,139.279],[106.368,137.574],[104.731,135.703],[103.288,133.684],[102.052,131.536],[101.035,129.282],[100.245,126.943],[99.6886,124.542],[99.3712,122.102],[99.2947,119.647],[99.2947,104.647]]
M73 P0 R26
M106 S0
M106 P2 S0
;TYPE:Custom
G9111 bedTemp=105 extruderTemp=260
M117
G90
G21
M83 ; use relative distances for extrusion
; Filament gcode
M106 S0
M106 P2 S0
;LAYER_CHANGE
;Z:0.2
;HEIGHT:0.2
 ; PURGE LINE
M204 P500
SET_VELOCITY_LIMIT SQUARE_CORNER_VELOCITY=9
G1 Z0.50 F900 ; for object exclusion
G1 X89.365 Y255 F18000
G1 Z.25 F900
G1 E0.8 F2400
G1 E0.6
G1 F3000
G1 X158.835 Y255 E3.72454
G1 X158.835 Y255.45 E.0252
G1 X89.365 Y255.45 E3.72454
G1 X89.365 Y255.02 E.02305
G1 Z0.5 F600

G1 E-.8 F2400
; AFTER_LAYER_CHANGE 0 @ 0.2mm
;_SET_FAN_SPEED_CHANGING_LAYER
SET_VELOCITY_LIMIT ACCEL=2000 ACCEL_TO_DECEL=1000
G1 X97.501 Y102.944 F24000
G1 Z.56
G1 Z.16
G1 E.8 F2400
;TYPE:Skirt
;WIDTH:0.42
G1 F3000
G1 X98.178 Y102.338 E.02638
G1 X99.295 Y102.082 E.03326
G1 X114.295 Y102.082 E.43551
G1 X115.658 Y102.474 E.04119
G1 X116.605 Y103.531 E.04119
G1 X116.86 Y104.647 E.03326
G1 X116.86 Y119.647 E.43551
G1 X116.468 Y121.011 E.04119
G1 X115.411 Y121.957 E.04119
G1 X114.295 Y122.213 E.03326
G1 X99.295 Y122.213 E.43551
G1 X97.931 Y121.821 E.04119
G1 X96.985 Y120.764 E.04119
G1 X96.729 Y119.647 E.03326
G1 X96.729 Y104.647 E.43551
G1 X97.121 Y103.284 E.04119
G1 X97.471 Y102.97 E.01365
G1 X97.689 Y103.25 F24000
G1 F3000
G1 X98.53 Y102.597 E.03093
G1 X99.295 Y102.459 E.02256
G1 X114.295 Y102.459 E.43551
G1 X115.543 Y102.85 E.03798
G1 X116.345 Y103.883 E.03798
G1 X116.483 Y104.647 E.02256
G1 X116.483 Y119.647 E.43551
G1 X116.092 Y120.896 E.03798
G1 X115.059 Y121.698 E.03798
G1 X114.295 Y121.836 E.02256
G1 X99.295 Y121.836 E.43551
G1 X98.046 Y121.445 E.03798
G1 X97.244 Y120.412 E.03798
G1 X97.106 Y119.647 E.02256
G1 X97.106 Y104.647 E.43551
G1 X97.497 Y103.399 E.03798
G1 X97.657 Y103.275 E.00589
; printing object FTS_Curved_Incline.stl id:0 copy 0
;WIPE_START
G1 X98.447 Y102.661 E-.8
;WIPE_END
EXCLUDE_OBJECT_START NAME=FTS_Curved_Incline.stl_id_0_copy_0
G1 X103.649 Y108.247 Z.56 F24000
G1 X113.885 Y119.237 Z.56
G1 Z.16
G1 E.8 F2400
;TYPE:Outer wall
;WIDTH:0.419999
G1 F4800
G1 X99.705 Y119.237 E.4117
G1 X99.705 Y105.057 E.4117
G1 X113.885 Y105.057 E.4117
G1 X113.885 Y119.197 E.41054
G1 X113.508 Y118.86 F24000
;TYPE:Inner wall
G1 F4800
G1 X100.082 Y118.86 E.38981
G1 X100.082 Y105.434 E.38981
G1 X113.508 Y105.434 E.38981
G1 X113.508 Y118.82 E.38865
G1 E-.3 F2400
;WIPE_START
G1 F4800
G1 X112.508 Y118.823 E-.5
;WIPE_END
G1 X113.023 Y111.208 Z.56 F24000
G1 X113.394 Y105.718 Z.56
G1 Z.16
G1 E.8 F2400
;TYPE:Bottom surface
;WIDTH:0.421128
G1 F4800
G1 X100.365 Y105.718 E.37944
G1 X100.365 Y106.096 E.01101
G1 X113.225 Y106.096 E.3745
G1 X113.225 Y106.474 E.01101
G1 X100.365 Y106.474 E.3745
G1 X100.365 Y106.852 E.01101
G1 X113.225 Y106.852 E.3745
G1 X113.225 Y107.231 E.01101
G1 X100.365 Y107.231 E.3745
G1 X100.365 Y107.609 E.01101
G1 X113.225 Y107.609 E.3745
G1 X113.225 Y107.987 E.01101
G1 X100.365 Y107.987 E.3745
G1 X100.365 Y108.365 E.01101
G1 X113.225 Y108.365 E.3745
G1 X113.225 Y108.744 E.01101
G1 X100.365 Y108.744 E.3745
G1 X100.365 Y109.122 E.01101
G1 X113.225 Y109.122 E.3745
G1 X113.225 Y109.5 E.01101
G1 X100.365 Y109.5 E.3745
G1 X100.365 Y109.878 E.01101
G1 X113.225 Y109.878 E.3745
G1 X113.225 Y110.256 E.01101
G1 X100.365 Y110.256 E.3745
G1 X100.365 Y110.635 E.01101
G1 X113.225 Y110.635 E.3745
G1 X113.225 Y111.013 E.01101
G1 X100.365 Y111.013 E.3745
G1 X100.365 Y111.391 E.01101
G1 X113.225 Y111.391 E.3745
G1 X113.225 Y111.769 E.01101
G1 X100.365 Y111.769 E.3745
G1 X100.365 Y112.147 E.01101
G1 X113.225 Y112.147 E.3745
G1 X113.225 Y112.526 E.01101
G1 X100.365 Y112.526 E.3745
G1 X100.365 Y112.904 E.01101
G1 X113.225 Y112.904 E.3745
G1 X113.225 Y113.282 E.01101
G1 X100.365 Y113.282 E.3745
G1 X100.365 Y113.66 E.01101
G1 X113.225 Y113.66 E.3745
G1 X113.225 Y114.038 E.01101
G1 X100.365 Y114.038 E.3745
G1 X100.365 Y114.417 E.01101
G1 X113.225 Y114.417 E.3745
G1 X113.225 Y114.795 E.01101
G1 X100.365 Y114.795 E.3745
G1 X100.365 Y115.173 E.01101
G1 X113.225 Y115.173 E.3745
G1 X113.225 Y115.551 E.01101
M73 P1 R26
G1 X100.365 Y115.551 E.3745
G1 X100.365 Y115.929 E.01101
G1 X113.225 Y115.929 E.3745
G1 X113.225 Y116.308 E.01101
G1 X100.365 Y116.308 E.3745
G1 X100.365 Y116.686 E.01101
G1 X113.225 Y116.686 E.3745
G1 X113.225 Y117.064 E.01101
G1 X100.365 Y117.064 E.3745
G1 X100.365 Y117.442 E.01101
G1 X113.225 Y117.442 E.3745
G1 X113.225 Y117.821 E.01101
G1 X100.365 Y117.821 E.3745
G1 X100.365 Y118.199 E.01101
G1 X113.225 Y118.199 E.3745
G1 X113.225 Y118.577 E.01101
G1 X100.195 Y118.577 E.37944
; stop printing object FTS_Curved_Incline.stl id:0 copy 0
;LAYER_CHANGE
;Z:0.44
;HEIGHT:0.24

G1 E-.3 F2400
;WIPE_START
G1 F4800
G1 X101.195 Y118.577 E-.5
;WIPE_END
EXCLUDE_OBJECT_END NAME=FTS_Curved_Incline.stl_id_0_copy_0
; AFTER_LAYER_CHANGE 1 @ 0.44mm
;_SET_FAN_SPEED_CHANGING_LAYER
SET_VELOCITY_LIMIT ACCEL=15000 ACCEL_TO_DECEL=7500
M104 S250 ; set nozzle temperature
M140 S100 ; set bed temperature
G1 X101.195 Y122.213 Z.8 F24000
G1 Z.4
G1 E.8 F2400
;TYPE:Skirt
;WIDTH:0.42
G1 F3000
G1 X99.295 Y122.213 E.0647
G1 X97.931 Y121.821 E.0483
G1 X96.985 Y120.764 E.0483
G1 X96.729 Y119.647 E.03901
G1 X96.729 Y104.647 E.51072
G1 X97.121 Y103.284 E.0483
G1 X98.178 Y102.338 E.0483
G1 X99.295 Y102.082 E.03901
G1 X114.295 Y102.082 E.51072
G1 X115.658 Y102.474 E.0483
M73 P1 R25
G1 X116.605 Y103.531 E.0483
G1 X116.86 Y104.647 E.03901
G1 X116.86 Y119.647 E.51072
G1 X116.468 Y121.011 E.0483
G1 X115.411 Y121.957 E.0483
G1 X114.295 Y122.213 E.03901
G1 X101.235 Y122.213 E.44466
G1 X101.235 Y121.836 F24000
G1 F3000
G1 X99.295 Y121.836 E.06606
G1 X98.046 Y121.445 E.04453
G1 X97.244 Y120.412 E.04453
G1 X97.106 Y119.647 E.02646
G1 X97.106 Y104.647 E.51072
G1 X97.497 Y103.399 E.04453
G1 X98.53 Y102.597 E.04453
G1 X99.295 Y102.459 E.02646
G1 X114.295 Y102.459 E.51072
G1 X115.543 Y102.85 E.04453
G1 X116.345 Y103.883 E.04453
G1 X116.483 Y104.647 E.02646
G1 X116.483 Y119.647 E.51072
G1 X116.092 Y120.896 E.04453
G1 X115.059 Y121.698 E.04453
G1 X114.295 Y121.836 E.02646
G1 X101.275 Y121.836 E.44329
; printing object FTS_Curved_Incline.stl id:0 copy 0
;WIPE_START
G1 X100.275 Y121.836 E-.8
;WIPE_END
EXCLUDE_OBJECT_START NAME=FTS_Curved_Incline.stl_id_0_copy_0
G1 X107.795 Y120.53 Z.8 F24000
G1 X114.085 Y119.437 Z.8
G1 Z.4
G1 E.8 F2400
SET_VELOCITY_LIMIT ACCEL=13000 ACCEL_TO_DECEL=6500
;TYPE:Outer wall
;WIDTH:0.419999
G1 F4800
G1 X99.505 Y119.437 E.49642
G1 X99.505 Y104.857 E.49642
G1 X114.085 Y104.857 E.49642
G1 X114.085 Y119.397 E.49505
SET_VELOCITY_LIMIT ACCEL=15000 ACCEL_TO_DECEL=7500
G1 X113.701 Y119.054 F24000
;TYPE:Inner wall
;WIDTH:0.449999
G1 F4800
G1 X99.888 Y119.054 E.50859
G1 X99.888 Y105.241 E.50859
G1 X113.701 Y105.241 E.50859
G1 X113.701 Y119.014 E.50712
G1 X113.343 Y118.875 F24000
;TYPE:Internal solid infill
;WIDTH:0.448392
G1 F4800
G1 X113.343 Y105.594 E.48701
G1 X112.946 Y105.594 E.01455
G1 X112.946 Y118.7 E.4806
G1 X112.55 Y118.7 E.01455
G1 X112.55 Y105.594 E.4806
G1 X112.153 Y105.594 E.01455
G1 X112.153 Y118.7 E.4806
G1 X111.756 Y118.7 E.01455
G1 X111.756 Y105.594 E.4806
G1 X111.359 Y105.594 E.01455
G1 X111.359 Y118.7 E.4806
G1 X110.962 Y118.7 E.01455
G1 X110.962 Y105.594 E.4806
G1 X110.565 Y105.594 E.01455
G1 X110.565 Y118.7 E.4806
G1 X110.168 Y118.7 E.01455
G1 X110.168 Y105.594 E.4806
G1 X109.771 Y105.594 E.01455
G1 X109.771 Y118.7 E.4806
G1 X109.374 Y118.7 E.01455
G1 X109.374 Y105.594 E.4806
G1 X108.978 Y105.594 E.01455
G1 X108.978 Y118.7 E.4806
G1 X108.581 Y118.7 E.01455
G1 X108.581 Y105.594 E.4806
G1 X108.184 Y105.594 E.01455
G1 X108.184 Y118.7 E.4806
G1 X107.787 Y118.7 E.01455
G1 X107.787 Y105.594 E.4806
G1 X107.39 Y105.594 E.01455
G1 X107.39 Y118.7 E.4806
G1 X106.993 Y118.7 E.01455
G1 X106.993 Y105.594 E.4806
G1 X106.596 Y105.594 E.01455
G1 X106.596 Y118.7 E.4806
G1 X106.199 Y118.7 E.01455
G1 X106.199 Y105.594 E.4806
G1 X105.802 Y105.594 E.01455
G1 X105.802 Y118.7 E.4806
G1 X105.406 Y118.7 E.01455
G1 X105.406 Y105.594 E.4806
G1 X105.009 Y105.594 E.01455
G1 X105.009 Y118.7 E.4806
G1 X104.612 Y118.7 E.01455
G1 X104.612 Y105.594 E.4806
G1 X104.215 Y105.594 E.01455
G1 X104.215 Y118.7 E.4806
G1 X103.818 Y118.7 E.01455
G1 X103.818 Y105.594 E.4806
G1 X103.421 Y105.594 E.01455
G1 X103.421 Y118.7 E.4806
G1 X103.024 Y118.7 E.01455
G1 X103.024 Y105.594 E.4806
G1 X102.627 Y105.594 E.01455
G1 X102.627 Y118.7 E.4806
G1 X102.23 Y118.7 E.01455
G1 X102.23 Y105.594 E.4806
G1 X101.834 Y105.594 E.01455
G1 X101.834 Y118.7 E.4806
G1 X101.437 Y118.7 E.01455
G1 X101.437 Y105.594 E.4806
G1 X101.04 Y105.594 E.01455
G1 X101.04 Y118.7 E.4806
G1 X100.643 Y118.7 E.01455
G1 X100.643 Y105.594 E.4806
G1 X100.246 Y105.594 E.01455
G1 X100.246 Y118.875 E.48701
; stop printing object FTS_Curved_Incline.stl id:0 copy 0
;LAYER_CHANGE
;Z:0.68
;HEIGHT:0.24

G1 E-.3 F2400
;WIPE_START
G1 F4800
G1 X100.246 Y117.875 E-.5
;WIPE_END
EXCLUDE_OBJECT_END NAME=FTS_Curved_Incline.stl_id_0_copy_0
; AFTER_LAYER_CHANGE 2 @ 0.68mm
;_SET_FAN_SPEED_CHANGING_LAYER
; printing object FTS_Curved_Incline.stl id:0 copy 0
EXCLUDE_OBJECT_START NAME=FTS_Curved_Incline.stl_id_0_copy_0
G1 X107.83 Y118.731 Z1.04 F24000
G1 X114.085 Y119.437 Z1.04
G1 Z.64
G1 E.8 F2400
SET_VELOCITY_LIMIT ACCEL=13000 ACCEL_TO_DECEL=6500
;TYPE:Outer wall
;WIDTH:0.419999
G1 F4800
G1 X99.505 Y119.437 E.49642
G1 X99.505 Y104.857 E.49642
G1 X114.085 Y104.857 E.49642
G1 X114.085 Y119.397 E.49505
SET_VELOCITY_LIMIT ACCEL=15000 ACCEL_TO_DECEL=7500
G1 X113.701 Y119.054 F24000
;TYPE:Inner wall
;WIDTH:0.449999
G1 F4800
G1 X99.888 Y119.054 E.50859
G1 X99.888 Y105.241 E.50859
G1 X113.701 Y105.241 E.50859
G1 X113.701 Y119.014 E.50712
G1 X113.522 Y105.599 F24000
;TYPE:Internal solid infill
;WIDTH:0.448392
G1 F4800
G1 X100.242 Y105.599 E.48701
G1 X100.242 Y105.996 E.01455
G1 X113.348 Y105.996 E.4806
G1 X113.348 Y106.393 E.01455
G1 X100.242 Y106.393 E.4806
G1 X100.242 Y106.789 E.01455
G1 X113.348 Y106.789 E.4806
G1 X113.348 Y107.186 E.01455
G1 X100.242 Y107.186 E.4806
G1 X100.242 Y107.583 E.01455
G1 X113.348 Y107.583 E.4806
G1 X113.348 Y107.98 E.01455
G1 X100.242 Y107.98 E.4806
G1 X100.242 Y108.377 E.01455
G1 X113.348 Y108.377 E.4806
G1 X113.348 Y108.774 E.01455
M73 P2 R25
G1 X100.242 Y108.774 E.4806
G1 X100.242 Y109.171 E.01455
G1 X113.348 Y109.171 E.4806
G1 X113.348 Y109.568 E.01455
G1 X100.242 Y109.568 E.4806
G1 X100.242 Y109.965 E.01455
G1 X113.348 Y109.965 E.4806
G1 X113.348 Y110.361 E.01455
G1 X100.242 Y110.361 E.4806
G1 X100.242 Y110.758 E.01455
G1 X113.348 Y110.758 E.4806
G1 X113.348 Y111.155 E.01455
G1 X100.242 Y111.155 E.4806
G1 X100.242 Y111.552 E.01455
G1 X113.348 Y111.552 E.4806
G1 X113.348 Y111.949 E.01455
G1 X100.242 Y111.949 E.4806
G1 X100.242 Y112.346 E.01455
G1 X113.348 Y112.346 E.4806
G1 X113.348 Y112.743 E.01455
G1 X100.242 Y112.743 E.4806
G1 X100.242 Y113.14 E.01455
G1 X113.348 Y113.14 E.4806
G1 X113.348 Y113.536 E.01455
G1 X100.242 Y113.536 E.4806
G1 X100.242 Y113.933 E.01455
G1 X113.348 Y113.933 E.4806
G1 X113.348 Y114.33 E.01455
G1 X100.242 Y114.33 E.4806
G1 X100.242 Y114.727 E.01455
G1 X113.348 Y114.727 E.4806
G1 X113.348 Y115.124 E.01455
G1 X100.242 Y115.124 E.4806
G1 X100.242 Y115.521 E.01455
G1 X113.348 Y115.521 E.4806
G1 X113.348 Y115.918 E.01455
G1 X100.242 Y115.918 E.4806
G1 X100.242 Y116.315 E.01455
G1 X113.348 Y116.315 E.4806
G1 X113.348 Y116.712 E.01455
G1 X100.242 Y116.712 E.4806
G1 X100.242 Y117.108 E.01455
G1 X113.348 Y117.108 E.4806
G1 X113.348 Y117.505 E.01455
G1 X100.242 Y117.505 E.4806
G1 X100.242 Y117.902 E.01455
G1 X113.348 Y117.902 E.4806
G1 X113.348 Y118.299 E.01455
G1 X100.242 Y118.299 E.4806
G1 X100.242 Y118.696 E.01455
G1 X113.522 Y118.696 E.48701
; stop printing object FTS_Curved_Incline.stl id:0 copy 0
M106 S176
;LAYER_CHANGE
;Z:0.92
;HEIGHT:0.24

G1 E-.3 F2400
;WIPE_START
G1 F4800
G1 X112.522 Y118.696 E-.5
;WIPE_END
EXCLUDE_OBJECT_END NAME=FTS_Curved_Incline.stl_id_0_copy_0
; AFTER_LAYER_CHANGE 3 @ 0.92mm
;_SET_FAN_SPEED_CHANGING_LAYER
; printing object FTS_Curved_Incline.stl id:0 copy 0
EXCLUDE_OBJECT_START NAME=FTS_Curved_Incline.stl_id_0_copy_0
G1 X114.085 Y119.437 Z1.28 F24000
G1 Z.88
G1 E.8 F2400
SET_VELOCITY_LIMIT ACCEL=13000 ACCEL_TO_DECEL=6500
;TYPE:Outer wall
;WIDTH:0.419999
G1 F4800
G1 X99.505 Y119.437 E.49642
G1 X99.505 Y104.857 E.49642
G1 X114.085 Y104.857 E.49642
G1 X114.085 Y119.397 E.49505
SET_VELOCITY_LIMIT ACCEL=15000 ACCEL_TO_DECEL=7500
G1 X113.701 Y119.054 F24000
;TYPE:Inner wall
;WIDTH:0.449999
G1 F4800
G1 X99.888 Y119.054 E.50859
G1 X99.888 Y105.241 E.50859
G1 X113.701 Y105.241 E.50859
G1 X113.701 Y119.014 E.50712
G1 X113.343 Y118.875 F24000
;TYPE:Internal solid infill
;WIDTH:0.448392
G1 F4800
G1 X113.343 Y105.594 E.48701
G1 X112.946 Y105.594 E.01455
G1 X112.946 Y118.7 E.4806
G1 X112.55 Y118.7 E.01455
G1 X112.55 Y105.594 E.4806
G1 X112.153 Y105.594 E.01455
G1 X112.153 Y118.7 E.4806
G1 X111.756 Y118.7 E.01455
G1 X111.756 Y105.594 E.4806
G1 X111.359 Y105.594 E.01455
G1 X111.359 Y118.7 E.4806
G1 X110.962 Y118.7 E.01455
G1 X110.962 Y105.594 E.4806
G1 X110.565 Y105.594 E.01455
G1 X110.565 Y118.7 E.4806
G1 X110.168 Y118.7 E.01455
G1 X110.168 Y105.594 E.4806
G1 X109.771 Y105.594 E.01455
G1 X109.771 Y118.7 E.4806
G1 X109.374 Y118.7 E.01455
G1 X109.374 Y105.594 E.4806
G1 X108.978 Y105.594 E.01455
G1 X108.978 Y118.7 E.4806
G1 X108.581 Y118.7 E.01455
G1 X108.581 Y105.594 E.4806
G1 X108.184 Y105.594 E.01455
G1 X108.184 Y118.7 E.4806
G1 X107.787 Y118.7 E.01455
G1 X107.787 Y105.594 E.4806
G1 X107.39 Y105.594 E.01455
G1 X107.39 Y118.7 E.4806
G1 X106.993 Y118.7 E.01455
G1 X106.993 Y105.594 E.4806
G1 X106.596 Y105.594 E.01455
G1 X106.596 Y118.7 E.4806
G1 X106.199 Y118.7 E.01455
G1 X106.199 Y105.594 E.4806
G1 X105.802 Y105.594 E.01455
G1 X105.802 Y118.7 E.4806
G1 X105.406 Y118.7 E.01455
G1 X105.406 Y105.594 E.4806
G1 X105.009 Y105.594 E.01455
G1 X105.009 Y118.7 E.4806
G1 X104.612 Y118.7 E.01455
G1 X104.612 Y105.594 E.4806
G1 X104.215 Y105.594 E.01455
G1 X104.215 Y118.7 E.4806
G1 X103.818 Y118.7 E.01455
G1 X103.818 Y105.594 E.4806
G1 X103.421 Y105.594 E.01455
G1 X103.421 Y118.7 E.4806
G1 X103.024 Y118.7 E.01455
G1 X103.024 Y105.594 E.4806
G1 X102.627 Y105.594 E.01455
G1 X102.627 Y118.7 E.4806
G1 X102.23 Y118.7 E.01455
G1 X102.23 Y105.594 E.4806
