; HEADER_BLOCK_START
; generated by OrcaSlicer-WaveOverhangs 2.4.0-dev on 2026-05-21 at 14:29:56
; WAVE_OVERHANG_BUILD wave_overhangs_version=dev orca_base=2.4.0-dev
; WAVE_OVERHANG_CONFIG region=0 algo=andersons outer_perim=1 spacing=0.440 flow_mm3_per_mm=0.230 speed=2.0 travel=40.0 fan=100 floor_layers=2 min_angle=0.0 min_length=0.00 max_iterations=0 ring_overlap=0.15 pattern=zigzag spacing_mode=uniform seam_mode=alternating perimeter_overlap=0.20 minimum_wave_width=0.70 min_new_area=0.0100 corner_enable=0 corner_spacing=0.000 corner_taper=0.00 corner_angle=90 end_retract=0.80 nozzle_temp_override=0 min_wave_time=0.00 min_layer_time=0.00 wall_loops=2 top_shell_layers=5 bottom_shell_layers=4 infill_density=15 infill_pattern=rectilinear support_remainder=1 instead_of_bridges=0
; total layer number: 54
; filament_density: 1.04
; filament_diameter: 1.75
; max_z_height: 12.92
; filament: 1
; HEADER_BLOCK_END

; THUMBNAIL_BLOCK_START

;
; THUMBNAIL_BLOCK_END

; external perimeters extrusion width = 0.42mm
; perimeters extrusion width = 0.45mm
; infill extrusion width = 0.44mm
; solid infill extrusion width = 0.44mm
; top infill extrusion width = 0.38mm
; first layer extrusion width = 0.42mm

; EXECUTABLE_BLOCK_START
EXCLUDE_OBJECT_DEFINE NAME=FTS_Loop_Narrow.STL_id_0_copy_0 CENTER=125,125 POLYGON=[[97.587,122.5],[118.072,113],[131.928,113],[152.413,122.5],[152.413,127.5],[131.928,137],[118.072,137],[97.587,127.5],[97.587,122.5]]
M73 P0 R11
M106 S0
M106 P2 S0
;TYPE:Custom
G9111 bedTemp=105 extruderTemp=260
M117
G90
G21
M83 ; use relative distances for extrusion
; Filament gcode
M106 S0
M106 P2 S0
;LAYER_CHANGE
;Z:0.2
;HEIGHT:0.2
 ; PURGE LINE
M204 P500
SET_VELOCITY_LIMIT SQUARE_CORNER_VELOCITY=9
G1 Z0.50 F900 ; for object exclusion
G1 X89.365 Y255 F18000
G1 Z.25 F900
G1 E0.8 F2400
G1 E0.6
G1 F3000
G1 X158.835 Y255 E3.72454
G1 X158.835 Y255.45 E.0252
G1 X89.365 Y255.45 E3.72454
G1 X89.365 Y255.02 E.02305
G1 Z0.5 F600

G1 E-.8 F2400
; AFTER_LAYER_CHANGE 0 @ 0.2mm
;_SET_FAN_SPEED_CHANGING_LAYER
SET_VELOCITY_LIMIT ACCEL=2000 ACCEL_TO_DECEL=1000
G1 X116.563 Y114.482 F24000
G1 Z.56
G1 Z.16
G1 E.8 F2400
;TYPE:Skirt
;WIDTH:0.42
G1 F3000
G1 X117.005 Y113.717 E.02564
G1 X118.026 Y112.733 E.04119
G1 X119.226 Y112.434 E.03592
G1 X130.774 Y112.434 E.33526
G1 X132.137 Y112.827 E.04119
G1 X132.995 Y113.717 E.03592
G1 X138.769 Y123.717 E.33526
G1 X139.111 Y125.094 E.04119
G1 X138.769 Y126.283 E.03592
G1 X132.995 Y136.283 E.33526
G1 X131.974 Y137.267 E.04119
G1 X130.774 Y137.566 E.03592
G1 X119.226 Y137.566 E.33526
G1 X117.863 Y137.173 E.04119
G1 X117.005 Y136.283 E.03592
G1 X111.231 Y126.283 E.33526
G1 X110.889 Y124.906 E.04119
G1 X111.231 Y123.717 E.03592
G1 X116.543 Y114.517 E.30845
G1 X116.87 Y114.705 F24000
G1 F3000
G1 X117.331 Y113.906 E.0268
G1 X118.294 Y113.02 E.03798
G1 X119.226 Y112.811 E.02775
G1 X130.774 Y112.811 E.33526
G1 X132.022 Y113.202 E.03798
G1 X132.669 Y113.906 E.02775
G1 X138.442 Y123.906 E.33526
G1 X138.728 Y125.182 E.03798
M73 P1 R11
G1 X138.442 Y126.094 E.02775
G1 X132.669 Y136.094 E.33526
G1 X131.706 Y136.98 E.03798
G1 X130.774 Y137.189 E.02775
G1 X119.226 Y137.189 E.33526
G1 X117.978 Y136.798 E.03798
G1 X117.331 Y136.094 E.02775
G1 X111.558 Y126.094 E.33526
G1 X111.272 Y124.818 E.03798
G1 X111.558 Y123.906 E.02775
G1 X116.85 Y114.74 E.30729
; printing object FTS_Loop_Narrow.STL id:0 copy 0
;WIPE_START
G1 X117.331 Y113.906 E-.77054
G1 X117.358 Y113.881 E-.02946
;WIPE_END
EXCLUDE_OBJECT_START NAME=FTS_Loop_Narrow.STL_id_0_copy_0
G1 X124.94 Y114.761 Z.56 F24000
G1 X130.537 Y115.41 Z.56
G1 Z.16
G1 E.8 F2400
;TYPE:Outer wall
;WIDTH:0.419999
G1 F4800
G1 X136.074 Y125 E.32151
G1 X130.537 Y134.59 E.32151
G1 X119.463 Y134.59 E.32151
G1 X113.926 Y125 E.32151
G1 X119.463 Y115.41 E.32151
G1 X130.497 Y115.41 E.32035
G1 X130.319 Y115.787 F24000
;TYPE:Inner wall
G1 F4800
G1 X135.638 Y125 E.30887
G1 X130.319 Y134.213 E.30887
G1 X119.681 Y134.213 E.30887
G1 X114.362 Y125 E.30887
G1 X119.681 Y115.787 E.30887
G1 X130.279 Y115.787 E.30771
G1 E-.3 F2400
;WIPE_START
G1 F4800
G1 X130.782 Y116.651 E-.5
;WIPE_END
G1 X123.16 Y116.254 Z.56 F24000
G1 X119.647 Y116.071 Z.56
G1 Z.16
G1 E.8 F2400
;TYPE:Bottom surface
;WIDTH:0.422863
G1 F4800
G1 X130.157 Y116.071 E.30744
G1 X130.376 Y116.451 E.01283
G1 X119.624 Y116.451 E.31455
G1 X119.405 Y116.831 E.01283
G1 X130.595 Y116.831 E.32738
G1 X130.815 Y117.211 E.01283
G1 X119.185 Y117.211 E.34022
G1 X118.966 Y117.591 E.01283
G1 X131.034 Y117.591 E.35305
G1 X131.253 Y117.971 E.01283
G1 X118.747 Y117.971 E.36588
G1 X118.527 Y118.351 E.01283
G1 X131.473 Y118.351 E.37872
G1 X131.692 Y118.731 E.01283
G1 X118.308 Y118.731 E.39155
G1 X118.088 Y119.111 E.01283
G1 X131.912 Y119.111 E.40439
G1 X132.131 Y119.491 E.01283
G1 X117.869 Y119.491 E.41722
G1 X117.65 Y119.871 E.01283
G1 X132.35 Y119.871 E.43006
G1 X132.57 Y120.251 E.01283
G1 X117.43 Y120.251 E.44289
G1 X117.211 Y120.631 E.01283
G1 X132.789 Y120.631 E.45573
G1 X133.008 Y121.011 E.01283
G1 X116.992 Y121.011 E.46856
G1 X116.772 Y121.391 E.01283
G1 X133.228 Y121.391 E.4814
G1 X133.447 Y121.771 E.01283
G1 X116.553 Y121.771 E.49423
G1 X116.334 Y122.15 E.01283
M73 P2 R11
G1 X133.666 Y122.15 E.50706
G1 X133.886 Y122.53 E.01283
G1 X116.114 Y122.53 E.5199
G1 X115.895 Y122.91 E.01283
G1 X134.105 Y122.91 E.53273
G1 X134.325 Y123.29 E.01283
G1 X115.675 Y123.29 E.54557
G1 X115.456 Y123.67 E.01283
G1 X134.544 Y123.67 E.5584
G1 X134.763 Y124.05 E.01283
G1 X115.237 Y124.05 E.57124
G1 X115.017 Y124.43 E.01283
G1 X134.983 Y124.43 E.58407
G1 X135.202 Y124.81 E.01283
G1 X114.798 Y124.81 E.59691
G1 X114.688 Y125 E.00642
G1 X114.798 Y125.19 E.00642
G1 X135.202 Y125.19 E.5969
G1 X134.983 Y125.57 E.01283
G1 X115.017 Y125.57 E.58407
G1 X115.237 Y125.95 E.01283
G1 X134.763 Y125.95 E.57124
G1 X134.544 Y126.33 E.01283
G1 X115.456 Y126.33 E.5584
G1 X115.676 Y126.71 E.01283
G1 X134.324 Y126.71 E.54557
G1 X134.105 Y127.09 E.01283
G1 X115.895 Y127.09 E.53273
G1 X116.114 Y127.47 E.01283
G1 X133.886 Y127.47 E.5199
G1 X133.666 Y127.85 E.01283
G1 X116.334 Y127.85 E.50706
G1 X116.553 Y128.23 E.01283
G1 X133.447 Y128.23 E.49423
G1 X133.228 Y128.609 E.01283
G1 X116.772 Y128.609 E.48139
G1 X116.992 Y128.989 E.01283
G1 X133.008 Y128.989 E.46856
G1 X132.789 Y129.369 E.01283
G1 X117.211 Y129.369 E.45572
G1 X117.43 Y129.749 E.01283
G1 X132.57 Y129.749 E.44289
G1 X132.35 Y130.129 E.01283
G1 X117.65 Y130.129 E.43006
G1 X117.869 Y130.509 E.01283
G1 X132.131 Y130.509 E.41722
G1 X131.912 Y130.889 E.01283
G1 X118.088 Y130.889 E.40439
G1 X118.308 Y131.269 E.01283
G1 X131.692 Y131.269 E.39155
G1 X131.473 Y131.649 E.01283
G1 X118.527 Y131.649 E.37872
G1 X118.747 Y132.029 E.01283
G1 X131.253 Y132.029 E.36588
G1 X131.034 Y132.409 E.01283
M73 P3 R11
G1 X118.966 Y132.409 E.35305
G1 X119.185 Y132.789 E.01283
G1 X130.815 Y132.789 E.34021
G1 X130.595 Y133.169 E.01283
G1 X119.405 Y133.169 E.32738
G1 X119.624 Y133.549 E.01283
G1 X130.376 Y133.549 E.31454
G1 X130.157 Y133.929 E.01283
G1 X119.647 Y133.929 E.30744
; stop printing object FTS_Loop_Narrow.STL id:0 copy 0
;LAYER_CHANGE
;Z:0.44
;HEIGHT:0.24

G1 E-.3 F2400
;WIPE_START
G1 F4800
G1 X120.647 Y133.929 E-.5
;WIPE_END
EXCLUDE_OBJECT_END NAME=FTS_Loop_Narrow.STL_id_0_copy_0
; AFTER_LAYER_CHANGE 1 @ 0.44mm
;_SET_FAN_SPEED_CHANGING_LAYER
SET_VELOCITY_LIMIT ACCEL=15000 ACCEL_TO_DECEL=7500
M104 S250 ; set nozzle temperature
M140 S100 ; set bed temperature
G1 X120.647 Y137.566 Z.8 F24000
G1 Z.4
G1 E.8 F2400
;TYPE:Skirt
;WIDTH:0.42
G1 F3000
G1 X119.226 Y137.566 E.04838
G1 X117.863 Y137.173 E.0483
G1 X117.005 Y136.283 E.04212
G1 X111.231 Y126.283 E.39315
G1 X110.889 Y124.906 E.0483
G1 X111.231 Y123.717 E.04212
G1 X117.005 Y113.717 E.39315
G1 X118.026 Y112.733 E.0483
G1 X119.226 Y112.434 E.04212
G1 X130.774 Y112.434 E.39315
G1 X132.137 Y112.827 E.0483
G1 X132.995 Y113.717 E.04212
G1 X138.769 Y123.717 E.39315
G1 X139.111 Y125.094 E.0483
G1 X138.769 Y126.283 E.04212
G1 X132.995 Y136.283 E.39315
G1 X131.974 Y137.267 E.0483
G1 X130.774 Y137.566 E.04212
G1 X120.687 Y137.566 E.34341
G1 X120.687 Y137.189 F24000
G1 F3000
G1 X119.226 Y137.189 E.04974
G1 X117.978 Y136.798 E.04453
G1 X117.331 Y136.094 E.03254
G1 X111.558 Y126.094 E.39315
G1 X111.272 Y124.818 E.04453
G1 X111.558 Y123.906 E.03254
G1 X117.331 Y113.906 E.39315
G1 X118.294 Y113.02 E.04453
G1 X119.226 Y112.811 E.03254
G1 X130.774 Y112.811 E.39315
G1 X132.022 Y113.202 E.04453
G1 X132.669 Y113.906 E.03254
G1 X138.442 Y123.906 E.39315
G1 X138.728 Y125.182 E.04453
G1 X138.442 Y126.094 E.03254
G1 X132.669 Y136.094 E.39315
G1 X131.706 Y136.98 E.04453
G1 X130.774 Y137.189 E.03254
G1 X120.727 Y137.189 E.34205
; printing object FTS_Loop_Narrow.STL id:0 copy 0
;WIPE_START
G1 X119.727 Y137.189 E-.8
;WIPE_END
EXCLUDE_OBJECT_START NAME=FTS_Loop_Narrow.STL_id_0_copy_0
G1 X123.125 Y130.354 Z.8 F24000
G1 X130.652 Y115.21 Z.8
G1 Z.4
G1 E.8 F2400
SET_VELOCITY_LIMIT ACCEL=13000 ACCEL_TO_DECEL=6500
;TYPE:Outer wall
;WIDTH:0.419999
G1 F4800
G1 X136.305 Y125 E.38489
G1 X130.652 Y134.79 E.38489
G1 X119.348 Y134.79 E.38489
G1 X113.695 Y125 E.38489
G1 X119.348 Y115.21 E.38489
G1 X130.612 Y115.21 E.38353
SET_VELOCITY_LIMIT ACCEL=15000 ACCEL_TO_DECEL=7500
G1 X130.431 Y115.593 F24000
;TYPE:Inner wall
;WIDTH:0.449999
G1 F4800
G1 X135.862 Y125 E.39992
G1 X130.431 Y134.407 E.39992
G1 X119.569 Y134.407 E.39992
G1 X114.138 Y125 E.39992
G1 X119.569 Y115.593 E.39992
G1 X130.391 Y115.593 E.39845
G1 X135.084 Y124.011 F24000
;TYPE:Internal solid infill
;WIDTH:0.446972
G1 F4800
G1 X135.084 Y125.639 E.05948
G1 X134.689 Y126.324 E.0289
G1 X134.689 Y123.676 E.09676
G1 X134.293 Y122.991 E.0289
G1 X134.293 Y127.009 E.14682
G1 X133.898 Y127.694 E.0289
G1 X133.898 Y122.306 E.19687
G1 X133.503 Y121.621 E.0289
G1 X133.503 Y128.379 E.24693
G1 X133.107 Y129.064 E.0289
G1 X133.107 Y120.936 E.29699
G1 X132.712 Y120.251 E.0289
G1 X132.712 Y129.749 E.34705
G1 X132.316 Y130.434 E.0289
M73 P4 R11
G1 X132.316 Y119.566 E.3971
G1 X131.921 Y118.881 E.0289
G1 X131.921 Y131.119 E.44716
G1 X131.525 Y131.804 E.0289
G1 X131.525 Y118.196 E.49722
G1 X131.13 Y117.511 E.0289
G1 X131.13 Y132.489 E.54728
G1 X130.734 Y133.174 E.0289
G1 X130.734 Y116.826 E.59733
G1 X130.339 Y116.141 E.0289
G1 X130.339 Y133.859 E.64739
G1 X130.227 Y134.053 E.00819
G1 X129.943 Y134.053 E.01035
G1 X129.943 Y115.947 E.66158
G1 X129.548 Y115.947 E.01445
G1 X129.548 Y134.053 E.66158
G1 X129.152 Y134.053 E.01445
G1 X129.152 Y115.947 E.66158
G1 X128.757 Y115.947 E.01445
G1 X128.757 Y134.053 E.66158
G1 X128.361 Y134.053 E.01445
G1 X128.361 Y115.947 E.66158
G1 X127.966 Y115.947 E.01445
G1 X127.966 Y134.053 E.66158
G1 X127.57 Y134.053 E.01445
G1 X127.57 Y115.947 E.66158
G1 X127.175 Y115.947 E.01445
G1 X127.175 Y134.053 E.66158
G1 X126.78 Y134.053 E.01445
G1 X126.78 Y115.947 E.66158
G1 X126.384 Y115.947 E.01445
G1 X126.384 Y134.053 E.66158
G1 X125.989 Y134.053 E.01445
G1 X125.989 Y115.947 E.66158
G1 X125.593 Y115.947 E.01445
G1 X125.593 Y134.053 E.66158
G1 X125.198 Y134.053 E.01445
G1 X125.198 Y115.947 E.66158
G1 X124.802 Y115.947 E.01445
G1 X124.802 Y134.053 E.66158
G1 X124.407 Y134.053 E.01445
G1 X124.407 Y115.947 E.66158
G1 X124.011 Y115.947 E.01445
G1 X124.011 Y134.053 E.66158
G1 X123.616 Y134.053 E.01445
G1 X123.616 Y115.947 E.66158
G1 X123.22 Y115.947 E.01445
G1 X123.22 Y134.053 E.66158
G1 X122.825 Y134.053 E.01445
G1 X122.825 Y115.947 E.66158
G1 X122.429 Y115.947 E.01445
G1 X122.429 Y134.053 E.66158
G1 X122.034 Y134.053 E.01445
G1 X122.034 Y115.947 E.66158
G1 X121.638 Y115.947 E.01445
G1 X121.638 Y134.053 E.66158
G1 X121.243 Y134.053 E.01445
G1 X121.243 Y115.947 E.66158
G1 X120.848 Y115.947 E.01445
G1 X120.848 Y134.053 E.66158
G1 X120.452 Y134.053 E.01445
G1 X120.452 Y115.947 E.66158
G1 X120.057 Y115.947 E.01445
G1 X120.057 Y134.053 E.66158
G1 X119.773 Y134.053 E.01035
M73 P5 R11
G1 X119.661 Y133.859 E.0082
G1 X119.661 Y116.141 E.64738
G1 X119.266 Y116.826 E.0289
G1 X119.266 Y133.174 E.59732
G1 X118.87 Y132.489 E.0289
G1 X118.87 Y117.511 E.54727
G1 X118.475 Y118.196 E.0289
G1 X118.475 Y131.804 E.49721
G1 X118.079 Y131.119 E.0289
G1 X118.079 Y118.881 E.44715
G1 X117.684 Y119.566 E.0289
G1 X117.684 Y130.434 E.39709
G1 X117.288 Y129.749 E.0289
G1 X117.288 Y120.251 E.34704
G1 X116.893 Y120.936 E.0289
G1 X116.893 Y129.064 E.29698
G1 X116.497 Y128.379 E.0289
G1 X116.497 Y121.621 E.24692
G1 X116.102 Y122.306 E.0289
G1 X116.102 Y127.694 E.19686
G1 X115.706 Y127.009 E.0289
G1 X115.706 Y122.991 E.14681
G1 X115.311 Y123.676 E.0289
G1 X115.311 Y126.324 E.09675
G1 X114.916 Y125.639 E.0289
G1 X114.916 Y124.011 E.05947
; stop printing object FTS_Loop_Narrow.STL id:0 copy 0
;LAYER_CHANGE
;Z:0.68
;HEIGHT:0.24

G1 E-.3 F2400
;WIPE_START
G1 F4800
G1 X114.916 Y125.011 E-.5
;WIPE_END
EXCLUDE_OBJECT_END NAME=FTS_Loop_Narrow.STL_id_0_copy_0
; AFTER_LAYER_CHANGE 2 @ 0.68mm
;_SET_FAN_SPEED_CHANGING_LAYER
; printing object FTS_Loop_Narrow.STL id:0 copy 0
EXCLUDE_OBJECT_START NAME=FTS_Loop_Narrow.STL_id_0_copy_0
G1 X121.394 Y120.976 Z1.04 F24000
G1 X130.652 Y115.21 Z1.04
G1 Z.64
G1 E.8 F2400
SET_VELOCITY_LIMIT ACCEL=13000 ACCEL_TO_DECEL=6500
;TYPE:Outer wall
;WIDTH:0.419999
G1 F4800
G1 X136.305 Y125 E.38489
G1 X130.652 Y134.79 E.38489
G1 X119.348 Y134.79 E.38489
G1 X113.695 Y125 E.38489
G1 X119.348 Y115.21 E.38489
G1 X130.612 Y115.21 E.38353
SET_VELOCITY_LIMIT ACCEL=15000 ACCEL_TO_DECEL=7500
G1 X130.431 Y115.593 F24000
;TYPE:Inner wall
;WIDTH:0.449999
G1 F4800
G1 X135.862 Y125 E.39992
G1 X130.431 Y134.407 E.39992
G1 X119.569 Y134.407 E.39992
G1 X114.138 Y125 E.39992
G1 X119.569 Y115.593 E.39992
G1 X130.391 Y115.593 E.39845
G1 X130.43 Y115.95 F24000
;TYPE:Internal solid infill
;WIDTH:0.444997
G1 F4800
G1 X119.772 Y115.95 E.3875
G1 X119.545 Y116.343 E.01652
G1 X130.455 Y116.343 E.39668
G1 X130.683 Y116.737 E.01652
G1 X119.317 Y116.737 E.4132
G1 X119.09 Y117.13 E.01652
G1 X130.91 Y117.13 E.42972
G1 X131.137 Y117.524 E.01652
G1 X118.863 Y117.524 E.44624
G1 X118.636 Y117.917 E.01652
G1 X131.364 Y117.917 E.46276
G1 X131.591 Y118.311 E.01652
G1 X118.409 Y118.311 E.47928
G1 X118.182 Y118.704 E.01652
G1 X131.818 Y118.704 E.4958
G1 X132.046 Y119.098 E.01652
G1 X117.954 Y119.098 E.51232
G1 X117.727 Y119.491 E.01652
G1 X132.273 Y119.491 E.52884
G1 X132.5 Y119.885 E.01652
G1 X117.5 Y119.885 E.54536
G1 X117.273 Y120.278 E.01652
G1 X132.727 Y120.278 E.56188
G1 X132.954 Y120.672 E.01652
G1 X117.046 Y120.672 E.5784
G1 X116.818 Y121.065 E.01652
G1 X133.182 Y121.065 E.59492
G1 X133.409 Y121.459 E.01652
G1 X116.591 Y121.459 E.61144
G1 X116.364 Y121.852 E.01652
G1 X133.636 Y121.852 E.62796
G1 X133.863 Y122.246 E.01652
G1 X116.137 Y122.246 E.64448
G1 X115.91 Y122.639 E.01652
G1 X134.09 Y122.639 E.661
G1 X134.317 Y123.033 E.01652
M73 P6 R11
G1 X115.683 Y123.033 E.67752
G1 X115.455 Y123.426 E.01652
G1 X134.545 Y123.426 E.69404
G1 X134.772 Y123.82 E.01652
G1 X115.228 Y123.82 E.71056
G1 X115.001 Y124.213 E.01652
G1 X134.999 Y124.213 E.72708
G1 X135.226 Y124.607 E.01652
G1 X114.774 Y124.607 E.7436
G1 X114.547 Y125 E.01652
G1 X135.453 Y125 E.76011
G1 X135.226 Y125.394 E.01652
G1 X114.774 Y125.394 E.74359
G1 X115.001 Y125.787 E.01652
G1 X134.999 Y125.787 E.72707
G1 X134.772 Y126.181 E.01652
G1 X115.228 Y126.181 E.71055
G1 X115.455 Y126.574 E.01652
G1 X134.545 Y126.574 E.69403
G1 X134.317 Y126.967 E.01652
G1 X115.683 Y126.967 E.67751
G1 X115.91 Y127.361 E.01652
G1 X134.09 Y127.361 E.66099
G1 X133.863 Y127.754 E.01652
G1 X116.137 Y127.754 E.64448
G1 X116.364 Y128.148 E.01652
G1 X133.636 Y128.148 E.62796
G1 X133.409 Y128.541 E.01652
G1 X116.591 Y128.541 E.61144
G1 X116.819 Y128.935 E.01652
G1 X133.181 Y128.935 E.59492
G1 X132.954 Y129.328 E.01652
G1 X117.046 Y129.328 E.5784
G1 X117.273 Y129.722 E.01652
G1 X132.727 Y129.722 E.56188
G1 X132.5 Y130.115 E.01652
G1 X117.5 Y130.115 E.54536
G1 X117.727 Y130.509 E.01652
G1 X132.273 Y130.509 E.52884
G1 X132.046 Y130.902 E.01652
G1 X117.954 Y130.902 E.51232
G1 X118.182 Y131.296 E.01652
G1 X131.818 Y131.296 E.4958
G1 X131.591 Y131.689 E.01652
G1 X118.409 Y131.689 E.47928
G1 X118.636 Y132.083 E.01652
G1 X131.364 Y132.083 E.46276
G1 X131.137 Y132.476 E.01652
G1 X118.863 Y132.476 E.44624
