; HEADER_BLOCK_START
; generated by OrcaSlicer-WaveOverhangs 2.4.0-dev on 2026-05-21 at 14:53:46
; WAVE_OVERHANG_BUILD wave_overhangs_version=dev orca_base=2.4.0-dev
; WAVE_OVERHANG_CONFIG region=0 algo=andersons outer_perim=1 spacing=0.440 flow_mm3_per_mm=0.230 speed=2.0 travel=40.0 fan=100 floor_layers=2 min_angle=0.0 min_length=0.00 max_iterations=0 ring_overlap=0.15 pattern=zigzag spacing_mode=uniform seam_mode=alternating perimeter_overlap=0.20 minimum_wave_width=0.70 min_new_area=0.0100 corner_enable=0 corner_spacing=0.000 corner_taper=0.00 corner_angle=90 end_retract=0.80 nozzle_temp_override=0 min_wave_time=0.00 min_layer_time=0.00 wall_loops=2 top_shell_layers=5 bottom_shell_layers=4 infill_density=15 infill_pattern=rectilinear support_remainder=1 instead_of_bridges=0
; total layer number: 84
; filament_density: 1.04
; filament_diameter: 1.75
; max_z_height: 20.12
; filament: 1
; HEADER_BLOCK_END

; THUMBNAIL_BLOCK_START

;
; THUMBNAIL_BLOCK_END

; external perimeters extrusion width = 0.42mm
; perimeters extrusion width = 0.45mm
; infill extrusion width = 0.44mm
; solid infill extrusion width = 0.44mm
; top infill extrusion width = 0.38mm
; first layer extrusion width = 0.42mm

; EXECUTABLE_BLOCK_START
EXCLUDE_OBJECT_DEFINE NAME=FTS_Loop_Holes.STL_id_0_copy_0 CENTER=125,125 POLYGON=[[107.516,124.053],[107.721,122.169],[108.128,120.318],[108.733,118.523],[109.528,116.803],[110.505,115.179],[111.652,113.671],[112.955,112.295],[114.049,111.342],[114.399,111.068],[115.105,110.559],[115.968,110.005],[117.642,109.117],[119.402,108.416],[121.228,107.909],[123.098,107.603],[124.99,107.5],[126.882,107.603],[128.752,107.909],[130.578,108.416],[132.338,109.117],[134.012,110.005],[135.58,111.068],[137.025,112.295],[138.328,113.671],[139.475,115.179],[140.451,116.803],[141.247,118.523],[141.852,120.318],[142.259,122.169],[142.464,124.053],[142.468,124.125],[142.484,125.444],[142.464,125.947],[142.259,127.831],[141.852,129.682],[141.247,131.477],[140.451,133.197],[139.475,134.821],[138.328,136.329],[137.025,137.705],[135.581,138.932],[134.012,139.995],[132.338,140.883],[130.578,141.584],[128.752,142.091],[126.882,142.397],[124.99,142.5],[123.098,142.397],[121.228,142.091],[119.402,141.584],[117.642,140.883],[115.968,139.995],[114.399,138.932],[112.955,137.705],[111.652,136.329],[110.505,134.821],[109.529,133.197],[108.733,131.477],[108.128,129.682],[107.721,127.831],[107.516,125.947],[107.516,124.053]]
M73 P0 R23
M106 S0
M106 P2 S0
;TYPE:Custom
G9111 bedTemp=105 extruderTemp=260
M117
G90
G21
M83 ; use relative distances for extrusion
; Filament gcode
M106 S0
M106 P2 S0
;LAYER_CHANGE
;Z:0.2
;HEIGHT:0.2
 ; PURGE LINE
M204 P500
SET_VELOCITY_LIMIT SQUARE_CORNER_VELOCITY=9
G1 Z0.50 F900 ; for object exclusion
G1 X89.365 Y255 F18000
G1 Z.25 F900
G1 E0.8 F2400
G1 E0.6
G1 F3000
G1 X158.835 Y255 E3.72454
G1 X158.835 Y255.45 E.0252
G1 X89.365 Y255.45 E3.72454
G1 X89.365 Y255.02 E.02305
G1 Z0.5 F600

G1 E-.8 F2400
; AFTER_LAYER_CHANGE 0 @ 0.2mm
;_SET_FAN_SPEED_CHANGING_LAYER
SET_VELOCITY_LIMIT ACCEL=2000 ACCEL_TO_DECEL=1000
G1 X116.277 Y115.99 F24000
G1 Z.56
G1 Z.16
G1 E.8 F2400
;TYPE:Skirt
;WIDTH:0.42
G1 F3000
G1 X116.532 Y115.715 E.01089
G1 X117.639 Y114.815 E.04143
G1 X119.151 Y113.88 E.05162
G1 X120.806 Y113.157 E.05244
G1 X122.894 Y112.616 E.06263
G1 X124.312 Y112.458 E.04143
G1 X126.09 Y112.489 E.05162
G1 X127.873 Y112.775 E.05244
G1 X129.923 Y113.449 E.06263
G1 X131.201 Y114.083 E.04143
G1 X132.691 Y115.078 E.05203
G1 X134.275 Y116.542 E.06263
G1 X135.175 Y117.649 E.04143
G1 X136.117 Y119.174 E.05203
G1 X136.95 Y121.163 E.06263
G1 X137.308 Y122.544 E.04143
G1 X137.527 Y124.277 E.05071
G1 X137.501 Y126.114 E.05335
G1 X137.119 Y128.263 E.06336
G1 X136.541 Y129.933 E.0513
G1 X135.907 Y131.211 E.04143
G1 X134.684 Y132.987 E.06263
G1 X133.448 Y134.285 E.05203
G1 X132.341 Y135.185 E.04143
G1 X130.829 Y136.12 E.05162
G1 X129.174 Y136.843 E.05244
G1 X127.086 Y137.384 E.06263
G1 X125.668 Y137.542 E.04143
G1 X123.876 Y137.511 E.05203
G1 X121.752 Y137.136 E.06263
G1 X120.057 Y136.551 E.05203
G1 X118.464 Y135.732 E.05203
G1 X117.289 Y134.922 E.04143
G1 X115.705 Y133.458 E.06263
G1 X114.595 Y132.051 E.05203
G1 X113.863 Y130.826 E.04143
G1 X113.147 Y129.184 E.05203
G1 X112.606 Y127.096 E.06263
G1 X112.448 Y125.678 E.04143
G1 X112.479 Y123.886 E.05203
G1 X112.854 Y121.762 E.06263
G1 X113.439 Y120.067 E.05203
G1 X114.073 Y118.789 E.04143
G1 X115.053 Y117.319 E.0513
G1 X116.25 Y116.02 E.0513
G1 X116.525 Y116.273 F24000
G1 F3000
G1 X116.769 Y116.007 E.01048
G1 X117.877 Y115.108 E.04143
G1 X119.345 Y114.204 E.05006
G1 X120.952 Y113.505 E.05088
G1 X122.936 Y112.99 E.05951
G1 X124.354 Y112.833 E.04143
G1 X126.078 Y112.866 E.05006
G1 X127.808 Y113.146 E.05088
G1 X129.755 Y113.786 E.05951
G1 X131.302 Y114.579 E.05047
G1 X132.477 Y115.388 E.04143
G1 X133.983 Y116.779 E.05951
G1 X135.061 Y118.143 E.05047
G1 X135.934 Y119.646 E.05047
G1 X136.485 Y120.962 E.04143
G1 X137 Y122.946 E.05951
G1 X137.157 Y124.364 E.04143
G1 X137.124 Y126.102 E.05047
G1 X136.76 Y128.145 E.06023
G1 X136.204 Y129.765 E.04975
G1 X135.57 Y131.043 E.04143
G1 X134.602 Y132.487 E.05047
G1 X133.211 Y133.993 E.05951
G1 X131.847 Y135.071 E.05047
G1 X130.623 Y135.804 E.04143
G1 X129.028 Y136.495 E.05047
G1 X127.044 Y137.01 E.05951
G1 X125.626 Y137.167 E.04143
G1 X123.888 Y137.134 E.05047
G1 X122.172 Y136.854 E.05047
G1 X120.225 Y136.214 E.05951
G1 X118.678 Y135.421 E.05047
G1 X117.503 Y134.612 E.04143
G1 X115.997 Y133.221 E.05951
G1 X114.919 Y131.857 E.05047
G1 X114.045 Y130.354 E.05047
G1 X113.495 Y129.038 E.04143
G1 X112.98 Y127.054 E.05951
G1 X112.823 Y125.636 E.04143
G1 X112.856 Y123.898 E.05047
G1 X113.136 Y122.182 E.05047
G1 X113.776 Y120.235 E.05951
G1 X114.41 Y118.957 E.04143
G1 X115.363 Y117.533 E.04975
G1 X116.498 Y116.302 E.04859
; printing object FTS_Loop_Holes.STL id:0 copy 0
;WIPE_START
G1 X116.769 Y116.007 E-.32073
G1 X117.234 Y115.63 E-.47927
;WIPE_END
EXCLUDE_OBJECT_START NAME=FTS_Loop_Holes.STL_id_0_copy_0
G1 X117.183 Y123.262 Z.56 F24000
G1 X117.134 Y130.498 Z.56
G1 Z.16
G1 E.8 F2400
;TYPE:Outer wall
;WIDTH:0.419999
G1 F4800
G1 X116.431 Y129.324 E.03972
G1 X115.903 Y128.062 E.03972
G1 X115.56 Y126.737 E.03972
G1 X115.408 Y125.378 E.03972
G1 X115.452 Y124.01 E.03972
G1 X115.69 Y122.663 E.03972
G1 X116.117 Y121.363 E.03972
G1 X116.729 Y120.132 E.03992
G1 X117.501 Y119.011 E.03953
G1 X118.43 Y118.006 E.03972
G1 X119.492 Y117.144 E.03972
G1 X120.654 Y116.448 E.03932
G1 X121.928 Y115.913 E.04013
G1 X123.253 Y115.57 E.03971
G1 X124.612 Y115.418 E.03972
G1 X125.966 Y115.462 E.03932
G1 X127.327 Y115.7 E.04013
G1 X128.627 Y116.127 E.03971
G1 X129.852 Y116.735 E.03972
G1 X130.979 Y117.511 E.03972
G1 X131.984 Y118.44 E.03972
G1 X132.846 Y119.502 E.03972
G1 X133.549 Y120.676 E.03972
G1 X134.077 Y121.938 E.03972
G1 X134.42 Y123.263 E.03972
G1 X134.57 Y124.683 E.04146
G1 X134.528 Y125.99 E.03796
G1 X134.288 Y127.344 E.03994
G1 X133.863 Y128.637 E.03951
G1 X133.255 Y129.862 E.03972
G1 X132.479 Y130.989 E.03972
G1 X131.55 Y131.994 E.03972
G1 X130.488 Y132.856 E.03972
G1 X129.326 Y133.552 E.03932
G1 X128.051 Y134.087 E.04013
G1 X126.727 Y134.43 E.03971
G1 X125.368 Y134.582 E.03972
G1 X124 Y134.538 E.03972
G1 X122.653 Y134.3 E.03972
G1 X121.353 Y133.873 E.03972
G1 X120.128 Y133.265 E.03972
G1 X119.001 Y132.489 E.03972
G1 X117.996 Y131.56 E.03972
G1 X117.159 Y130.529 E.03856
G1 X117.443 Y130.281 F24000
;TYPE:Inner wall
G1 F4800
G1 X116.769 Y129.153 E.03816
G1 X116.261 Y127.941 E.03816
G1 X115.932 Y126.669 E.03816
G1 X115.786 Y125.363 E.03816
G1 X115.828 Y124.049 E.03816
G1 X116.057 Y122.755 E.03816
G1 X116.467 Y121.507 E.03815
G1 X117.055 Y120.324 E.03835
G1 X117.797 Y119.247 E.03796
G1 X118.689 Y118.282 E.03816
G1 X119.709 Y117.453 E.03816
G1 X120.825 Y116.786 E.03776
G1 X122.049 Y116.271 E.03857
G1 X123.321 Y115.942 E.03814
G1 X124.627 Y115.796 E.03816
G1 X125.927 Y115.838 E.03776
G1 X127.235 Y116.067 E.03857
G1 X128.483 Y116.477 E.03814
G1 X129.661 Y117.061 E.03816
G1 X130.743 Y117.807 E.03816
G1 X131.708 Y118.699 E.03816
G1 X132.537 Y119.719 E.03816
G1 X133.211 Y120.847 E.03816
G1 X133.719 Y122.059 E.03816
G1 X134.052 Y123.365 E.03913
G1 X134.193 Y124.671 E.03814
G1 X134.152 Y125.951 E.03718
G1 X133.921 Y127.252 E.03837
G1 X133.513 Y128.493 E.03795
G1 X132.929 Y129.671 E.03816
G1 X132.183 Y130.753 E.03816
G1 X131.291 Y131.718 E.03816
G1 X130.271 Y132.547 E.03816
G1 X129.155 Y133.214 E.03776
G1 X127.931 Y133.729 E.03857
G1 X126.659 Y134.058 E.03814
G1 X125.353 Y134.204 E.03816
G1 X124.039 Y134.162 E.03816
G1 X122.745 Y133.933 E.03816
G1 X121.497 Y133.523 E.03816
G1 X120.319 Y132.939 E.03816
G1 X119.237 Y132.193 E.03816
G1 X118.272 Y131.301 E.03816
G1 X117.469 Y130.312 E.03699
G1 E-.3 F2400
;WIPE_START
G1 F4800
G1 X116.952 Y129.456 E-.5
;WIPE_END
G1 X124.584 Y129.415 Z.56 F24000
G1 X131.575 Y129.378 Z.56
G1 Z.16
G1 E.8 F2400
;TYPE:Outer wall
G1 F4800
G1 X131.596 Y129.351 E.00099
G1 X132.21 Y128.232 E.03705
G1 X132.648 Y126.987 E.03834
G1 X132.871 Y125.698 E.03796
G1 X132.878 Y124.391 E.03794
G1 X132.665 Y123.087 E.03838
G1 X132.246 Y121.85 E.03793
G1 X131.645 Y120.724 E.03703
G1 X130.841 Y119.675 E.03838
G1 X129.885 Y118.785 E.03794
G1 X128.795 Y118.064 E.03794
G1 X127.586 Y117.528 E.03838
G1 X126.321 Y117.203 E.03794
G1 X125.044 Y117.091 E.03721
G1 X124.711 Y117.114 E.0097
G1 X123.608 Y117.22 E.03217
G1 X122.464 Y117.503 E.03422
G1 X121.264 Y118.021 E.03794
G1 X120.155 Y118.74 E.03838
G1 X119.19 Y119.621 E.03793
G1 X118.836 Y120.07 E.01661
G1 X118.384 Y120.649 E.02133
G1 X117.771 Y121.767 E.03702
G1 X117.332 Y123.014 E.03838
G1 X117.109 Y124.302 E.03794
G1 X117.102 Y125.609 E.03794
G1 X117.315 Y126.913 E.03838
G1 X117.518 Y127.518 E.01851
G1 X117.734 Y128.15 E.01942
G1 X118.335 Y129.276 E.03703
G1 X119.139 Y130.325 E.03838
G1 X120.095 Y131.215 E.03794
G1 X121.185 Y131.936 E.03794
G1 X122.394 Y132.472 E.03838
G1 X123.659 Y132.797 E.03793
G1 X124.929 Y132.91 E.03703
G1 X126.372 Y132.78 E.04205
G1 X127.516 Y132.497 E.03422
G1 X128.716 Y131.979 E.03794
G1 X129.825 Y131.26 E.03838
G1 X130.79 Y130.379 E.03793
G1 X131.144 Y129.93 E.01661
G1 X131.55 Y129.409 E.01917
G1 X131.894 Y129.575 F24000
;TYPE:Inner wall
G1 F4800
G1 X131.926 Y129.532 E.00156
G1 X132.54 Y128.414 E.03705
G1 X133.014 Y127.082 E.04105
G1 X133.247 Y125.732 E.03977
G1 X133.255 Y124.363 E.03975
G1 X133.023 Y122.966 E.04109
G1 X132.819 Y122.362 E.01851
G1 X132.578 Y121.672 E.02122
G1 X131.978 Y120.547 E.03703
G1 X131.121 Y119.42 E.04109
G1 X130.119 Y118.487 E.03975
G1 X128.976 Y117.731 E.0398
G1 X127.681 Y117.163 E.04105
G1 X126.354 Y116.827 E.03975
G1 X125.077 Y116.715 E.03721
G1 X124.682 Y116.738 E.01149
G1 X123.518 Y116.854 E.03397
G1 X122.343 Y117.144 E.03513
G1 X121.085 Y117.688 E.0398
G1 X119.901 Y118.461 E.04105
G1 X118.894 Y119.388 E.03973
G1 X118.54 Y119.837 E.01661
G1 X118.053 Y120.468 E.02313
G1 X117.44 Y121.586 E.03702
G1 X116.966 Y122.919 E.04109
G1 X116.733 Y124.268 E.03975
G1 X116.725 Y125.637 E.03975
G1 X116.957 Y127.034 E.04109
G1 X117.161 Y127.638 E.01851
G1 X117.402 Y128.328 E.02122
G1 X118.002 Y129.453 E.03703
G1 X118.859 Y130.58 E.04109
G1 X119.861 Y131.513 E.03975
G1 X121.004 Y132.269 E.0398
G1 X122.299 Y132.837 E.04105
G1 X123.626 Y133.173 E.03973
G1 X124.896 Y133.286 E.03703
G1 X125.298 Y133.262 E.01169
G1 X126.462 Y133.146 E.03397
G1 X127.637 Y132.856 E.03513
G1 X128.895 Y132.312 E.0398
G1 X130.079 Y131.539 E.04105
G1 X131.086 Y130.612 E.03973
G1 X131.44 Y130.163 E.01661
G1 X131.869 Y129.607 E.0204
G1 E-.3 F2400
;WIPE_START
G1 F4800
G1 X131.926 Y129.532 E-.04691
G1 X132.362 Y128.738 E-.45309
;WIPE_END
G1 X129.227 Y121.779 Z.56 F24000
G1 X126.66 Y116.081 Z.56
G1 Z.16
G1 E.8 F2400
;TYPE:Bottom surface
;WIDTH:0.422461
G1 F4800
G1 X124.65 Y116.081 E.05876
G1 X123.372 Y116.22 E.03755
G1 X122.445 Y116.461 E.02799
G1 X128.071 Y116.461 E.1644
G1 E-.3 F2400
;WIPE_START
G1 F4800
G1 X127.071 Y116.461 E-.5
;WIPE_END
G1 X126.878 Y116.84 Z.56 F24000
G1 Z.16
G1 E.8 F2400
G1 F4800
G1 X128.579 Y116.84 E.0497
G1 X129.344 Y117.22 E.02496
G1 X128.517 Y117.22 E.02417
G1 X129.085 Y117.471 E.01814
G1 X129.277 Y117.599 E.00677
G1 X129.943 Y117.599 E.01947
G1 X130.494 Y117.979 E.01955
G1 X129.847 Y117.979 E.01891
G1 X130.395 Y118.358 E.01947
G1 X130.923 Y118.358 E.01544
G1 X131.334 Y118.738 E.01634
G1 X130.798 Y118.738 E.01566
G1 X131.202 Y119.117 E.01618
G1 X131.684 Y119.117 E.0141
G1 X131.992 Y119.497 E.01429
G1 X131.536 Y119.497 E.01332
G1 X131.828 Y119.877 E.014
G1 X132.3 Y119.877 E.01379
G1 X132.527 Y120.256 E.01292
G1 X132.121 Y120.256 E.01189
G1 X132.337 Y120.636 E.01277
G1 X132.753 Y120.636 E.01216
G1 X132.966 Y120.993 E.01216
G1 X132.975 Y121.015 E.0007
G1 X132.543 Y121.015 E.01262
G1 X132.75 Y121.395 E.01262
G1 X133.134 Y121.395 E.01124
G1 X133.293 Y121.774 E.01202
G1 X132.91 Y121.774 E.0112
G1 X133.04 Y122.154 E.01173
G1 X133.451 Y122.154 E.01201
G1 X133.55 Y122.533 E.01146
G1 X133.171 Y122.533 E.01107
G1 X133.301 Y122.913 E.01173
G1 X133.648 Y122.913 E.01014
G1 X133.746 Y123.292 E.01146
G1 X133.364 Y123.292 E.01116
G1 X133.424 Y123.672 E.01123
G1 X133.802 Y123.672 E.01105
G1 X133.844 Y124.052 E.01116
G1 X133.483 Y124.052 E.01056
G1 X133.537 Y124.431 E.01121
G1 X133.886 Y124.431 E.01019
G1 X133.91 Y124.648 E.00639
G1 X133.905 Y124.811 E.00474
G1 X133.533 Y124.811 E.01089
G1 X133.528 Y125.19 E.01109
G1 X133.893 Y125.19 E.01068
G1 X133.881 Y125.57 E.0111
G1 X133.523 Y125.57 E.01047
G1 X133.519 Y125.819 E.00728
G1 X133.497 Y125.949 E.00387
G1 X133.865 Y125.949 E.01075
G1 X133.797 Y126.329 E.01126
G1 X133.431 Y126.329 E.0107
G1 X133.366 Y126.708 E.01126
G1 X133.73 Y126.708 E.01066
G1 X133.663 Y127.088 E.01126
G1 X133.3 Y127.088 E.01061
G1 X133.173 Y127.467 E.01169
G1 X133.553 Y127.467 E.01109
G1 X133.428 Y127.847 E.01168
G1 X133.043 Y127.847 E.01125
G1 X132.912 Y128.226 E.01173
G1 X133.303 Y128.226 E.01141
G1 X133.25 Y128.386 E.0049
G1 X133.141 Y128.606 E.00718
G1 X132.747 Y128.606 E.01153
G1 X132.54 Y128.986 E.01262
G1 X132.953 Y128.986 E.01206
G1 X132.765 Y129.365 E.01238
G1 X132.334 Y129.365 E.01258
G1 X132.127 Y129.745 E.01264
G1 X132.534 Y129.745 E.01188
G1 X132.271 Y130.124 E.01349
G1 X131.828 Y130.124 E.01295
G1 X131.529 Y130.504 E.01412
G1 X132.008 Y130.504 E.01402
G1 X131.948 Y130.591 E.0031
G1 X131.678 Y130.883 E.01164
G1 X131.215 Y130.883 E.01352
G1 X130.794 Y131.263 E.01657
G1 X131.327 Y131.263 E.01558
G1 X131.097 Y131.511 E.00989
G1 X130.936 Y131.642 E.00607
G1 X130.373 Y131.642 E.01647
G1 X130.165 Y131.83 E.00818
M73 P1 R23
G1 X129.866 Y132.022 E.01037
G1 X130.469 Y132.022 E.0176
G1 X130.109 Y132.314 E.01356
G1 X129.963 Y132.401 E.00496
G1 X129.278 Y132.401 E.02002
G1 X129.059 Y132.543 E.00763
G1 X128.514 Y132.781 E.01736
G1 X129.329 Y132.781 E.0238
G1 X129.027 Y132.961 E.01027
G1 X128.553 Y133.16 E.01502
G1 X126.843 Y133.16 E.04999
G1 E-.3 F2400
;WIPE_START
G1 F4800
G1 X127.843 Y133.16 E-.5
;WIPE_END
G1 X125.72 Y125.829 Z.56 F24000
G1 X123.117 Y116.84 Z.56
G1 Z.16
G1 E.8 F2400
G1 F4800
G1 X121.425 Y116.84 E.04943
G1 X120.953 Y117.039 E.01497
G1 X120.65 Y117.22 E.01031
G1 X121.464 Y117.22 E.02377
G1 X121.01 Y117.412 E.01439
G1 X120.717 Y117.599 E.01018
G1 X120.016 Y117.599 E.02049
G1 X119.871 Y117.686 E.00492
G1 X119.51 Y117.979 E.01359
G1 X120.124 Y117.979 E.01792
G1 X119.749 Y118.219 E.013
G1 X119.596 Y118.358 E.00606
G1 X119.043 Y118.358 E.01615
G1 X118.883 Y118.489 E.00604
G1 X118.652 Y118.738 E.00992
G1 X119.179 Y118.738 E.01541
G1 X118.763 Y119.117 E.01646
G1 X118.301 Y119.117 E.0135
G1 X118.018 Y119.424 E.0122
G1 X117.968 Y119.497 E.00259
G1 X118.451 Y119.497 E.01411
G1 X118.151 Y119.877 E.01412
G1 X117.706 Y119.877 E.01301
G1 X117.445 Y120.256 E.01347
G1 X117.852 Y120.256 E.01191
G1 X117.645 Y120.636 E.01263
G1 X117.216 Y120.636 E.01255
G1 X117.027 Y121.015 E.01238
G1 X117.439 Y121.015 E.01204
G1 X117.233 Y121.395 E.01262
G1 X116.839 Y121.395 E.01153
G1 X116.729 Y121.614 E.00717
G1 X116.677 Y121.774 E.00492
G1 X117.066 Y121.774 E.01138
G1 X116.934 Y122.154 E.01175
G1 X116.552 Y122.154 E.01115
G1 X116.427 Y122.533 E.01168
G1 X116.801 Y122.533 E.01092
