; HEADER_BLOCK_START
; generated by OrcaSlicer-WaveOverhangs 2.4.0-dev on 2026-05-21 at 15:24:34
; WAVE_OVERHANG_BUILD wave_overhangs_version=dev orca_base=2.4.0-dev
; WAVE_OVERHANG_CONFIG region=0 algo=andersons outer_perim=1 spacing=0.440 flow_mm3_per_mm=0.230 speed=2.0 travel=40.0 fan=100 floor_layers=2 min_angle=0.0 min_length=0.00 max_iterations=0 ring_overlap=0.15 pattern=smart spacing_mode=uniform seam_mode=alternating perimeter_overlap=0.20 minimum_wave_width=0.70 min_new_area=0.0100 corner_enable=0 corner_spacing=0.000 corner_taper=0.00 corner_angle=90 end_retract=0.80 nozzle_temp_override=0 min_wave_time=0.00 min_layer_time=0.00 wall_loops=2 top_shell_layers=5 bottom_shell_layers=4 infill_density=15 infill_pattern=rectilinear support_remainder=1 instead_of_bridges=0
; total layer number: 84
; filament_density: 1.04
; filament_diameter: 1.75
; max_z_height: 20.12
; filament: 1
; HEADER_BLOCK_END

; THUMBNAIL_BLOCK_START

;
; THUMBNAIL_BLOCK_END

; external perimeters extrusion width = 0.42mm
; perimeters extrusion width = 0.45mm
; infill extrusion width = 0.44mm
; solid infill extrusion width = 0.44mm
; top infill extrusion width = 0.38mm
; first layer extrusion width = 0.42mm

; EXECUTABLE_BLOCK_START
EXCLUDE_OBJECT_DEFINE NAME=FTS_Bridge.STL_id_0_copy_0 CENTER=125,125 POLYGON=[[110,132.5],[110,97.5],[125,97.5],[140,117.5],[140,152.5],[125,152.5],[110,132.5]]
M73 P0 R26
M106 S0
M106 P2 S0
;TYPE:Custom
G9111 bedTemp=105 extruderTemp=260
M117
G90
G21
M83 ; use relative distances for extrusion
; Filament gcode
M106 S0
M106 P2 S0
;LAYER_CHANGE
;Z:0.2
;HEIGHT:0.2
 ; PURGE LINE
M204 P500
SET_VELOCITY_LIMIT SQUARE_CORNER_VELOCITY=9
G1 Z0.50 F900 ; for object exclusion
G1 X89.365 Y255 F18000
G1 Z.25 F900
G1 E0.8 F2400
G1 E0.6
G1 F3000
G1 X158.835 Y255 E3.72454
G1 X158.835 Y255.45 E.0252
G1 X89.365 Y255.45 E3.72454
G1 X89.365 Y255.02 E.02305
G1 Z0.5 F600

G1 E-.8 F2400
; AFTER_LAYER_CHANGE 0 @ 0.2mm
;_SET_FAN_SPEED_CHANGING_LAYER
SET_VELOCITY_LIMIT ACCEL=2000 ACCEL_TO_DECEL=1000
G1 X107.434 Y100.378 F24000
G1 Z.56
G1 Z.16
G1 E.8 F2400
;TYPE:Skirt
;WIDTH:0.42
G1 F3000
G1 X107.434 Y97.5 E.08356
G1 X107.827 Y96.137 E.04119
G1 X108.883 Y95.19 E.04119
G1 X110 Y94.934 E.03326
G1 X125 Y94.934 E.43551
G1 X126.363 Y95.327 E.04119
G1 X127.402 Y96.599 E.0477
G1 X142.402 Y136.599 E1.24034
G1 X142.566 Y137.5 E.02658
G1 X142.566 Y152.5 E.43551
G1 X142.173 Y153.863 E.04119
G1 X141.117 Y154.81 E.04119
G1 X140 Y155.066 E.03326
G1 X125 Y155.066 E.43551
G1 X123.637 Y154.673 E.04119
G1 X122.598 Y153.401 E.0477
G1 X107.598 Y113.401 E1.24034
G1 X107.434 Y112.5 E.02658
G1 X107.434 Y100.418 E.35079
G1 X107.811 Y100.418 F24000
G1 F3000
G1 X107.811 Y97.5 E.08472
G1 X108.202 Y96.252 E.03798
G1 X109.235 Y95.449 E.03798
G1 X110 Y95.311 E.02256
G1 X125 Y95.311 E.43551
G1 X126.248 Y95.702 E.03798
G1 X127.049 Y96.732 E.03787
G1 X142.049 Y136.732 E1.24034
G1 X142.189 Y137.5 E.02268
G1 X142.189 Y152.5 E.43551
G1 X141.798 Y153.748 E.03798
G1 X140.765 Y154.551 E.03798
G1 X140 Y154.689 E.02256
G1 X125 Y154.689 E.43551
G1 X123.752 Y154.298 E.03798
G1 X122.951 Y153.268 E.03787
G1 X107.951 Y113.268 E1.24034
G1 X107.811 Y112.5 E.02268
G1 X107.811 Y100.458 E.34963
; printing object FTS_Bridge.STL id:0 copy 0
;WIPE_START
G1 X107.811 Y99.458 E-.8
;WIPE_END
EXCLUDE_OBJECT_START NAME=FTS_Bridge.STL_id_0_copy_0
G1 X110.988 Y106.398 Z.56 F24000
G1 X125.41 Y137.91 Z.56
G1 Z.16
G1 E.8 F2400
;TYPE:Outer wall
;WIDTH:0.419999
G1 F4800
G1 X139.59 Y137.91 E.4117
G1 X139.59 Y152.09 E.4117
G1 X125.41 Y152.09 E.4117
G1 X125.41 Y137.95 E.41054
G1 X125.787 Y138.287 F24000
;TYPE:Inner wall
G1 F4800
G1 X139.213 Y138.287 E.38981
G1 X139.213 Y151.713 E.38981
G1 X125.787 Y151.713 E.38981
G1 X125.787 Y138.327 E.38865
G1 E-.3 F2400
;WIPE_START
G1 F4800
G1 X126.787 Y138.324 E-.5
;WIPE_END
G1 X134.418 Y138.477 Z.56 F24000
G1 X139.1 Y138.57 Z.56
G1 Z.16
G1 E.8 F2400
;TYPE:Bottom surface
;WIDTH:0.421129
G1 F4800
G1 X126.07 Y138.57 E.37945
G1 X126.07 Y138.949 E.01101
G1 X138.93 Y138.949 E.3745
G1 X138.93 Y139.327 E.01101
G1 X126.07 Y139.327 E.3745
G1 X126.07 Y139.705 E.01101
G1 X138.93 Y139.705 E.3745
G1 X138.93 Y140.083 E.01101
G1 X126.07 Y140.083 E.3745
G1 X126.07 Y140.462 E.01101
G1 X138.93 Y140.462 E.3745
G1 X138.93 Y140.84 E.01101
G1 X126.07 Y140.84 E.3745
G1 X126.07 Y141.218 E.01101
G1 X138.93 Y141.218 E.3745
G1 X138.93 Y141.596 E.01101
G1 X126.07 Y141.596 E.3745
G1 X126.07 Y141.974 E.01101
G1 X138.93 Y141.974 E.3745
G1 X138.93 Y142.353 E.01101
G1 X126.07 Y142.353 E.3745
G1 X126.07 Y142.731 E.01101
G1 X138.93 Y142.731 E.3745
G1 X138.93 Y143.109 E.01101
M73 P1 R26
G1 X126.07 Y143.109 E.3745
G1 X126.07 Y143.487 E.01101
G1 X138.93 Y143.487 E.3745
G1 X138.93 Y143.865 E.01101
G1 X126.07 Y143.865 E.3745
G1 X126.07 Y144.244 E.01101
G1 X138.93 Y144.244 E.3745
G1 X138.93 Y144.622 E.01101
G1 X126.07 Y144.622 E.3745
G1 X126.07 Y145 E.01101
G1 X138.93 Y145 E.3745
G1 X138.93 Y145.378 E.01101
G1 X126.07 Y145.378 E.3745
G1 X126.07 Y145.756 E.01101
G1 X138.93 Y145.756 E.3745
G1 X138.93 Y146.135 E.01101
G1 X126.07 Y146.135 E.3745
G1 X126.07 Y146.513 E.01101
G1 X138.93 Y146.513 E.3745
G1 X138.93 Y146.891 E.01101
G1 X126.07 Y146.891 E.3745
G1 X126.07 Y147.269 E.01101
G1 X138.93 Y147.269 E.3745
G1 X138.93 Y147.648 E.01101
G1 X126.07 Y147.648 E.3745
G1 X126.07 Y148.026 E.01101
G1 X138.93 Y148.026 E.3745
G1 X138.93 Y148.404 E.01101
G1 X126.07 Y148.404 E.3745
G1 X126.07 Y148.782 E.01101
G1 X138.93 Y148.782 E.3745
G1 X138.93 Y149.16 E.01101
G1 X126.07 Y149.16 E.3745
G1 X126.07 Y149.539 E.01101
G1 X138.93 Y149.539 E.3745
G1 X138.93 Y149.917 E.01101
G1 X126.07 Y149.917 E.3745
G1 X126.07 Y150.295 E.01101
G1 X138.93 Y150.295 E.3745
G1 X138.93 Y150.673 E.01101
G1 X126.07 Y150.673 E.3745
G1 X126.07 Y151.051 E.01101
G1 X138.93 Y151.051 E.3745
G1 X138.93 Y151.43 E.01101
G1 X125.9 Y151.43 E.37945
G1 E-.3 F2400
;WIPE_START
G1 F4800
G1 X126.9 Y151.43 E-.5
;WIPE_END
G1 X126.453 Y143.81 Z.56 F24000
G1 X124.59 Y112.09 Z.56
G1 Z.16
G1 E.8 F2400
;TYPE:Outer wall
;WIDTH:0.419999
G1 F4800
G1 X110.41 Y112.09 E.4117
G1 X110.41 Y97.91 E.4117
G1 X124.59 Y97.91 E.4117
G1 X124.59 Y112.05 E.41054
G1 X124.213 Y111.713 F24000
;TYPE:Inner wall
G1 F4800
G1 X110.787 Y111.713 E.38981
G1 X110.787 Y98.287 E.38981
G1 X124.213 Y98.287 E.38981
G1 X124.213 Y111.673 E.38865
G1 E-.3 F2400
;WIPE_START
G1 F4800
G1 X123.213 Y111.676 E-.5
;WIPE_END
G1 X123.728 Y104.061 Z.56 F24000
G1 X124.1 Y98.57 Z.56
G1 Z.16
G1 E.8 F2400
;TYPE:Bottom surface
;WIDTH:0.421129
G1 F4800
G1 X111.07 Y98.57 E.37945
G1 X111.07 Y98.949 E.01101
G1 X123.93 Y98.949 E.3745
G1 X123.93 Y99.327 E.01101
G1 X111.07 Y99.327 E.3745
G1 X111.07 Y99.705 E.01101
G1 X123.93 Y99.705 E.3745
G1 X123.93 Y100.083 E.01101
G1 X111.07 Y100.083 E.3745
G1 X111.07 Y100.462 E.01101
G1 X123.93 Y100.462 E.3745
G1 X123.93 Y100.84 E.01101
G1 X111.07 Y100.84 E.3745
G1 X111.07 Y101.218 E.01101
G1 X123.93 Y101.218 E.3745
G1 X123.93 Y101.596 E.01101
G1 X111.07 Y101.596 E.3745
G1 X111.07 Y101.974 E.01101
G1 X123.93 Y101.974 E.3745
G1 X123.93 Y102.353 E.01101
G1 X111.07 Y102.353 E.3745
G1 X111.07 Y102.731 E.01101
G1 X123.93 Y102.731 E.3745
G1 X123.93 Y103.109 E.01101
G1 X111.07 Y103.109 E.3745
G1 X111.07 Y103.487 E.01101
G1 X123.93 Y103.487 E.3745
G1 X123.93 Y103.865 E.01101
G1 X111.07 Y103.865 E.3745
G1 X111.07 Y104.244 E.01101
G1 X123.93 Y104.244 E.3745
G1 X123.93 Y104.622 E.01101
G1 X111.07 Y104.622 E.3745
G1 X111.07 Y105 E.01101
G1 X123.93 Y105 E.3745
G1 X123.93 Y105.378 E.01101
G1 X111.07 Y105.378 E.3745
G1 X111.07 Y105.756 E.01101
G1 X123.93 Y105.756 E.3745
G1 X123.93 Y106.135 E.01101
G1 X111.07 Y106.135 E.3745
G1 X111.07 Y106.513 E.01101
G1 X123.93 Y106.513 E.3745
G1 X123.93 Y106.891 E.01101
G1 X111.07 Y106.891 E.3745
G1 X111.07 Y107.269 E.01101
G1 X123.93 Y107.269 E.3745
G1 X123.93 Y107.648 E.01101
G1 X111.07 Y107.648 E.3745
G1 X111.07 Y108.026 E.01101
G1 X123.93 Y108.026 E.3745
G1 X123.93 Y108.404 E.01101
G1 X111.07 Y108.404 E.3745
G1 X111.07 Y108.782 E.01101
G1 X123.93 Y108.782 E.3745
G1 X123.93 Y109.16 E.01101
G1 X111.07 Y109.16 E.3745
G1 X111.07 Y109.539 E.01101
G1 X123.93 Y109.539 E.3745
G1 X123.93 Y109.917 E.01101
G1 X111.07 Y109.917 E.3745
G1 X111.07 Y110.295 E.01101
G1 X123.93 Y110.295 E.3745
G1 X123.93 Y110.673 E.01101
G1 X111.07 Y110.673 E.3745
G1 X111.07 Y111.051 E.01101
G1 X123.93 Y111.051 E.3745
G1 X123.93 Y111.43 E.01101
G1 X110.9 Y111.43 E.37945
; stop printing object FTS_Bridge.STL id:0 copy 0
;LAYER_CHANGE
;Z:0.44
;HEIGHT:0.24

G1 E-.3 F2400
;WIPE_START
G1 F4800
G1 X111.9 Y111.43 E-.5
;WIPE_END
EXCLUDE_OBJECT_END NAME=FTS_Bridge.STL_id_0_copy_0
; AFTER_LAYER_CHANGE 1 @ 0.44mm
;_SET_FAN_SPEED_CHANGING_LAYER
SET_VELOCITY_LIMIT ACCEL=15000 ACCEL_TO_DECEL=7500
M104 S250 ; set nozzle temperature
M140 S100 ; set bed temperature
G1 X107.434 Y111.43 Z.8 F24000
G1 Z.4
G1 E.8 F2400
;TYPE:Skirt
;WIDTH:0.42
G1 F3000
G1 X107.434 Y97.5 E.47427
G1 X107.827 Y96.137 E.0483
G1 X108.883 Y95.19 E.0483
G1 X110 Y94.934 E.03901
G1 X125 Y94.934 E.51072
G1 X126.363 Y95.327 E.0483
G1 X127.402 Y96.599 E.05593
G1 X142.402 Y136.599 E1.45452
G1 X142.566 Y137.5 E.03117
M73 P2 R26
G1 X142.566 Y152.5 E.51072
G1 X142.173 Y153.863 E.0483
G1 X141.117 Y154.81 E.0483
G1 X140 Y155.066 E.03901
G1 X125 Y155.066 E.51072
G1 X123.637 Y154.673 E.0483
G1 X122.598 Y153.401 E.05593
G1 X107.598 Y113.401 E1.45452
G1 X107.434 Y112.5 E.03117
G1 X107.434 Y111.47 E.03508
G1 X107.811 Y111.47 F24000
G1 F3000
G1 X107.811 Y97.5 E.47563
G1 X108.202 Y96.252 E.04453
G1 X109.235 Y95.449 E.04453
G1 X110 Y95.311 E.02646
G1 X125 Y95.311 E.51072
G1 X126.248 Y95.702 E.04453
G1 X127.049 Y96.732 E.0444
G1 X142.049 Y136.732 E1.45452
G1 X142.189 Y137.5 E.02659
G1 X142.189 Y152.5 E.51072
G1 X141.798 Y153.748 E.04453
G1 X140.765 Y154.551 E.04453
G1 X140 Y154.689 E.02646
G1 X125 Y154.689 E.51072
G1 X123.752 Y154.298 E.04453
G1 X122.951 Y153.268 E.0444
G1 X107.951 Y113.268 E1.45452
G1 X107.811 Y112.5 E.02659
G1 X107.811 Y111.51 E.03372
; printing object FTS_Bridge.STL id:0 copy 0
;WIPE_START
G1 X107.811 Y110.51 E-.8
;WIPE_END
EXCLUDE_OBJECT_START NAME=FTS_Bridge.STL_id_0_copy_0
G1 X111.924 Y116.939 Z.8 F24000
G1 X125.21 Y137.71 Z.8
G1 Z.4
G1 E.8 F2400
SET_VELOCITY_LIMIT ACCEL=13000 ACCEL_TO_DECEL=6500
;TYPE:Outer wall
;WIDTH:0.419999
G1 F4800
G1 X139.79 Y137.71 E.49642
G1 X139.79 Y152.29 E.49642
G1 X125.21 Y152.29 E.49642
G1 X125.21 Y137.75 E.49505
SET_VELOCITY_LIMIT ACCEL=15000 ACCEL_TO_DECEL=7500
G1 X125.593 Y138.093 F24000
;TYPE:Inner wall
;WIDTH:0.449999
G1 F4800
G1 X139.407 Y138.093 E.50859
G1 X139.407 Y151.907 E.50859
G1 X125.593 Y151.907 E.50859
G1 X125.593 Y138.133 E.50712
G1 X139.049 Y151.728 F24000
;TYPE:Internal solid infill
;WIDTH:0.448393
G1 F4800
G1 X139.049 Y138.447 E.48701
G1 X138.652 Y138.447 E.01455
G1 X138.652 Y151.553 E.4806
G1 X138.255 Y151.553 E.01455
G1 X138.255 Y138.447 E.4806
G1 X137.858 Y138.447 E.01455
G1 X137.858 Y151.553 E.4806
G1 X137.461 Y151.553 E.01455
G1 X137.461 Y138.447 E.4806
G1 X137.064 Y138.447 E.01455
G1 X137.064 Y151.553 E.4806
G1 X136.667 Y151.553 E.01455
G1 X136.667 Y138.447 E.4806
G1 X136.27 Y138.447 E.01455
G1 X136.27 Y151.553 E.4806
G1 X135.874 Y151.553 E.01455
G1 X135.874 Y138.447 E.4806
G1 X135.477 Y138.447 E.01455
G1 X135.477 Y151.553 E.4806
G1 X135.08 Y151.553 E.01455
G1 X135.08 Y138.447 E.4806
G1 X134.683 Y138.447 E.01455
G1 X134.683 Y151.553 E.4806
G1 X134.286 Y151.553 E.01455
G1 X134.286 Y138.447 E.4806
G1 X133.889 Y138.447 E.01455
G1 X133.889 Y151.553 E.4806
G1 X133.492 Y151.553 E.01455
G1 X133.492 Y138.447 E.4806
G1 X133.095 Y138.447 E.01455
G1 X133.095 Y151.553 E.4806
G1 X132.698 Y151.553 E.01455
G1 X132.698 Y138.447 E.4806
G1 X132.302 Y138.447 E.01455
G1 X132.302 Y151.553 E.4806
G1 X131.905 Y151.553 E.01455
G1 X131.905 Y138.447 E.4806
G1 X131.508 Y138.447 E.01455
G1 X131.508 Y151.553 E.4806
G1 X131.111 Y151.553 E.01455
G1 X131.111 Y138.447 E.4806
G1 X130.714 Y138.447 E.01455
G1 X130.714 Y151.553 E.4806
G1 X130.317 Y151.553 E.01455
G1 X130.317 Y138.447 E.4806
G1 X129.92 Y138.447 E.01455
G1 X129.92 Y151.553 E.4806
G1 X129.523 Y151.553 E.01455
G1 X129.523 Y138.447 E.4806
G1 X129.126 Y138.447 E.01455
G1 X129.126 Y151.553 E.4806
G1 X128.73 Y151.553 E.01455
G1 X128.73 Y138.447 E.4806
G1 X128.333 Y138.447 E.01455
G1 X128.333 Y151.553 E.4806
G1 X127.936 Y151.553 E.01455
G1 X127.936 Y138.447 E.4806
G1 X127.539 Y138.447 E.01455
G1 X127.539 Y151.553 E.4806
G1 X127.142 Y151.553 E.01455
G1 X127.142 Y138.447 E.4806
G1 X126.745 Y138.447 E.01455
G1 X126.745 Y151.553 E.4806
G1 X126.348 Y151.553 E.01455
G1 X126.348 Y138.447 E.4806
G1 X125.951 Y138.447 E.01455
G1 X125.951 Y151.728 E.48701
G1 E-.3 F2400
;WIPE_START
G1 F4800
G1 X125.951 Y150.728 E-.5
;WIPE_END
G1 X125.721 Y143.099 Z.8 F24000
G1 X124.79 Y112.29 Z.8
G1 Z.4
G1 E.8 F2400
SET_VELOCITY_LIMIT ACCEL=13000 ACCEL_TO_DECEL=6500
;TYPE:Outer wall
;WIDTH:0.419999
G1 F4800
G1 X110.21 Y112.29 E.49642
G1 X110.21 Y97.71 E.49642
G1 X124.79 Y97.71 E.49642
G1 X124.79 Y112.25 E.49505
SET_VELOCITY_LIMIT ACCEL=15000 ACCEL_TO_DECEL=7500
G1 X124.407 Y111.907 F24000
;TYPE:Inner wall
;WIDTH:0.449999
G1 F4800
G1 X110.593 Y111.907 E.50859
G1 X110.593 Y98.093 E.50859
G1 X124.407 Y98.093 E.50859
G1 X124.407 Y111.867 E.50712
G1 X124.049 Y111.728 F24000
;TYPE:Internal solid infill
;WIDTH:0.448393
G1 F4800
G1 X124.049 Y98.447 E.48701
G1 X123.652 Y98.447 E.01455
G1 X123.652 Y111.553 E.4806
G1 X123.255 Y111.553 E.01455
G1 X123.255 Y98.447 E.4806
G1 X122.858 Y98.447 E.01455
G1 X122.858 Y111.553 E.4806
G1 X122.461 Y111.553 E.01455
G1 X122.461 Y98.447 E.4806
G1 X122.064 Y98.447 E.01455
G1 X122.064 Y111.553 E.4806
G1 X121.667 Y111.553 E.01455
G1 X121.667 Y98.447 E.4806
G1 X121.27 Y98.447 E.01455
G1 X121.27 Y111.553 E.4806
G1 X120.874 Y111.553 E.01455
G1 X120.874 Y98.447 E.4806
G1 X120.477 Y98.447 E.01455
M73 P3 R26
G1 X120.477 Y111.553 E.4806
G1 X120.08 Y111.553 E.01455
G1 X120.08 Y98.447 E.4806
G1 X119.683 Y98.447 E.01455
G1 X119.683 Y111.553 E.4806
G1 X119.286 Y111.553 E.01455
G1 X119.286 Y98.447 E.4806
G1 X118.889 Y98.447 E.01455
G1 X118.889 Y111.553 E.4806
G1 X118.492 Y111.553 E.01455
G1 X118.492 Y98.447 E.4806
G1 X118.095 Y98.447 E.01455
G1 X118.095 Y111.553 E.4806
G1 X117.698 Y111.553 E.01455
G1 X117.698 Y98.447 E.4806
G1 X117.302 Y98.447 E.01455
G1 X117.302 Y111.553 E.4806
G1 X116.905 Y111.553 E.01455
G1 X116.905 Y98.447 E.4806
G1 X116.508 Y98.447 E.01455
G1 X116.508 Y111.553 E.4806
G1 X116.111 Y111.553 E.01455
G1 X116.111 Y98.447 E.4806
G1 X115.714 Y98.447 E.01455
G1 X115.714 Y111.553 E.4806
G1 X115.317 Y111.553 E.01455
G1 X115.317 Y98.447 E.4806
G1 X114.92 Y98.447 E.01455
G1 X114.92 Y111.553 E.4806
G1 X114.523 Y111.553 E.01455
G1 X114.523 Y98.447 E.4806
G1 X114.126 Y98.447 E.01455
G1 X114.126 Y111.553 E.4806
G1 X113.73 Y111.553 E.01455
G1 X113.73 Y98.447 E.4806
G1 X113.333 Y98.447 E.01455
G1 X113.333 Y111.553 E.4806
G1 X112.936 Y111.553 E.01455
G1 X112.936 Y98.447 E.4806
G1 X112.539 Y98.447 E.01455
G1 X112.539 Y111.553 E.4806
G1 X112.142 Y111.553 E.01455
G1 X112.142 Y98.447 E.4806
G1 X111.745 Y98.447 E.01455
G1 X111.745 Y111.553 E.4806
G1 X111.348 Y111.553 E.01455
G1 X111.348 Y98.447 E.4806
G1 X110.951 Y98.447 E.01455
G1 X110.951 Y111.728 E.48701
; stop printing object FTS_Bridge.STL id:0 copy 0
;LAYER_CHANGE
;Z:0.68
;HEIGHT:0.24

G1 E-.3 F2400
;WIPE_START
G1 F4800
G1 X110.951 Y110.728 E-.5
;WIPE_END
EXCLUDE_OBJECT_END NAME=FTS_Bridge.STL_id_0_copy_0
; AFTER_LAYER_CHANGE 2 @ 0.68mm
;_SET_FAN_SPEED_CHANGING_LAYER
; printing object FTS_Bridge.STL id:0 copy 0
EXCLUDE_OBJECT_START NAME=FTS_Bridge.STL_id_0_copy_0
G1 X114.517 Y117.476 Z1.04 F24000
G1 X125.21 Y137.71 Z1.04
G1 Z.64
G1 E.8 F2400
SET_VELOCITY_LIMIT ACCEL=13000 ACCEL_TO_DECEL=6500
;TYPE:Outer wall
;WIDTH:0.419999
G1 F4800
G1 X139.79 Y137.71 E.49642
G1 X139.79 Y152.29 E.49642
G1 X125.21 Y152.29 E.49642
G1 X125.21 Y137.75 E.49505
SET_VELOCITY_LIMIT ACCEL=15000 ACCEL_TO_DECEL=7500
G1 X125.593 Y138.093 F24000
;TYPE:Inner wall
;WIDTH:0.449999
G1 F4800
G1 X139.407 Y138.093 E.50859
G1 X139.407 Y151.907 E.50859
G1 X125.593 Y151.907 E.50859
G1 X125.593 Y138.133 E.50712
G1 X139.228 Y138.451 F24000
